
This G-code is the result of a post-processor modification by chiefenne.
The original post-processor (version 45917) was modified to include additional features.
The postprocessor is intended for use with the KinetiC-NC control software from CNC-STEP.
For more information, please visit the CNC-STEP website at https://www.cnc-step.com/

The following modifications have been made to the original post-processor:
 - Intial section which supports a specific safe path to the workpiece origin (G54)
 - Jump labels between sections (e.g., 2D adaptive clearing, pockets, etc.)
   Allows to execute individual sections separately
 - Repeat / Next with counter for each operation
   Allows to redo sections multiple times
 - Allow ':' as a permitted character in comments
 - Swap spindle speed and direction, M3 S12000 instead of S12000 M3

%
(LOEWE Anagram Charm)
(Anagram Charm)
(Machine:)
(  vendor: CNC STEP)
(  model: HIGH-Z S-720T)
(  description: Generic 3-axis)

(Tools used in this program:)
(T2 D=2 CR=0 - ZMIN=-3.5 - Schaftfrser)

(Safe path to workpiece origin - typically G54)
G54
#100=#900 (read x-offset which was set in G54)
#101=0   (safe y for going to workpiece)
#102=0   (safe z for going to workpiece)
PRINT "x-offset = ";#100;"mm"
PRINT "y-offset = ";#101;"mm"
PRINT "z-offset = ";#102;"mm"
ASKBOOL "Continue with offsets?" I=2
IF #0=0 THEN
  ASKFLT "Enter x-offset" I=0.0 J=720.0
  #100=#0
  PRINT "x-offset = ";#100;"mm"
ENDIF

N10 G90 G94
N15 G17
N20 G21

G53
G0 Z=#102
G0 Y=#101
G0 X=#100

(Modify SKIP label to jump to the respective section)
(To activate, remove the brackets around SKIP and JUMP labels)
(Skip label is without : and JUMP label is with :)
(SKIP Q0002)
(Q0001:)

(2D-Kontur1)
N25 T2 M66
(Schaftfraeser 2mm Holz, GFK, CFK)
N30 M3 S24000
N35 G17 G90 G94
N40 G54
N45 G0 X34.5650 Y32.1745
N50 G0 G43 Z20.0000 H2
(Edit repeat count according to needs)
REPEAT=1
N55 G0 Z5.0000
N60 G1 Z0.4000 F1000
N65 G1 Z-1.1670
N70 G1 X34.6860 Y32.2975 F2000
N75 G1 X34.6990 Y32.3110
N80 G1 X34.8210 Y32.4260
N85 G1 X34.8300 Y32.4345
N90 G1 X34.9515 Y32.5440
N95 G1 X34.9610 Y32.5525
N100 G1 X35.0820 Y32.6560
N105 G1 X35.0920 Y32.6645
N110 G1 X35.2120 Y32.7620
N115 G1 X35.2280 Y32.7740
N120 G1 X35.4690 Y32.9545
N125 G1 X35.4900 Y32.9695
N130 G1 X35.7430 Y33.1390
N135 G1 X35.7600 Y33.1500
N140 G1 X35.8950 Y33.2330
N145 G1 X35.9080 Y33.2405
N150 G1 X36.0505 Y33.3220
N155 G1 X36.0650 Y33.3305
N160 G1 X36.2155 Y33.4100
N165 G1 X36.2330 Y33.4185
N170 G1 X36.3910 Y33.4945
N175 G1 X36.4105 Y33.5035
N180 G1 X36.4210 Y33.5080
N185 G1 X36.4105 Y33.5125
N190 G1 X36.3910 Y33.5210
N195 G1 X36.2325 Y33.5975
N200 G1 X36.2155 Y33.6060
N205 G1 X36.0655 Y33.6855
N210 G1 X36.0505 Y33.6935
N215 G1 X35.9080 Y33.7755
N220 G1 X35.8950 Y33.7830
N225 G1 X35.7600 Y33.8660
N230 G1 X35.7430 Y33.8770
N235 G1 X35.4900 Y34.0465
N240 G1 X35.4690 Y34.0615
N245 G1 X35.2280 Y34.2415
N250 G1 X35.2120 Y34.2540
N255 G1 X35.0920 Y34.3515
N260 G1 X35.0820 Y34.3600
N265 G1 X34.9610 Y34.4635
N270 G1 X34.9515 Y34.4720
N275 G1 X34.8300 Y34.5815
N280 G1 X34.8205 Y34.5900
N285 G1 X34.6990 Y34.7050
N290 G1 X34.6860 Y34.7180
N295 G1 X34.4465 Y34.9620
N300 G1 X34.4285 Y34.9815
N305 G1 X34.2025 Y35.2385
N310 G1 X34.1880 Y35.2555
N315 G1 X34.0825 Y35.3870
N320 G1 X34.0720 Y35.4000
N325 G1 X33.9725 Y35.5330
N330 G1 X33.9620 Y35.5470
N335 G1 X33.8680 Y35.6820
N340 G1 X33.8580 Y35.6970
N345 G1 X33.7695 Y35.8340
N350 G1 X33.7600 Y35.8495
N355 G1 X33.6770 Y35.9890
N360 G1 X33.6680 Y36.0045
N365 G1 X33.5900 Y36.1475
N370 G1 X33.5815 Y36.1630
N375 G1 X33.5075 Y36.3100
N380 G1 X33.5005 Y36.3245
N385 G1 X33.4300 Y36.4765
N390 G1 X33.4240 Y36.4900
N395 G1 X33.4165 Y36.5080
N400 G1 X32.9920
N405 G1 X32.9845 Y36.4900
N410 G1 X32.9780 Y36.4765
N415 G1 X32.9075 Y36.3245
N420 G1 X32.9005 Y36.3100
N425 G1 X32.8265 Y36.1630
N430 G1 X32.8185 Y36.1475
N435 G1 X32.7400 Y36.0045
N440 G1 X32.7315 Y35.9890
N445 G1 X32.6485 Y35.8495
N450 G1 X32.6385 Y35.8340
N455 G1 X32.5505 Y35.6970
N460 G1 X32.5400 Y35.6820
N465 G1 X32.4460 Y35.5470
N470 G1 X32.4360 Y35.5330
N475 G1 X32.3360 Y35.4000
N480 G1 X32.3260 Y35.3870
N485 G1 X32.2205 Y35.2555
N490 G1 X32.2060 Y35.2385
N495 G1 X31.9795 Y34.9820
N500 G1 X31.9615 Y34.9620
N505 G1 X31.7225 Y34.7180
N510 G1 X31.7090 Y34.7050
N515 G1 X31.5875 Y34.5900
N520 G1 X31.5785 Y34.5815
N525 G1 X31.4570 Y34.4720
N530 G1 X31.4475 Y34.4635
N535 G1 X31.3265 Y34.3600
N540 G1 X31.3160 Y34.3515
N545 G1 X31.1960 Y34.2540
N550 G1 X31.1805 Y34.2415
N555 G1 X30.9395 Y34.0615
N560 G1 X30.9185 Y34.0465
N565 G1 X30.6650 Y33.8770
N570 G1 X30.6485 Y33.8660
N575 G1 X30.5135 Y33.7830
N580 G1 X30.5005 Y33.7755
N585 G1 X30.3580 Y33.6935
N590 G1 X30.3430 Y33.6855
N595 G1 X30.1930 Y33.6060
N600 G1 X30.1755 Y33.5975
N605 G1 X30.0175 Y33.5210
N610 G1 X29.9975 Y33.5125
N615 G1 X29.9875 Y33.5080
N620 G1 X29.9975 Y33.5035
N625 G1 X30.0170 Y33.4945
N630 G1 X30.1755 Y33.4185
N635 G1 X30.1930 Y33.4100
N640 G1 X30.3430 Y33.3305
N645 G1 X30.3580 Y33.3220
N650 G1 X30.5005 Y33.2405
N655 G1 X30.5135 Y33.2330
N660 G1 X30.6485 Y33.1500
N665 G1 X30.6650 Y33.1390
N670 G1 X30.9185 Y32.9695
N675 G1 X30.9395 Y32.9545
N680 G1 X31.1805 Y32.7740
N685 G1 X31.1960 Y32.7620
N690 G1 X31.3160 Y32.6645
N695 G1 X31.3265 Y32.6560
N700 G1 X31.4475 Y32.5525
N705 G1 X31.4570 Y32.5440
N710 G1 X31.5785 Y32.4345
N715 G1 X31.5875 Y32.4260
N720 G1 X31.7090 Y32.3110
N725 G1 X31.7225 Y32.2975
N730 G1 X31.9615 Y32.0535
N735 G1 X31.9795 Y32.0340
N740 G1 X32.2060 Y31.7775
N745 G1 X32.2205 Y31.7600
N750 G1 X32.3260 Y31.6290
N755 G1 X32.3360 Y31.6160
N760 G1 X32.4360 Y31.4830
N765 G1 X32.4460 Y31.4685
N770 G1 X32.5405 Y31.3340
N775 G1 X32.5505 Y31.3190
N780 G1 X32.6385 Y31.1820
N785 G1 X32.6485 Y31.1665
N790 G1 X32.7315 Y31.0270
N795 G1 X32.7400 Y31.0115
N800 G1 X32.8185 Y30.8685
N805 G1 X32.8265 Y30.8530
N810 G1 X32.9005 Y30.7060
N815 G1 X32.9075 Y30.6915
N820 G1 X32.9780 Y30.5395
N825 G1 X32.9840 Y30.5255
N830 G1 X32.9920 Y30.5080
N835 G1 X33.2040
N840 G1 X33.4165
N845 G1 X33.4240 Y30.5260
N850 G1 X33.4300 Y30.5395
N855 G1 X33.5005 Y30.6915
N860 G1 X33.5075 Y30.7060
N865 G1 X33.5815 Y30.8530
N870 G1 X33.5900 Y30.8685
N875 G1 X33.6680 Y31.0115
N880 G1 X33.6770 Y31.0270
N885 G1 X33.7600 Y31.1665
N890 G1 X33.7695 Y31.1820
N895 G1 X33.8580 Y31.3190
N900 G1 X33.8680 Y31.3340
N905 G1 X33.9620 Y31.4685
N910 G1 X33.9725 Y31.4830
N915 G1 X34.0725 Y31.6160
N920 G1 X34.0825 Y31.6290
N925 G1 X34.1880 Y31.7600
N930 G1 X34.2025 Y31.7775
N935 G1 X34.4285 Y32.0340
N940 G1 X34.4465 Y32.0535
N945 G1 X34.5650 Y32.1745
N950 G1 Z-2.3330 F1000
N955 G1 X34.6860 Y32.2975 F2000
N960 G1 X34.6990 Y32.3110
N965 G1 X34.8210 Y32.4260
N970 G1 X34.8300 Y32.4345
N975 G1 X34.9515 Y32.5440
N980 G1 X34.9610 Y32.5525
N985 G1 X35.0820 Y32.6560
N990 G1 X35.0920 Y32.6645
N995 G1 X35.2120 Y32.7620
N1000 G1 X35.2280 Y32.7740
N1005 G1 X35.4690 Y32.9545
N1010 G1 X35.4900 Y32.9695
N1015 G1 X35.7430 Y33.1390
N1020 G1 X35.7600 Y33.1500
N1025 G1 X35.8950 Y33.2330
N1030 G1 X35.9080 Y33.2405
N1035 G1 X36.0505 Y33.3220
N1040 G1 X36.0650 Y33.3305
N1045 G1 X36.2155 Y33.4100
N1050 G1 X36.2330 Y33.4185
N1055 G1 X36.3910 Y33.4945
N1060 G1 X36.4105 Y33.5035
N1065 G1 X36.4210 Y33.5080
N1070 G1 X36.4105 Y33.5125
N1075 G1 X36.3910 Y33.5210
N1080 G1 X36.2325 Y33.5975
N1085 G1 X36.2155 Y33.6060
N1090 G1 X36.0655 Y33.6855
N1095 G1 X36.0505 Y33.6935
N1100 G1 X35.9080 Y33.7755
N1105 G1 X35.8950 Y33.7830
N1110 G1 X35.7600 Y33.8660
N1115 G1 X35.7430 Y33.8770
N1120 G1 X35.4900 Y34.0465
N1125 G1 X35.4690 Y34.0615
N1130 G1 X35.2280 Y34.2415
N1135 G1 X35.2120 Y34.2540
N1140 G1 X35.0920 Y34.3515
N1145 G1 X35.0820 Y34.3600
N1150 G1 X34.9610 Y34.4635
N1155 G1 X34.9515 Y34.4720
N1160 G1 X34.8300 Y34.5815
N1165 G1 X34.8205 Y34.5900
N1170 G1 X34.6990 Y34.7050
N1175 G1 X34.6860 Y34.7180
N1180 G1 X34.4465 Y34.9620
N1185 G1 X34.4285 Y34.9815
N1190 G1 X34.2025 Y35.2385
N1195 G1 X34.1880 Y35.2555
N1200 G1 X34.0825 Y35.3870
N1205 G1 X34.0720 Y35.4000
N1210 G1 X33.9725 Y35.5330
N1215 G1 X33.9620 Y35.5470
N1220 G1 X33.8680 Y35.6820
N1225 G1 X33.8580 Y35.6970
N1230 G1 X33.7695 Y35.8340
N1235 G1 X33.7600 Y35.8495
N1240 G1 X33.6770 Y35.9890
N1245 G1 X33.6680 Y36.0045
N1250 G1 X33.5900 Y36.1475
N1255 G1 X33.5815 Y36.1630
N1260 G1 X33.5075 Y36.3100
N1265 G1 X33.5005 Y36.3245
N1270 G1 X33.4300 Y36.4765
N1275 G1 X33.4240 Y36.4900
N1280 G1 X33.4165 Y36.5080
N1285 G1 X32.9920
N1290 G1 X32.9845 Y36.4900
N1295 G1 X32.9780 Y36.4765
N1300 G1 X32.9075 Y36.3245
N1305 G1 X32.9005 Y36.3100
N1310 G1 X32.8265 Y36.1630
N1315 G1 X32.8185 Y36.1475
N1320 G1 X32.7400 Y36.0045
N1325 G1 X32.7315 Y35.9890
N1330 G1 X32.6485 Y35.8495
N1335 G1 X32.6385 Y35.8340
N1340 G1 X32.5505 Y35.6970
N1345 G1 X32.5400 Y35.6820
N1350 G1 X32.4460 Y35.5470
N1355 G1 X32.4360 Y35.5330
N1360 G1 X32.3360 Y35.4000
N1365 G1 X32.3260 Y35.3870
N1370 G1 X32.2205 Y35.2555
N1375 G1 X32.2060 Y35.2385
N1380 G1 X31.9795 Y34.9820
N1385 G1 X31.9615 Y34.9620
N1390 G1 X31.7225 Y34.7180
N1395 G1 X31.7090 Y34.7050
N1400 G1 X31.5875 Y34.5900
N1405 G1 X31.5785 Y34.5815
N1410 G1 X31.4570 Y34.4720
N1415 G1 X31.4475 Y34.4635
N1420 G1 X31.3265 Y34.3600
N1425 G1 X31.3160 Y34.3515
N1430 G1 X31.1960 Y34.2540
N1435 G1 X31.1805 Y34.2415
N1440 G1 X30.9395 Y34.0615
N1445 G1 X30.9185 Y34.0465
N1450 G1 X30.6650 Y33.8770
N1455 G1 X30.6485 Y33.8660
N1460 G1 X30.5135 Y33.7830
N1465 G1 X30.5005 Y33.7755
N1470 G1 X30.3580 Y33.6935
N1475 G1 X30.3430 Y33.6855
N1480 G1 X30.1930 Y33.6060
N1485 G1 X30.1755 Y33.5975
N1490 G1 X30.0175 Y33.5210
N1495 G1 X29.9975 Y33.5125
N1500 G1 X29.9875 Y33.5080
N1505 G1 X29.9975 Y33.5035
N1510 G1 X30.0170 Y33.4945
N1515 G1 X30.1755 Y33.4185
N1520 G1 X30.1930 Y33.4100
N1525 G1 X30.3430 Y33.3305
N1530 G1 X30.3580 Y33.3220
N1535 G1 X30.5005 Y33.2405
N1540 G1 X30.5135 Y33.2330
N1545 G1 X30.6485 Y33.1500
N1550 G1 X30.6650 Y33.1390
N1555 G1 X30.9185 Y32.9695
N1560 G1 X30.9395 Y32.9545
N1565 G1 X31.1805 Y32.7740
N1570 G1 X31.1960 Y32.7620
N1575 G1 X31.3160 Y32.6645
N1580 G1 X31.3265 Y32.6560
N1585 G1 X31.4475 Y32.5525
N1590 G1 X31.4570 Y32.5440
N1595 G1 X31.5785 Y32.4345
N1600 G1 X31.5875 Y32.4260
N1605 G1 X31.7090 Y32.3110
N1610 G1 X31.7225 Y32.2975
N1615 G1 X31.9615 Y32.0535
N1620 G1 X31.9795 Y32.0340
N1625 G1 X32.2060 Y31.7775
N1630 G1 X32.2205 Y31.7600
N1635 G1 X32.3260 Y31.6290
N1640 G1 X32.3360 Y31.6160
N1645 G1 X32.4360 Y31.4830
N1650 G1 X32.4460 Y31.4685
N1655 G1 X32.5405 Y31.3340
N1660 G1 X32.5505 Y31.3190
N1665 G1 X32.6385 Y31.1820
N1670 G1 X32.6485 Y31.1665
N1675 G1 X32.7315 Y31.0270
N1680 G1 X32.7400 Y31.0115
N1685 G1 X32.8185 Y30.8685
N1690 G1 X32.8265 Y30.8530
N1695 G1 X32.9005 Y30.7060
N1700 G1 X32.9075 Y30.6915
N1705 G1 X32.9780 Y30.5395
N1710 G1 X32.9840 Y30.5255
N1715 G1 X32.9920 Y30.5080
N1720 G1 X33.2040
N1725 G1 X33.4165
N1730 G1 X33.4240 Y30.5260
N1735 G1 X33.4300 Y30.5395
N1740 G1 X33.5005 Y30.6915
N1745 G1 X33.5075 Y30.7060
N1750 G1 X33.5815 Y30.8530
N1755 G1 X33.5900 Y30.8685
N1760 G1 X33.6680 Y31.0115
N1765 G1 X33.6770 Y31.0270
N1770 G1 X33.7600 Y31.1665
N1775 G1 X33.7695 Y31.1820
N1780 G1 X33.8580 Y31.3190
N1785 G1 X33.8680 Y31.3340
N1790 G1 X33.9620 Y31.4685
N1795 G1 X33.9725 Y31.4830
N1800 G1 X34.0725 Y31.6160
N1805 G1 X34.0825 Y31.6290
N1810 G1 X34.1880 Y31.7600
N1815 G1 X34.2025 Y31.7775
N1820 G1 X34.4285 Y32.0340
N1825 G1 X34.4465 Y32.0535
N1830 G1 X34.5650 Y32.1745
N1835 G1 Z-3.5000 F1000
N1840 G1 X34.6860 Y32.2975 F2000
N1845 G1 X34.6990 Y32.3110
N1850 G1 X34.8210 Y32.4260
N1855 G1 X34.8300 Y32.4345
N1860 G1 X34.9515 Y32.5440
N1865 G1 X34.9610 Y32.5525
N1870 G1 X35.0820 Y32.6560
N1875 G1 X35.0920 Y32.6645
N1880 G1 X35.2120 Y32.7620
N1885 G1 X35.2280 Y32.7740
N1890 G1 X35.4690 Y32.9545
N1895 G1 X35.4900 Y32.9695
N1900 G1 X35.7430 Y33.1390
N1905 G1 X35.7600 Y33.1500
N1910 G1 X35.8950 Y33.2330
N1915 G1 X35.9080 Y33.2405
N1920 G1 X36.0505 Y33.3220
N1925 G1 X36.0650 Y33.3305
N1930 G1 X36.2155 Y33.4100
N1935 G1 X36.2330 Y33.4185
N1940 G1 X36.3910 Y33.4945
N1945 G1 X36.4105 Y33.5035
N1950 G1 X36.4210 Y33.5080
N1955 G1 X36.4105 Y33.5125
N1960 G1 X36.3910 Y33.5210
N1965 G1 X36.2325 Y33.5975
N1970 G1 X36.2155 Y33.6060
N1975 G1 X36.0655 Y33.6855
N1980 G1 X36.0505 Y33.6935
N1985 G1 X35.9080 Y33.7755
N1990 G1 X35.8950 Y33.7830
N1995 G1 X35.7600 Y33.8660
N2000 G1 X35.7430 Y33.8770
N2005 G1 X35.4900 Y34.0465
N2010 G1 X35.4690 Y34.0615
N2015 G1 X35.2280 Y34.2415
N2020 G1 X35.2120 Y34.2540
N2025 G1 X35.0920 Y34.3515
N2030 G1 X35.0820 Y34.3600
N2035 G1 X34.9610 Y34.4635
N2040 G1 X34.9515 Y34.4720
N2045 G1 X34.8300 Y34.5815
N2050 G1 X34.8205 Y34.5900
N2055 G1 X34.6990 Y34.7050
N2060 G1 X34.6860 Y34.7180
N2065 G1 X34.4465 Y34.9620
N2070 G1 X34.4285 Y34.9815
N2075 G1 X34.2025 Y35.2385
N2080 G1 X34.1880 Y35.2555
N2085 G1 X34.0825 Y35.3870
N2090 G1 X34.0720 Y35.4000
N2095 G1 X33.9725 Y35.5330
N2100 G1 X33.9620 Y35.5470
N2105 G1 X33.8680 Y35.6820
N2110 G1 X33.8580 Y35.6970
N2115 G1 X33.7695 Y35.8340
N2120 G1 X33.7600 Y35.8495
N2125 G1 X33.6770 Y35.9890
N2130 G1 X33.6680 Y36.0045
N2135 G1 X33.5900 Y36.1475
N2140 G1 X33.5815 Y36.1630
N2145 G1 X33.5075 Y36.3100
N2150 G1 X33.5005 Y36.3245
N2155 G1 X33.4300 Y36.4765
N2160 G1 X33.4240 Y36.4900
N2165 G1 X33.4165 Y36.5080
N2170 G1 X32.9920
N2175 G1 X32.9845 Y36.4900
N2180 G1 X32.9780 Y36.4765
N2185 G1 X32.9075 Y36.3245
N2190 G1 X32.9005 Y36.3100
N2195 G1 X32.8265 Y36.1630
N2200 G1 X32.8185 Y36.1475
N2205 G1 X32.7400 Y36.0045
N2210 G1 X32.7315 Y35.9890
N2215 G1 X32.6485 Y35.8495
N2220 G1 X32.6385 Y35.8340
N2225 G1 X32.5505 Y35.6970
N2230 G1 X32.5400 Y35.6820
N2235 G1 X32.4460 Y35.5470
N2240 G1 X32.4360 Y35.5330
N2245 G1 X32.3360 Y35.4000
N2250 G1 X32.3260 Y35.3870
N2255 G1 X32.2205 Y35.2555
N2260 G1 X32.2060 Y35.2385
N2265 G1 X31.9795 Y34.9820
N2270 G1 X31.9615 Y34.9620
N2275 G1 X31.7225 Y34.7180
N2280 G1 X31.7090 Y34.7050
N2285 G1 X31.5875 Y34.5900
N2290 G1 X31.5785 Y34.5815
N2295 G1 X31.4570 Y34.4720
N2300 G1 X31.4475 Y34.4635
N2305 G1 X31.3265 Y34.3600
N2310 G1 X31.3160 Y34.3515
N2315 G1 X31.1960 Y34.2540
N2320 G1 X31.1805 Y34.2415
N2325 G1 X30.9395 Y34.0615
N2330 G1 X30.9185 Y34.0465
N2335 G1 X30.6650 Y33.8770
N2340 G1 X30.6485 Y33.8660
N2345 G1 X30.5135 Y33.7830
N2350 G1 X30.5005 Y33.7755
N2355 G1 X30.3580 Y33.6935
N2360 G1 X30.3430 Y33.6855
N2365 G1 X30.1930 Y33.6060
N2370 G1 X30.1755 Y33.5975
N2375 G1 X30.0175 Y33.5210
N2380 G1 X29.9975 Y33.5125
N2385 G1 X29.9875 Y33.5080
N2390 G1 X29.9975 Y33.5035
N2395 G1 X30.0170 Y33.4945
N2400 G1 X30.1755 Y33.4185
N2405 G1 X30.1930 Y33.4100
N2410 G1 X30.3430 Y33.3305
N2415 G1 X30.3580 Y33.3220
N2420 G1 X30.5005 Y33.2405
N2425 G1 X30.5135 Y33.2330
N2430 G1 X30.6485 Y33.1500
N2435 G1 X30.6650 Y33.1390
N2440 G1 X30.9185 Y32.9695
N2445 G1 X30.9395 Y32.9545
N2450 G1 X31.1805 Y32.7740
N2455 G1 X31.1960 Y32.7620
N2460 G1 X31.3160 Y32.6645
N2465 G1 X31.3265 Y32.6560
N2470 G1 X31.4475 Y32.5525
N2475 G1 X31.4570 Y32.5440
N2480 G1 X31.5785 Y32.4345
N2485 G1 X31.5875 Y32.4260
N2490 G1 X31.7090 Y32.3110
N2495 G1 X31.7225 Y32.2975
N2500 G1 X31.9615 Y32.0535
N2505 G1 X31.9795 Y32.0340
N2510 G1 X32.2060 Y31.7775
N2515 G1 X32.2205 Y31.7600
N2520 G1 X32.3260 Y31.6290
N2525 G1 X32.3360 Y31.6160
N2530 G1 X32.4360 Y31.4830
N2535 G1 X32.4460 Y31.4685
N2540 G1 X32.5405 Y31.3340
N2545 G1 X32.5505 Y31.3190
N2550 G1 X32.6385 Y31.1820
N2555 G1 X32.6485 Y31.1665
N2560 G1 X32.7315 Y31.0270
N2565 G1 X32.7400 Y31.0115
N2570 G1 X32.8185 Y30.8685
N2575 G1 X32.8265 Y30.8530
N2580 G1 X32.9005 Y30.7060
N2585 G1 X32.9075 Y30.6915
N2590 G1 X32.9780 Y30.5395
N2595 G1 X32.9840 Y30.5255
N2600 G1 X32.9920 Y30.5080
N2605 G1 X33.2040
N2610 G1 X33.4165
N2615 G1 X33.4240 Y30.5260
N2620 G1 X33.4300 Y30.5395
N2625 G1 X33.5005 Y30.6915
N2630 G1 X33.5075 Y30.7060
N2635 G1 X33.5815 Y30.8530
N2640 G1 X33.5900 Y30.8685
N2645 G1 X33.6680 Y31.0115
N2650 G1 X33.6770 Y31.0270
N2655 G1 X33.7600 Y31.1665
N2660 G1 X33.7695 Y31.1820
N2665 G1 X33.8580 Y31.3190
N2670 G1 X33.8680 Y31.3340
N2675 G1 X33.9620 Y31.4685
N2680 G1 X33.9725 Y31.4830
N2685 G1 X34.0725 Y31.6160
N2690 G1 X34.0825 Y31.6290
N2695 G1 X34.1880 Y31.7600
N2700 G1 X34.2025 Y31.7775
N2705 G1 X34.4285 Y32.0340
N2710 G1 X34.4465 Y32.0535
N2715 G1 X34.5650 Y32.1745
N2720 G0 Z10.0000
N2725 G0 X44.2795 Y23.0730
N2730 G0 Z5.0000
N2735 G1 Z0.4000 F1000
N2740 G1 Z-1.1670
N2745 G1 X44.3915 Y23.2720 F2000
N2750 G1 X44.3955 Y23.2790
N2755 G1 X44.5785 Y23.5925
N2760 G1 X44.5830 Y23.5995
N2765 G1 X44.7765 Y23.9185
N2770 G1 X44.7805 Y23.9255
N2775 G1 X44.9845 Y24.2495
N2780 G1 X44.9885 Y24.2565
N2785 G1 X45.2025 Y24.5850
N2790 G1 X45.2070 Y24.5920
N2795 G1 X45.4310 Y24.9230
N2800 G1 X45.4360 Y24.9305
N2805 G1 X45.6695 Y25.2640
N2810 G1 X45.6750 Y25.2715
N2815 G1 X45.9190 Y25.6055
N2820 G1 X45.9250 Y25.6135
N2825 G1 X46.1785 Y25.9465
N2830 G1 X46.1850 Y25.9555
N2835 G1 X46.4485 Y26.2860
N2840 G1 X46.4555 Y26.2950
N2845 G1 X46.7285 Y26.6220
N2850 G1 X46.7365 Y26.6310
N2855 G1 X47.0185 Y26.9525
N2860 G1 X47.0265 Y26.9620
N2865 G1 X47.3170 Y27.2775
N2870 G1 X47.3260 Y27.2865
N2875 G1 X47.6245 Y27.5945
N2880 G1 X47.6330 Y27.6035
N2885 G1 X47.9390 Y27.9030
N2890 G1 X47.9480 Y27.9115
N2895 G1 X48.2595 Y28.2025
N2900 G1 X48.2685 Y28.2110
N2905 G1 X48.5855 Y28.4925
N2910 G1 X48.5945 Y28.5000
N2915 G1 X48.9155 Y28.7720
N2920 G1 X48.9245 Y28.7795
N2925 G1 X49.2490 Y29.0405
N2930 G1 X49.2575 Y29.0475
N2935 G1 X49.5835 Y29.2985
N2940 G1 X49.5925 Y29.3050
N2945 G1 X49.9190 Y29.5450
N2950 G1 X49.9275 Y29.5510
N2955 G1 X50.2540 Y29.7805
N2960 G1 X50.2625 Y29.7865
N2965 G1 X50.5875 Y30.0050
N2970 G1 X50.5950 Y30.0100
N2975 G1 X50.9170 Y30.2185
N2980 G1 X50.9250 Y30.2235
N2985 G1 X51.2440 Y30.4215
N2990 G1 X51.2510 Y30.4260
N2995 G1 X51.5655 Y30.6140
N3000 G1 X51.5725 Y30.6180
N3005 G1 X51.8825 Y30.7965
N3010 G1 X51.8885 Y30.8000
N3015 G1 X52.1920 Y30.9690
N3020 G1 X52.1980 Y30.9725
N3025 G1 X52.4955 Y31.1330
N3030 G1 X52.5020 Y31.1360
N3035 G1 X52.7935 Y31.2880
N3040 G1 X52.7980 Y31.2905
N3045 G1 X53.0820 Y31.4350
N3050 G1 X53.0875 Y31.4375
N3055 G1 X53.3655 Y31.5745
N3060 G1 X53.3695 Y31.5765
N3065 G1 X53.6405 Y31.7070
N3070 G1 X53.6450 Y31.7095
N3075 G1 X53.9100 Y31.8335
N3080 G1 X53.9140 Y31.8355
N3085 G1 X54.1730 Y31.9545
N3090 G1 X54.1770 Y31.9560
N3095 G1 X54.4310 Y32.0700
N3100 G1 X54.4345 Y32.0715
N3105 G1 X54.6840 Y32.1810
N3110 G1 X54.6875 Y32.1825
N3115 G1 X54.9330 Y32.2880
N3120 G1 X54.9390 Y32.2910
N3125 G1 X55.4235 Y32.4915
N3130 G1 X55.4325 Y32.4950
N3135 G1 X55.9145 Y32.6840
N3140 G1 X55.9255 Y32.6885
N3145 G1 X56.4155 Y32.8670
N3150 G1 X56.4265 Y32.8710
N3155 G1 X56.6785 Y32.9565
N3160 G1 X56.6865 Y32.9590
N3165 G1 X56.9445 Y33.0415
N3170 G1 X56.9540 Y33.0445
N3175 G1 X57.2200 Y33.1235
N3180 G1 X57.2300 Y33.1265
N3185 G1 X57.5050 Y33.2025
N3190 G1 X57.5160 Y33.2050
N3195 G1 X57.8010 Y33.2770
N3200 G1 X57.8120 Y33.2795
N3205 G1 X58.1080 Y33.3470
N3210 G1 X58.1195 Y33.3495
N3215 G1 X58.4265 Y33.4120
N3220 G1 X58.4385 Y33.4140
N3225 G1 X58.7565 Y33.4705
N3230 G1 X58.7680 Y33.4725
N3235 G1 X58.9980 Y33.5080
N3240 G1 X58.7680 Y33.5430
N3245 G1 X58.7565 Y33.5450
N3250 G1 X58.4385 Y33.6020
N3255 G1 X58.4265 Y33.6040
N3260 G1 X58.1195 Y33.6665
N3265 G1 X58.1080 Y33.6690
N3270 G1 X57.8120 Y33.7360
N3275 G1 X57.8010 Y33.7390
N3280 G1 X57.5160 Y33.8105
N3285 G1 X57.5050 Y33.8135
N3290 G1 X57.2300 Y33.8895
N3295 G1 X57.2200 Y33.8920
N3300 G1 X56.9540 Y33.9715
N3305 G1 X56.9445 Y33.9745
N3310 G1 X56.6865 Y34.0570
N3315 G1 X56.6785 Y34.0595
N3320 G1 X56.4265 Y34.1450
N3325 G1 X56.4155 Y34.1490
N3330 G1 X55.9255 Y34.3275
N3335 G1 X55.9145 Y34.3315
N3340 G1 X55.4325 Y34.5210
N3345 G1 X55.4235 Y34.5245
N3350 G1 X54.9390 Y34.7250
N3355 G1 X54.9330 Y34.7275
N3360 G1 X54.6875 Y34.8330
N3365 G1 X54.6840 Y34.8345
N3370 G1 X54.4345 Y34.9440
N3375 G1 X54.4310 Y34.9460
N3380 G1 X54.1770 Y35.0600
N3385 G1 X54.1730 Y35.0615
N3390 G1 X53.9140 Y35.1805
N3395 G1 X53.9100 Y35.1820
N3400 G1 X53.6450 Y35.3065
N3405 G1 X53.6405 Y35.3085
N3410 G1 X53.3695 Y35.4390
N3415 G1 X53.3655 Y35.4410
N3420 G1 X53.0875 Y35.5785
N3425 G1 X53.0820 Y35.5810
N3430 G1 X52.7980 Y35.7255
N3435 G1 X52.7930 Y35.7280
N3440 G1 X52.5015 Y35.8800
N3445 G1 X52.4960 Y35.8830
N3450 G1 X52.1985 Y36.0435
N3455 G1 X52.1920 Y36.0465
N3460 G1 X51.8885 Y36.2160
N3465 G1 X51.8825 Y36.2195
N3470 G1 X51.5725 Y36.3975
N3475 G1 X51.5655 Y36.4020
N3480 G1 X51.2510 Y36.5900
N3485 G1 X51.2440 Y36.5945
N3490 G1 X50.9250 Y36.7925
N3495 G1 X50.9170 Y36.7975
N3500 G1 X50.5950 Y37.0055
N3505 G1 X50.5875 Y37.0105
N3510 G1 X50.2625 Y37.2295
N3515 G1 X50.2540 Y37.2350
N3520 G1 X49.9275 Y37.4645
N3525 G1 X49.9190 Y37.4710
N3530 G1 X49.5925 Y37.7110
N3535 G1 X49.5835 Y37.7175
N3540 G1 X49.2575 Y37.9685
N3545 G1 X49.2485 Y37.9755
N3550 G1 X48.9245 Y38.2365
N3555 G1 X48.9155 Y38.2440
N3560 G1 X48.5945 Y38.5155
N3565 G1 X48.5855 Y38.5235
N3570 G1 X48.2685 Y38.8050
N3575 G1 X48.2595 Y38.8135
N3580 G1 X47.9480 Y39.1040
N3585 G1 X47.9390 Y39.1130
N3590 G1 X47.6330 Y39.4125
N3595 G1 X47.6245 Y39.4215
N3600 G1 X47.3260 Y39.7295
N3605 G1 X47.3175 Y39.7385
N3610 G1 X47.0265 Y40.0540
N3615 G1 X47.0185 Y40.0630
N3620 G1 X46.7365 Y40.3845
N3625 G1 X46.7285 Y40.3940
N3630 G1 X46.4555 Y40.7210
N3635 G1 X46.4485 Y40.7300
N3640 G1 X46.1850 Y41.0605
N3645 G1 X46.1785 Y41.0690
N3650 G1 X45.9250 Y41.4025
N3655 G1 X45.9190 Y41.4105
N3660 G1 X45.6750 Y41.7445
N3665 G1 X45.6695 Y41.7520
N3670 G1 X45.4360 Y42.0855
N3675 G1 X45.4310 Y42.0925
N3680 G1 X45.2070 Y42.4240
N3685 G1 X45.2025 Y42.4310
N3690 G1 X44.9885 Y42.7590
N3695 G1 X44.9845 Y42.7660
N3700 G1 X44.7805 Y43.0905
N3705 G1 X44.7765 Y43.0970
N3710 G1 X44.5830 Y43.4165
N3715 G1 X44.5785 Y43.4235
N3720 G1 X44.3955 Y43.7365
N3725 G1 X44.3915 Y43.7440
N3730 G1 X44.2190 Y44.0515
N3735 G1 X44.2145 Y44.0590
N3740 G1 X44.0525 Y44.3595
N3745 G1 X44.0485 Y44.3675
N3750 G1 X43.8970 Y44.6610
N3755 G1 X43.8925 Y44.6700
N3760 G1 X43.7515 Y44.9565
N3765 G1 X43.7470 Y44.9655
N3770 G1 X43.6165 Y45.2450
N3775 G1 X43.6120 Y45.2545
N3780 G1 X43.4920 Y45.5270
N3785 G1 X43.4875 Y45.5375
N3790 G1 X43.3775 Y45.8030
N3795 G1 X43.3730 Y45.8135
N3800 G1 X43.2725 Y46.0725
N3805 G1 X43.2685 Y46.0835
N3810 G1 X43.1770 Y46.3360
N3815 G1 X43.1735 Y46.3470
N3820 G1 X43.0910 Y46.5935
N3825 G1 X43.0870 Y46.6050
N3830 G1 X43.0125 Y46.8460
N3835 G1 X43.0095 Y46.8565
N3840 G1 X42.9420 Y47.0925
N3845 G1 X42.9395 Y47.1025
N3850 G1 X42.8785 Y47.3345
N3855 G1 X42.8765 Y47.3425
N3860 G1 X42.8205 Y47.5710
N3865 G1 X42.8190 Y47.5775
N3870 G1 X42.7670 Y47.8025
N3875 G1 X42.7655 Y47.8090
N3880 G1 X42.6705 Y48.2500
N3885 G1 X42.6700 Y48.2525
N3890 G1 X42.5800 Y48.6795
N3895 G1 X42.4890 Y49.0885
N3900 G1 X42.4425 Y49.2815
N3905 G1 X42.3945 Y49.4670
N3910 G1 X42.3450 Y49.6425
N3915 G1 X42.2950 Y49.8055
N3920 G1 X42.2440 Y49.9540
N3925 G1 X42.1940 Y50.0855
N3930 G1 X42.1450 Y50.1975
N3935 G1 X42.0985 Y50.2890
N3940 G1 X42.0545 Y50.3615
N3945 G1 X42.0140 Y50.4180
N3950 G1 X41.9725 Y50.4650
N3955 G1 X41.9230 Y50.5120
N3960 G1 X41.8585 Y50.5660
N3965 G1 X41.7755 Y50.6295
N3970 G1 X41.6730 Y50.7050
N3975 G1 X41.5555 Y50.7905
N3980 G1 X41.5545 Y50.7915
N3985 G1 X41.4235 Y50.8875
N3990 G1 X41.4220 Y50.8885
N3995 G1 X41.2805 Y50.9930
N4000 G1 X41.1325 Y51.1015
N4005 G1 X40.9820 Y51.2080
N4010 G1 X40.8355 Y51.3050
N4015 G1 X40.6955 Y51.3870
N4020 G1 X40.6375 Y51.4170
N4025 G1 X40.5820 Y51.4425
N4030 G1 X40.5365 Y51.4600
N4035 G1 X40.5010 Y51.4705
N4040 G1 X40.4945 Y51.4720
N4045 G1 X40.4875 Y51.4605
N4050 G1 X40.4685 Y51.4240
N4055 G1 X40.4485 Y51.3760
N4060 G1 X40.4275 Y51.3180
N4065 G1 X40.4080 Y51.2540
N4070 G1 X40.3685 Y51.0925
N4075 G1 X40.3350 Y50.9160
N4080 G1 X40.3045 Y50.7280
N4085 G1 X40.2765 Y50.5355
N4090 G1 X40.2495 Y50.3470
N4095 G1 X40.2485 Y50.3420
N4100 G1 X40.2210 Y50.1620
N4105 G1 X40.2190 Y50.1525
N4110 G1 X40.1895 Y49.9825
N4115 G1 X40.1870 Y49.9700
N4120 G1 X40.1550 Y49.8080
N4125 G1 X40.1520 Y49.7945
N4130 G1 X40.1160 Y49.6385
N4135 G1 X40.1115 Y49.6200
N4140 G1 X40.0285 Y49.3135
N4145 G1 X40.0250 Y49.3010
N4150 G1 X39.9775 Y49.1430
N4155 G1 X39.9770 Y49.1400
N4160 G1 X39.9260 Y48.9730
N4165 G1 X39.8720 Y48.7960
N4170 G1 X39.8155 Y48.6065
N4175 G1 X39.7555 Y48.4015
N4180 G1 X39.6930 Y48.1800
N4185 G1 X39.6275 Y47.9415
N4190 G1 X39.5595 Y47.6860
N4195 G1 X39.4885 Y47.4140
N4200 G1 X39.4150 Y47.1275
N4205 G1 X39.3395 Y46.8280
N4210 G1 X39.2615 Y46.5180
N4215 G1 X39.1820 Y46.1995
N4220 G1 X39.1005 Y45.8750
N4225 G1 X39.1000 Y45.8740
N4230 G1 X38.9345 Y45.2185
N4235 G1 X38.9340 Y45.2160
N4240 G1 X38.7660 Y44.5670
N4245 G1 X38.7655 Y44.5645
N4250 G1 X38.6820 Y44.2475
N4255 G1 Y44.2460
N4260 G1 X38.5990 Y43.9360
N4265 G1 Y43.9345
N4270 G1 X38.5175 Y43.6325
N4275 G1 Y43.6320
N4280 G1 X38.4385 Y43.3390
N4285 G1 X38.3615 Y43.0560
N4290 G1 X38.2880 Y42.7840
N4295 G1 X38.2180 Y42.5240
N4300 G1 X38.1520 Y42.2755
N4305 G1 X38.0900 Y42.0390
N4310 G1 X38.0320 Y41.8140
N4315 G1 X37.9790 Y41.6000
N4320 G1 X37.9295 Y41.3970
N4325 G1 X37.8840 Y41.2035
N4330 G1 X37.8415 Y41.0185
N4335 G1 X37.8015 Y40.8415
N4340 G1 X37.7635 Y40.6710
N4345 G1 X37.7630 Y40.6700
N4350 G1 X37.7260 Y40.5065
N4355 G1 X37.7255 Y40.5035
N4360 G1 X37.6885 Y40.3465
N4365 G1 X37.6870 Y40.3400
N4370 G1 X37.6130 Y40.0405
N4375 G1 X37.6105 Y40.0315
N4380 G1 X37.4590 Y39.4645
N4385 G1 X37.4275 Y39.3330
N4390 G1 X37.4005 Y39.2025
N4395 G1 X37.3800 Y39.0730
N4400 G1 X37.3660 Y38.9425
N4405 G1 X37.3600 Y38.8100
N4410 G1 X37.3630 Y38.6745
N4415 G1 X37.3755 Y38.5355
N4420 G1 X37.3985 Y38.3940
N4425 G1 X37.4315 Y38.2530
N4430 G1 X37.4740 Y38.1145
N4435 G1 X37.5255 Y37.9835
N4440 G1 X37.5835 Y37.8630
N4445 G1 X37.6460 Y37.7580
N4450 G1 X37.7100 Y37.6705
N4455 G1 X37.7770 Y37.5965
N4460 G1 X37.8010 Y37.5745
N4465 G1 X37.8220 Y37.5570
N4470 G1 X37.8810 Y37.5185
N4475 G1 X37.9305 Y37.4960
N4480 G1 X37.9815 Y37.4805
N4485 G1 X38.0390 Y37.4710
N4490 G1 X38.1050 Y37.4675
N4495 G1 X38.1790 Y37.4715
N4500 G1 X38.2590 Y37.4820
N4505 G1 X38.3425 Y37.5000
N4510 G1 X38.4255 Y37.5250
N4515 G1 X38.5075 Y37.5560
N4520 G1 X38.5880 Y37.5945
N4525 G1 X38.6670 Y37.6410
N4530 G1 X38.7475 Y37.6975
N4535 G1 X38.8295 Y37.7660
N4540 G1 X38.9140 Y37.8480
N4545 G1 X39.0015 Y37.9440
N4550 G1 X39.0915 Y38.0535
N4555 G1 X39.1820 Y38.1725
N4560 G1 X39.3720 Y38.4385
N4565 G1 X39.4655 Y38.5700
N4570 G1 X39.4720 Y38.5785
N4575 G1 X39.5640 Y38.7025
N4580 G1 X39.5775 Y38.7195
N4585 G1 X39.6685 Y38.8315
N4590 G1 X39.6925 Y38.8590
N4595 G1 X39.7835 Y38.9555
N4600 G1 X39.8235 Y38.9935
N4605 G1 X39.9155 Y39.0720
N4610 G1 X39.9610 Y39.1060
N4615 G1 X40.0080 Y39.1375
N4620 G1 X40.0470 Y39.1610
N4625 G1 X40.0945 Y39.1870
N4630 G1 X40.1420 Y39.2100
N4635 G1 X40.1905 Y39.2300
N4640 G1 X40.2445 Y39.2490
N4645 G1 X40.2940 Y39.2630
N4650 G1 X40.3525 Y39.2760
N4655 G1 X40.4030 Y39.2840
N4660 G1 X40.4635 Y39.2900
N4665 G1 X40.5150 Y39.2920
N4670 G1 X40.5740 Y39.2905
N4675 G1 X40.6270 Y39.2860
N4680 G1 X40.6810 Y39.2785
N4685 G1 X40.7355 Y39.2680
N4690 G1 X40.7830 Y39.2565
N4695 G1 X40.8390 Y39.2400
N4700 G1 X40.8795 Y39.2260
N4705 G1 X40.9370 Y39.2035
N4710 G1 X40.9710 Y39.1885
N4715 G1 X41.0300 Y39.1600
N4720 G1 X41.0570 Y39.1460
N4725 G1 X41.1175 Y39.1120
N4730 G1 X41.1495 Y39.0925
N4735 G1 X41.2740 Y39.0095
N4740 G1 X41.3045 Y38.9880
N4745 G1 X41.4335 Y38.8875
N4750 G1 X41.4540 Y38.8705
N4755 G1 X41.5865 Y38.7560
N4760 G1 X41.6000 Y38.7440
N4765 G1 X41.7345 Y38.6185
N4770 G1 X41.7440 Y38.6095
N4775 G1 X41.8790 Y38.4770
N4780 G1 X41.8890 Y38.4670
N4785 G1 X42.1505 Y38.1950
N4790 G1 X42.1595 Y38.1855
N4795 G1 X42.2820 Y38.0510
N4800 G1 X42.2900 Y38.0420
N4805 G1 X42.4035 Y37.9110
N4810 G1 X42.4150 Y37.8975
N4815 G1 X42.5175 Y37.7705
N4820 G1 X42.5340 Y37.7495
N4825 G1 X42.6235 Y37.6260
N4830 G1 X42.6445 Y37.5945
N4835 G1 X42.7185 Y37.4735
N4840 G1 X42.7435 Y37.4280
N4845 G1 X42.8010 Y37.3080
N4850 G1 X42.8140 Y37.2780
N4855 G1 X42.8255 Y37.2475
N4860 G1 X42.8645 Y37.1270
N4865 G1 X42.8750 Y37.0910
N4870 G1 X42.8825 Y37.0545
N4875 G1 X42.9030 Y36.9325
N4880 G1 X42.9080 Y36.8935
N4885 G1 X42.9100 Y36.8550
N4890 G1 X42.9110 Y36.7300
N4895 G1 X42.9105 Y36.6940
N4900 G1 X42.9065 Y36.6580
N4905 G1 X42.8895 Y36.5295
N4910 G1 X42.8775 Y36.4685
N4915 G1 X42.8425 Y36.3365
N4920 G1 X42.8275 Y36.2890
N4925 G1 X42.7770 Y36.1535
N4930 G1 X42.7615 Y36.1165
N4935 G1 X42.6970 Y35.9785
N4940 G1 X42.6830 Y35.9510
N4945 G1 X42.6070 Y35.8115
N4950 G1 X42.5945 Y35.7900
N4955 G1 X42.5090 Y35.6505
N4960 G1 X42.4980 Y35.6330
N4965 G1 X42.4055 Y35.4945
N4970 G1 X42.3955 Y35.4800
N4975 G1 X42.2970 Y35.3435
N4980 G1 X42.2875 Y35.3305
N4985 G1 X42.1845 Y35.1970
N4990 G1 X42.1745 Y35.1845
N4995 G1 X42.0675 Y35.0545
N5000 G1 X42.0570 Y35.0420
N5005 G1 X41.9455 Y34.9155
N5010 G1 X41.9335 Y34.9025
N5015 G1 X41.8175 Y34.7795
N5020 G1 X41.8045 Y34.7665
N5025 G1 X41.6835 Y34.6470
N5030 G1 X41.6690 Y34.6335
N5035 G1 X41.5415 Y34.5180
N5040 G1 X41.5265 Y34.5050
N5045 G1 X41.3920 Y34.3925
N5050 G1 X41.3770 Y34.3800
N5055 G1 X41.2350 Y34.2705
N5060 G1 X41.2205 Y34.2595
N5065 G1 X41.0715 Y34.1530
N5070 G1 X41.0570 Y34.1430
N5075 G1 X40.9015 Y34.0395
N5080 G1 X40.8885 Y34.0310
N5085 G1 X40.7275 Y33.9315
N5090 G1 X40.7150 Y33.9240
N5095 G1 X40.5515 Y33.8290
N5100 G1 X40.5400 Y33.8225
N5105 G1 X40.3760 Y33.7330
N5110 G1 X40.3650 Y33.7270
N5115 G1 X40.2035 Y33.6440
N5120 G1 X40.1925 Y33.6385
N5125 G1 X40.0365 Y33.5630
N5130 G1 X40.0250 Y33.5580
N5135 G1 X39.9150 Y33.5080
N5140 G1 X40.0250 Y33.4580
N5145 G1 X40.0365 Y33.4525
N5150 G1 X40.1925 Y33.3775
N5155 G1 X40.2035 Y33.3720
N5160 G1 X40.3650 Y33.2890
N5165 G1 X40.3760 Y33.2830
N5170 G1 X40.5400 Y33.1935
N5175 G1 X40.5515 Y33.1870
N5180 G1 X40.7155 Y33.0915
N5185 G1 X40.7275 Y33.0845
N5190 G1 X40.8885 Y32.9845
N5195 G1 X40.9015 Y32.9760
N5200 G1 X41.0570 Y32.8730
N5205 G1 X41.0715 Y32.8630
N5210 G1 X41.2205 Y32.7565
N5215 G1 X41.2350 Y32.7455
N5220 G1 X41.3770 Y32.6355
N5225 G1 X41.3920 Y32.6235
N5230 G1 X41.5265 Y32.5110
N5235 G1 X41.5415 Y32.4980
N5240 G1 X41.6690 Y32.3820
N5245 G1 X41.6835 Y32.3685
N5250 G1 X41.8045 Y32.2495
N5255 G1 X41.8175 Y32.2360
N5260 G1 X41.9335 Y32.1135
N5265 G1 X41.9455 Y32.1005
N5270 G1 X42.0565 Y31.9740
N5275 G1 X42.0675 Y31.9615
N5280 G1 X42.1745 Y31.8315
N5285 G1 X42.1845 Y31.8190
N5290 G1 X42.2875 Y31.6855
N5295 G1 X42.2970 Y31.6725
N5300 G1 X42.3955 Y31.5355
N5305 G1 X42.4055 Y31.5215
N5310 G1 X42.4980 Y31.3830
N5315 G1 X42.5090 Y31.3655
N5320 G1 X42.5945 Y31.2260
N5325 G1 X42.6070 Y31.2045
N5330 G1 X42.6830 Y31.0650
N5335 G1 X42.6970 Y31.0370
N5340 G1 X42.7615 Y30.8990
N5345 G1 X42.7770 Y30.8625
N5350 G1 X42.8275 Y30.7270
N5355 G1 X42.8425 Y30.6795
N5360 G1 X42.8775 Y30.5470
N5365 G1 X42.8895 Y30.4865
N5370 G1 X42.9065 Y30.3580
N5375 G1 X42.9105 Y30.3220
N5380 G1 X42.9110 Y30.2860
N5385 G1 X42.9100 Y30.1610
N5390 G1 X42.9080 Y30.1220
N5395 G1 X42.9030 Y30.0835
N5400 G1 X42.8825 Y29.9615
N5405 G1 X42.8750 Y29.9250
N5410 G1 X42.8645 Y29.8885
N5415 G1 X42.8255 Y29.7685
N5420 G1 X42.8140 Y29.7380
N5425 G1 X42.8010 Y29.7080
N5430 G1 X42.7435 Y29.5880
N5435 G1 X42.7185 Y29.5425
N5440 G1 X42.6445 Y29.4215
N5445 G1 X42.6235 Y29.3900
N5450 G1 X42.5340 Y29.2665
N5455 G1 X42.5175 Y29.2450
N5460 G1 X42.4150 Y29.1180
N5465 G1 X42.4035 Y29.1045
N5470 G1 X42.2900 Y28.9740
N5475 G1 X42.2820 Y28.9650
N5480 G1 X42.1595 Y28.8305
N5485 G1 X42.1505 Y28.8210
N5490 G1 X41.8890 Y28.5490
N5495 G1 X41.8790 Y28.5390
N5500 G1 X41.7440 Y28.4065
N5505 G1 X41.7345 Y28.3975
N5510 G1 X41.6000 Y28.2720
N5515 G1 X41.5865 Y28.2600
N5520 G1 X41.4540 Y28.1450
N5525 G1 X41.4335 Y28.1285
N5530 G1 X41.3045 Y28.0280
N5535 G1 X41.2740 Y28.0065
N5540 G1 X41.1495 Y27.9235
N5545 G1 X41.1175 Y27.9040
N5550 G1 X41.0570 Y27.8700
N5555 G1 X41.0295 Y27.8555
N5560 G1 X40.9705 Y27.8275
N5565 G1 X40.9370 Y27.8125
N5570 G1 X40.8800 Y27.7900
N5575 G1 X40.8390 Y27.7760
N5580 G1 X40.7830 Y27.7595
N5585 G1 X40.7355 Y27.7475
N5590 G1 X40.6810 Y27.7370
N5595 G1 X40.6265 Y27.7295
N5600 G1 X40.5740 Y27.7255
N5605 G1 X40.5155 Y27.7240
N5610 G1 X40.4640 Y27.7260
N5615 G1 X40.4030 Y27.7320
N5620 G1 X40.3525 Y27.7400
N5625 G1 X40.2940 Y27.7530
N5630 G1 X40.2445 Y27.7670
N5635 G1 X40.1900 Y27.7860
N5640 G1 X40.1415 Y27.8065
N5645 G1 X40.0950 Y27.8285
N5650 G1 X40.0475 Y27.8545
N5655 G1 X40.0080 Y27.8785
N5660 G1 X39.9610 Y27.9095
N5665 G1 X39.9155 Y27.9440
N5670 G1 X39.8235 Y28.0225
N5675 G1 X39.7835 Y28.0605
N5680 G1 X39.6925 Y28.1570
N5685 G1 X39.6685 Y28.1845
N5690 G1 X39.5775 Y28.2965
N5695 G1 X39.5640 Y28.3135
N5700 G1 X39.4720 Y28.4375
N5705 G1 X39.4655 Y28.4460
N5710 G1 X39.3720 Y28.5775
N5715 G1 X39.1820 Y28.8430
N5720 G1 X39.0915 Y28.9625
N5725 G1 X39.0015 Y29.0720
N5730 G1 X38.9140 Y29.1680
N5735 G1 X38.8295 Y29.2500
N5740 G1 X38.7475 Y29.3185
N5745 G1 X38.6670 Y29.3750
N5750 G1 X38.5875 Y29.4215
N5755 G1 X38.5075 Y29.4600
N5760 G1 X38.4260 Y29.4910
N5765 G1 X38.3425 Y29.5155
N5770 G1 X38.2590 Y29.5335
N5775 G1 X38.1790 Y29.5445
N5780 G1 X38.1050 Y29.5485
N5785 G1 X38.0390 Y29.5450
N5790 G1 X37.9815 Y29.5355
N5795 G1 X37.9305 Y29.5200
N5800 G1 X37.8810 Y29.4970
N5805 G1 X37.8220 Y29.4585
N5810 G1 X37.8010 Y29.4415
N5815 G1 X37.7770 Y29.4195
N5820 G1 X37.7100 Y29.3455
N5825 G1 X37.6460 Y29.2580
N5830 G1 X37.5835 Y29.1525
N5835 G1 X37.5255 Y29.0325
N5840 G1 X37.4740 Y28.9010
N5845 G1 X37.4315 Y28.7630
N5850 G1 X37.3985 Y28.6215
N5855 G1 X37.3755 Y28.4805
N5860 G1 X37.3630 Y28.3415
N5865 G1 X37.3600 Y28.2060
N5870 G1 X37.3660 Y28.0735
N5875 G1 X37.3800 Y27.9430
N5880 G1 X37.4005 Y27.8135
N5885 G1 X37.4275 Y27.6830
N5890 G1 X37.4590 Y27.5515
N5895 G1 X37.6105 Y26.9840
N5900 G1 X37.6130 Y26.9755
N5905 G1 X37.6870 Y26.6760
N5910 G1 X37.6885 Y26.6690
N5915 G1 X37.7255 Y26.5120
N5920 G1 X37.7260 Y26.5090
N5925 G1 X37.7630 Y26.3460
N5930 G1 X37.7635 Y26.3450
N5935 G1 X37.8015 Y26.1745
N5940 G1 X37.8415 Y25.9970
N5945 G1 X37.8840 Y25.8125
N5950 G1 X37.9295 Y25.6190
N5955 G1 X37.9790 Y25.4155
N5960 G1 X38.0320 Y25.2020
N5965 G1 X38.0900 Y24.9770
N5970 G1 X38.1520 Y24.7405
N5975 G1 X38.2180 Y24.4920
N5980 G1 X38.2880 Y24.2315
N5985 G1 X38.3615 Y23.9600
N5990 G1 X38.4385 Y23.6775
N5995 G1 X38.5175 Y23.3840
N6000 G1 Y23.3830
N6005 G1 X38.5990 Y23.0810
N6010 G1 Y23.0800
N6015 G1 X38.6820 Y22.7700
N6020 G1 Y22.7685
N6025 G1 X38.7655 Y22.4510
N6030 G1 X38.7660 Y22.4490
N6035 G1 X38.9340 Y21.8000
N6040 G1 X38.9345 Y21.7975
N6045 G1 X39.1000 Y21.1420
N6050 G1 X39.1005 Y21.1410
N6055 G1 X39.1815 Y20.8165
N6060 G1 X39.2615 Y20.4980
N6065 G1 X39.3395 Y20.1875
N6070 G1 X39.4150 Y19.8885
N6075 G1 X39.4885 Y19.6020
N6080 G1 X39.5595 Y19.3300
N6085 G1 X39.6275 Y19.0745
N6090 G1 X39.6930 Y18.8355
N6095 G1 X39.7555 Y18.6145
N6100 G1 X39.8155 Y18.4095
N6105 G1 X39.8720 Y18.2200
N6110 G1 X39.9260 Y18.0425
N6115 G1 X39.9770 Y17.8760
N6120 G1 X39.9775 Y17.8730
N6125 G1 X40.0250 Y17.7145
N6130 G1 X40.0285 Y17.7025
N6135 G1 X40.1115 Y17.3960
N6140 G1 X40.1160 Y17.3775
N6145 G1 X40.1520 Y17.2215
N6150 G1 X40.1545 Y17.2080
N6155 G1 X40.1870 Y17.0460
N6160 G1 X40.1895 Y17.0335
N6165 G1 X40.2195 Y16.8630
N6170 G1 X40.2210 Y16.8540
N6175 G1 X40.2485 Y16.6740
N6180 G1 X40.2495 Y16.6690
N6185 G1 X40.2765 Y16.4800
N6190 G1 X40.3045 Y16.2880
N6195 G1 X40.3350 Y16.0995
N6200 G1 X40.3685 Y15.9235
N6205 G1 X40.4080 Y15.7615
N6210 G1 X40.4275 Y15.6980
N6215 G1 X40.4485 Y15.6395
N6220 G1 X40.4685 Y15.5920
N6225 G1 X40.4870 Y15.5560
N6230 G1 X40.4945 Y15.5440
N6235 G1 X40.5000 Y15.5450
N6240 G1 X40.5365 Y15.5560
N6245 G1 X40.5830 Y15.5740
N6250 G1 X40.6375 Y15.5985
N6255 G1 X40.6950 Y15.6285
N6260 G1 X40.8360 Y15.7115
N6265 G1 X40.9820 Y15.8080
N6270 G1 X41.1325 Y15.9145
N6275 G1 X41.2805 Y16.0230
N6280 G1 X41.4225 Y16.1275
N6285 G1 X41.4230 Y16.1280
N6290 G1 X41.5540 Y16.2245
N6295 G1 X41.5555 Y16.2255
N6300 G1 X41.6735 Y16.3115
N6305 G1 X41.7755 Y16.3865
N6310 G1 X41.8585 Y16.4500
N6315 G1 X41.9230 Y16.5035
N6320 G1 X41.9725 Y16.5505
N6325 G1 X42.0140 Y16.5985
N6330 G1 X42.0550 Y16.6545
N6335 G1 X42.0985 Y16.7270
N6340 G1 X42.1450 Y16.8185
N6345 G1 X42.1940 Y16.9305
N6350 G1 X42.2440 Y17.0620
N6355 G1 X42.2950 Y17.2105
N6360 G1 X42.3450 Y17.3735
N6365 G1 X42.3945 Y17.5490
N6370 G1 X42.4425 Y17.7345
N6375 G1 X42.4890 Y17.9270
N6380 G1 X42.5800 Y18.3365
N6385 G1 X42.6700 Y18.7635
N6390 G1 X42.6705 Y18.7660
N6395 G1 X42.7655 Y19.2065
N6400 G1 X42.7670 Y19.2135
N6405 G1 X42.8190 Y19.4380
N6410 G1 X42.8205 Y19.4450
N6415 G1 X42.8765 Y19.6730
N6420 G1 X42.8785 Y19.6815
N6425 G1 X42.9395 Y19.9135
N6430 G1 X42.9420 Y19.9230
N6435 G1 X43.0095 Y20.1595
N6440 G1 X43.0125 Y20.1700
N6445 G1 X43.0870 Y20.4110
N6450 G1 X43.0910 Y20.4220
N6455 G1 X43.1735 Y20.6690
N6460 G1 X43.1770 Y20.6800
N6465 G1 X43.2685 Y20.9325
N6470 G1 X43.2725 Y20.9435
N6475 G1 X43.3730 Y21.2025
N6480 G1 X43.3775 Y21.2130
N6485 G1 X43.4875 Y21.4785
N6490 G1 X43.4920 Y21.4890
N6495 G1 X43.6120 Y21.7610
N6500 G1 X43.6165 Y21.7710
N6505 G1 X43.7470 Y22.0505
N6510 G1 X43.7515 Y22.0595
N6515 G1 X43.8925 Y22.3460
N6520 G1 X43.8970 Y22.3545
N6525 G1 X44.0485 Y22.6485
N6530 G1 X44.0525 Y22.6565
N6535 G1 X44.2145 Y22.9570
N6540 G1 X44.2190 Y22.9645
N6545 G1 X44.2795 Y23.0730
N6550 G1 Z-2.3330 F1000
N6555 G1 X44.3915 Y23.2720 F2000
N6560 G1 X44.3955 Y23.2790
N6565 G1 X44.5785 Y23.5925
N6570 G1 X44.5830 Y23.5995
N6575 G1 X44.7765 Y23.9185
N6580 G1 X44.7805 Y23.9255
N6585 G1 X44.9845 Y24.2495
N6590 G1 X44.9885 Y24.2565
N6595 G1 X45.2025 Y24.5850
N6600 G1 X45.2070 Y24.5920
N6605 G1 X45.4310 Y24.9230
N6610 G1 X45.4360 Y24.9305
N6615 G1 X45.6695 Y25.2640
N6620 G1 X45.6750 Y25.2715
N6625 G1 X45.9190 Y25.6055
N6630 G1 X45.9250 Y25.6135
N6635 G1 X46.1785 Y25.9465
N6640 G1 X46.1850 Y25.9555
N6645 G1 X46.4485 Y26.2860
N6650 G1 X46.4555 Y26.2950
N6655 G1 X46.7285 Y26.6220
N6660 G1 X46.7365 Y26.6310
N6665 G1 X47.0185 Y26.9525
N6670 G1 X47.0265 Y26.9620
N6675 G1 X47.3170 Y27.2775
N6680 G1 X47.3260 Y27.2865
N6685 G1 X47.5300 Y27.4970
N6690 G1 Z-2.0000
N6695 G1 X47.6245 Y27.5945
N6700 G1 X47.6330 Y27.6035
N6705 G1 X47.9390 Y27.9030
N6710 G1 X47.9480 Y27.9115
N6715 G1 X48.2595 Y28.2025
N6720 G1 X48.2685 Y28.2110
N6725 G1 X48.5855 Y28.4925
N6730 G1 X48.5945 Y28.5000
N6735 G1 X48.9155 Y28.7720
N6740 G1 X48.9245 Y28.7795
N6745 G1 X49.0070 Y28.8455
N6750 G1 Z-2.3330 F1000
N6755 G1 X49.2490 Y29.0405 F2000
N6760 G1 X49.2575 Y29.0475
N6765 G1 X49.5835 Y29.2985
N6770 G1 X49.5925 Y29.3050
N6775 G1 X49.9190 Y29.5450
N6780 G1 X49.9275 Y29.5510
N6785 G1 X50.2540 Y29.7805
N6790 G1 X50.2625 Y29.7865
N6795 G1 X50.5875 Y30.0050
N6800 G1 X50.5950 Y30.0100
N6805 G1 X50.9170 Y30.2185
N6810 G1 X50.9250 Y30.2235
N6815 G1 X51.2440 Y30.4215
N6820 G1 X51.2510 Y30.4260
N6825 G1 X51.5655 Y30.6140
N6830 G1 X51.5725 Y30.6180
N6835 G1 X51.8825 Y30.7965
N6840 G1 X51.8885 Y30.8000
N6845 G1 X52.1920 Y30.9690
N6850 G1 X52.1980 Y30.9725
N6855 G1 X52.4955 Y31.1330
N6860 G1 X52.5020 Y31.1360
N6865 G1 X52.7935 Y31.2880
N6870 G1 X52.7980 Y31.2905
N6875 G1 X53.0820 Y31.4350
N6880 G1 X53.0875 Y31.4375
N6885 G1 X53.3655 Y31.5745
N6890 G1 X53.3695 Y31.5765
N6895 G1 X53.6405 Y31.7070
N6900 G1 X53.6450 Y31.7095
N6905 G1 X53.9100 Y31.8335
N6910 G1 X53.9140 Y31.8355
N6915 G1 X54.1730 Y31.9545
N6920 G1 X54.1770 Y31.9560
N6925 G1 X54.4310 Y32.0700
N6930 G1 X54.4345 Y32.0715
N6935 G1 X54.6840 Y32.1810
N6940 G1 X54.6875 Y32.1825
N6945 G1 X54.9330 Y32.2880
N6950 G1 X54.9390 Y32.2910
N6955 G1 X55.4235 Y32.4915
N6960 G1 X55.4325 Y32.4950
N6965 G1 X55.9145 Y32.6840
N6970 G1 X55.9255 Y32.6885
N6975 G1 X56.4155 Y32.8670
N6980 G1 X56.4265 Y32.8710
N6985 G1 X56.6785 Y32.9565
N6990 G1 X56.6865 Y32.9590
N6995 G1 X56.9445 Y33.0415
N7000 G1 X56.9540 Y33.0445
N7005 G1 X57.2200 Y33.1235
N7010 G1 X57.2300 Y33.1265
N7015 G1 X57.5050 Y33.2025
N7020 G1 X57.5160 Y33.2050
N7025 G1 X57.8010 Y33.2770
N7030 G1 X57.8120 Y33.2795
N7035 G1 X58.1080 Y33.3470
N7040 G1 X58.1195 Y33.3495
N7045 G1 X58.4265 Y33.4120
N7050 G1 X58.4385 Y33.4140
N7055 G1 X58.7565 Y33.4705
N7060 G1 X58.7680 Y33.4725
N7065 G1 X58.9980 Y33.5080
N7070 G1 X58.7680 Y33.5430
N7075 G1 X58.7565 Y33.5450
N7080 G1 X58.4385 Y33.6020
N7085 G1 X58.4265 Y33.6040
N7090 G1 X58.1195 Y33.6665
N7095 G1 X58.1080 Y33.6690
N7100 G1 X57.8120 Y33.7360
N7105 G1 X57.8010 Y33.7390
N7110 G1 X57.5160 Y33.8105
N7115 G1 X57.5050 Y33.8135
N7120 G1 X57.2300 Y33.8895
N7125 G1 X57.2200 Y33.8920
N7130 G1 X56.9540 Y33.9715
N7135 G1 X56.9445 Y33.9745
N7140 G1 X56.6865 Y34.0570
N7145 G1 X56.6785 Y34.0595
N7150 G1 X56.4265 Y34.1450
N7155 G1 X56.4155 Y34.1490
N7160 G1 X55.9255 Y34.3275
N7165 G1 X55.9145 Y34.3315
N7170 G1 X55.4325 Y34.5210
N7175 G1 X55.4235 Y34.5245
N7180 G1 X54.9390 Y34.7250
N7185 G1 X54.9330 Y34.7275
N7190 G1 X54.6875 Y34.8330
N7195 G1 X54.6840 Y34.8345
N7200 G1 X54.4345 Y34.9440
N7205 G1 X54.4310 Y34.9460
N7210 G1 X54.1770 Y35.0600
N7215 G1 X54.1730 Y35.0615
N7220 G1 X53.9140 Y35.1805
N7225 G1 X53.9100 Y35.1820
N7230 G1 X53.6450 Y35.3065
N7235 G1 X53.6405 Y35.3085
N7240 G1 X53.3695 Y35.4390
N7245 G1 X53.3655 Y35.4410
N7250 G1 X53.0875 Y35.5785
N7255 G1 X53.0820 Y35.5810
N7260 G1 X52.7980 Y35.7255
N7265 G1 X52.7930 Y35.7280
N7270 G1 X52.5015 Y35.8800
N7275 G1 X52.4960 Y35.8830
N7280 G1 X52.1985 Y36.0435
N7285 G1 X52.1920 Y36.0465
N7290 G1 X51.8885 Y36.2160
N7295 G1 X51.8825 Y36.2195
N7300 G1 X51.5725 Y36.3975
N7305 G1 X51.5655 Y36.4020
N7310 G1 X51.2510 Y36.5900
N7315 G1 X51.2440 Y36.5945
N7320 G1 X50.9250 Y36.7925
N7325 G1 X50.9170 Y36.7975
N7330 G1 X50.5950 Y37.0055
N7335 G1 X50.5875 Y37.0105
N7340 G1 X50.2625 Y37.2295
N7345 G1 X50.2540 Y37.2350
N7350 G1 X49.9275 Y37.4645
N7355 G1 X49.9190 Y37.4710
N7360 G1 X49.5925 Y37.7110
N7365 G1 X49.5835 Y37.7175
N7370 G1 X49.2575 Y37.9685
N7375 G1 X49.2485 Y37.9755
N7380 G1 X48.9245 Y38.2365
N7385 G1 X48.9155 Y38.2440
N7390 G1 X48.5945 Y38.5155
N7395 G1 X48.5855 Y38.5235
N7400 G1 X48.2685 Y38.8050
N7405 G1 X48.2595 Y38.8135
N7410 G1 X47.9480 Y39.1040
N7415 G1 X47.9390 Y39.1130
N7420 G1 X47.6330 Y39.4125
N7425 G1 X47.6245 Y39.4215
N7430 G1 X47.3260 Y39.7295
N7435 G1 X47.3175 Y39.7385
N7440 G1 X47.3070 Y39.7500
N7445 G1 Z-2.0000
N7450 G1 X47.0265 Y40.0540
N7455 G1 X47.0185 Y40.0630
N7460 G1 X46.7365 Y40.3845
N7465 G1 X46.7285 Y40.3940
N7470 G1 X46.4555 Y40.7210
N7475 G1 X46.4485 Y40.7300
N7480 G1 X46.1850 Y41.0605
N7485 G1 X46.1785 Y41.0690
N7490 G1 X46.0185 Y41.2795
N7495 G1 Z-2.3330 F1000
N7500 G1 X45.9250 Y41.4025 F2000
N7505 G1 X45.9190 Y41.4105
N7510 G1 X45.6750 Y41.7445
N7515 G1 X45.6695 Y41.7520
N7520 G1 X45.4360 Y42.0855
N7525 G1 X45.4310 Y42.0925
N7530 G1 X45.2070 Y42.4240
N7535 G1 X45.2025 Y42.4310
N7540 G1 X44.9885 Y42.7590
N7545 G1 X44.9845 Y42.7660
N7550 G1 X44.7805 Y43.0905
N7555 G1 X44.7765 Y43.0970
N7560 G1 X44.5830 Y43.4165
N7565 G1 X44.5785 Y43.4235
N7570 G1 X44.3955 Y43.7365
N7575 G1 X44.3915 Y43.7440
N7580 G1 X44.2190 Y44.0515
N7585 G1 X44.2145 Y44.0590
N7590 G1 X44.0525 Y44.3595
N7595 G1 X44.0485 Y44.3675
N7600 G1 X43.8970 Y44.6610
N7605 G1 X43.8925 Y44.6700
N7610 G1 X43.7515 Y44.9565
N7615 G1 X43.7470 Y44.9655
N7620 G1 X43.6165 Y45.2450
N7625 G1 X43.6120 Y45.2545
N7630 G1 X43.4920 Y45.5270
N7635 G1 X43.4875 Y45.5375
N7640 G1 X43.3775 Y45.8030
N7645 G1 X43.3730 Y45.8135
N7650 G1 X43.2725 Y46.0725
N7655 G1 X43.2685 Y46.0835
N7660 G1 X43.1770 Y46.3360
N7665 G1 X43.1735 Y46.3470
N7670 G1 X43.0910 Y46.5935
N7675 G1 X43.0870 Y46.6050
N7680 G1 X43.0125 Y46.8460
N7685 G1 X43.0095 Y46.8565
N7690 G1 X42.9420 Y47.0925
N7695 G1 X42.9395 Y47.1025
N7700 G1 X42.8785 Y47.3345
N7705 G1 X42.8765 Y47.3425
N7710 G1 X42.8205 Y47.5710
N7715 G1 X42.8190 Y47.5775
N7720 G1 X42.7670 Y47.8025
N7725 G1 X42.7655 Y47.8090
N7730 G1 X42.6705 Y48.2500
N7735 G1 X42.6700 Y48.2525
N7740 G1 X42.5800 Y48.6795
N7745 G1 X42.4890 Y49.0885
N7750 G1 X42.4425 Y49.2815
N7755 G1 X42.3945 Y49.4670
N7760 G1 X42.3450 Y49.6425
N7765 G1 X42.2950 Y49.8055
N7770 G1 X42.2440 Y49.9540
N7775 G1 X42.1940 Y50.0855
N7780 G1 X42.1450 Y50.1975
N7785 G1 X42.0985 Y50.2890
N7790 G1 X42.0545 Y50.3615
N7795 G1 X42.0140 Y50.4180
N7800 G1 X41.9725 Y50.4650
N7805 G1 X41.9230 Y50.5120
N7810 G1 X41.8585 Y50.5660
N7815 G1 X41.7755 Y50.6295
N7820 G1 X41.6730 Y50.7050
N7825 G1 X41.5555 Y50.7905
N7830 G1 X41.5545 Y50.7915
N7835 G1 X41.4235 Y50.8875
N7840 G1 X41.4220 Y50.8885
N7845 G1 X41.2805 Y50.9930
N7850 G1 X41.1325 Y51.1015
N7855 G1 X40.9820 Y51.2080
N7860 G1 X40.8355 Y51.3050
N7865 G1 X40.6955 Y51.3870
N7870 G1 X40.6375 Y51.4170
N7875 G1 X40.5820 Y51.4425
N7880 G1 X40.5365 Y51.4600
N7885 G1 X40.5010 Y51.4705
N7890 G1 X40.4945 Y51.4720
N7895 G1 X40.4875 Y51.4605
N7900 G1 X40.4685 Y51.4240
N7905 G1 X40.4485 Y51.3760
N7910 G1 X40.4275 Y51.3180
N7915 G1 X40.4080 Y51.2540
N7920 G1 X40.3685 Y51.0925
N7925 G1 X40.3350 Y50.9160
N7930 G1 X40.3045 Y50.7280
N7935 G1 X40.2765 Y50.5355
N7940 G1 X40.2495 Y50.3470
N7945 G1 X40.2485 Y50.3420
N7950 G1 X40.2210 Y50.1620
N7955 G1 X40.2190 Y50.1525
N7960 G1 X40.1895 Y49.9825
N7965 G1 X40.1870 Y49.9700
N7970 G1 X40.1550 Y49.8080
N7975 G1 X40.1520 Y49.7945
N7980 G1 X40.1160 Y49.6385
N7985 G1 X40.1115 Y49.6200
N7990 G1 X40.0285 Y49.3135
N7995 G1 X40.0250 Y49.3010
N8000 G1 X39.9775 Y49.1430
N8005 G1 X39.9770 Y49.1400
N8010 G1 X39.9260 Y48.9730
N8015 G1 X39.8720 Y48.7960
N8020 G1 X39.8155 Y48.6065
N8025 G1 X39.7555 Y48.4015
N8030 G1 X39.6930 Y48.1800
N8035 G1 X39.6275 Y47.9415
N8040 G1 X39.5595 Y47.6860
N8045 G1 X39.4885 Y47.4140
N8050 G1 X39.4150 Y47.1275
N8055 G1 X39.3395 Y46.8280
N8060 G1 X39.2615 Y46.5180
N8065 G1 X39.1820 Y46.1995
N8070 G1 X39.1005 Y45.8750
N8075 G1 X39.1000 Y45.8740
N8080 G1 X39.0330 Y45.6090
N8085 G1 Z-2.0000
N8090 G1 X38.9345 Y45.2185
N8095 G1 X38.9340 Y45.2160
N8100 G1 X38.7660 Y44.5670
N8105 G1 X38.7655 Y44.5645
N8110 G1 X38.6820 Y44.2475
N8115 G1 Y44.2460
N8120 G1 X38.5990 Y43.9360
N8125 G1 Y43.9345
N8130 G1 X38.5285 Y43.6735
N8135 G1 Z-2.3330 F1000
N8140 G1 X38.5175 Y43.6325 F2000
N8145 G1 Y43.6320
N8150 G1 X38.4385 Y43.3390
N8155 G1 X38.3615 Y43.0560
N8160 G1 X38.2880 Y42.7840
N8165 G1 X38.2180 Y42.5240
N8170 G1 X38.1520 Y42.2755
N8175 G1 X38.0900 Y42.0390
N8180 G1 X38.0320 Y41.8140
N8185 G1 X37.9790 Y41.6000
N8190 G1 X37.9295 Y41.3970
N8195 G1 X37.8840 Y41.2035
N8200 G1 X37.8415 Y41.0185
N8205 G1 X37.8015 Y40.8415
N8210 G1 X37.7635 Y40.6710
N8215 G1 X37.7630 Y40.6700
N8220 G1 X37.7260 Y40.5065
N8225 G1 X37.7255 Y40.5035
N8230 G1 X37.6885 Y40.3465
N8235 G1 X37.6870 Y40.3400
N8240 G1 X37.6130 Y40.0405
N8245 G1 X37.6105 Y40.0315
N8250 G1 X37.4590 Y39.4645
N8255 G1 X37.4275 Y39.3330
N8260 G1 X37.4005 Y39.2025
N8265 G1 X37.3800 Y39.0730
N8270 G1 X37.3660 Y38.9425
N8275 G1 X37.3600 Y38.8100
N8280 G1 X37.3630 Y38.6745
N8285 G1 X37.3755 Y38.5355
N8290 G1 X37.3985 Y38.3940
N8295 G1 X37.4315 Y38.2530
N8300 G1 X37.4740 Y38.1145
N8305 G1 X37.5255 Y37.9835
N8310 G1 X37.5835 Y37.8630
N8315 G1 X37.6460 Y37.7580
N8320 G1 X37.7100 Y37.6705
N8325 G1 X37.7770 Y37.5965
N8330 G1 X37.8010 Y37.5745
N8335 G1 X37.8220 Y37.5570
N8340 G1 X37.8810 Y37.5185
N8345 G1 X37.9305 Y37.4960
N8350 G1 X37.9815 Y37.4805
N8355 G1 X38.0390 Y37.4710
N8360 G1 X38.1050 Y37.4675
N8365 G1 X38.1790 Y37.4715
N8370 G1 X38.2590 Y37.4820
N8375 G1 X38.3425 Y37.5000
N8380 G1 X38.4255 Y37.5250
N8385 G1 X38.5075 Y37.5560
N8390 G1 X38.5880 Y37.5945
N8395 G1 X38.6670 Y37.6410
N8400 G1 X38.7475 Y37.6975
N8405 G1 X38.8295 Y37.7660
N8410 G1 X38.9140 Y37.8480
N8415 G1 X39.0015 Y37.9440
N8420 G1 X39.0915 Y38.0535
N8425 G1 X39.1820 Y38.1725
N8430 G1 X39.3720 Y38.4385
N8435 G1 X39.4655 Y38.5700
N8440 G1 X39.4720 Y38.5785
N8445 G1 X39.5640 Y38.7025
N8450 G1 X39.5775 Y38.7195
N8455 G1 X39.6685 Y38.8315
N8460 G1 X39.6925 Y38.8590
N8465 G1 X39.7835 Y38.9555
N8470 G1 X39.8235 Y38.9935
N8475 G1 X39.8915 Y39.0515
N8480 G1 Z-2.0000
N8485 G1 X39.9155 Y39.0720
N8490 G1 X39.9610 Y39.1060
N8495 G1 X40.0080 Y39.1375
N8500 G1 X40.0470 Y39.1610
N8505 G1 X40.0945 Y39.1870
N8510 G1 X40.1420 Y39.2100
N8515 G1 X40.1905 Y39.2300
N8520 G1 X40.2445 Y39.2490
N8525 G1 X40.2940 Y39.2630
N8530 G1 X40.3525 Y39.2760
N8535 G1 X40.4030 Y39.2840
N8540 G1 X40.4635 Y39.2900
N8545 G1 X40.5150 Y39.2920
N8550 G1 X40.5740 Y39.2905
N8555 G1 X40.6270 Y39.2860
N8560 G1 X40.6810 Y39.2785
N8565 G1 X40.7355 Y39.2680
N8570 G1 X40.7830 Y39.2565
N8575 G1 X40.8390 Y39.2400
N8580 G1 X40.8795 Y39.2260
N8585 G1 X40.9370 Y39.2035
N8590 G1 X40.9710 Y39.1885
N8595 G1 X41.0300 Y39.1600
N8600 G1 X41.0570 Y39.1460
N8605 G1 X41.1175 Y39.1120
N8610 G1 X41.1495 Y39.0925
N8615 G1 X41.2740 Y39.0095
N8620 G1 X41.3045 Y38.9880
N8625 G1 X41.4335 Y38.8875
N8630 G1 X41.4540 Y38.8705
N8635 G1 X41.5865 Y38.7560
N8640 G1 X41.6000 Y38.7440
N8645 G1 X41.7345 Y38.6185
N8650 G1 X41.7440 Y38.6095
N8655 G1 X41.8670 Y38.4885
N8660 G1 Z-2.3330 F1000
N8665 G1 X41.8790 Y38.4770 F2000
N8670 G1 X41.8890 Y38.4670
N8675 G1 X42.1505 Y38.1950
N8680 G1 X42.1595 Y38.1855
N8685 G1 X42.2820 Y38.0510
N8690 G1 X42.2900 Y38.0420
N8695 G1 X42.4035 Y37.9110
N8700 G1 X42.4150 Y37.8975
N8705 G1 X42.5175 Y37.7705
N8710 G1 X42.5340 Y37.7495
N8715 G1 X42.6235 Y37.6260
N8720 G1 X42.6445 Y37.5945
N8725 G1 X42.7185 Y37.4735
N8730 G1 X42.7435 Y37.4280
N8735 G1 X42.8010 Y37.3080
N8740 G1 X42.8140 Y37.2780
N8745 G1 X42.8255 Y37.2475
N8750 G1 X42.8645 Y37.1270
N8755 G1 X42.8750 Y37.0910
N8760 G1 X42.8825 Y37.0545
N8765 G1 X42.9030 Y36.9325
N8770 G1 X42.9080 Y36.8935
N8775 G1 X42.9100 Y36.8550
N8780 G1 X42.9110 Y36.7300
N8785 G1 X42.9105 Y36.6940
N8790 G1 X42.9065 Y36.6580
N8795 G1 X42.8895 Y36.5295
N8800 G1 X42.8775 Y36.4685
N8805 G1 X42.8425 Y36.3365
N8810 G1 X42.8275 Y36.2890
N8815 G1 X42.7770 Y36.1535
N8820 G1 X42.7615 Y36.1165
N8825 G1 X42.6970 Y35.9785
N8830 G1 X42.6830 Y35.9510
N8835 G1 X42.6070 Y35.8115
N8840 G1 X42.5945 Y35.7900
N8845 G1 X42.5090 Y35.6505
N8850 G1 X42.4980 Y35.6330
N8855 G1 X42.4055 Y35.4945
N8860 G1 X42.3955 Y35.4800
N8865 G1 X42.2970 Y35.3435
N8870 G1 X42.2875 Y35.3305
N8875 G1 X42.1845 Y35.1970
N8880 G1 X42.1745 Y35.1845
N8885 G1 X42.0675 Y35.0545
N8890 G1 X42.0570 Y35.0420
N8895 G1 X41.9455 Y34.9155
N8900 G1 X41.9335 Y34.9025
N8905 G1 X41.8175 Y34.7795
N8910 G1 X41.8045 Y34.7665
N8915 G1 X41.6835 Y34.6470
N8920 G1 X41.6690 Y34.6335
N8925 G1 X41.5415 Y34.5180
N8930 G1 X41.5265 Y34.5050
N8935 G1 X41.3920 Y34.3925
N8940 G1 X41.3770 Y34.3800
N8945 G1 X41.2350 Y34.2705
N8950 G1 X41.2205 Y34.2595
N8955 G1 X41.0715 Y34.1530
N8960 G1 X41.0570 Y34.1430
N8965 G1 X40.9015 Y34.0395
N8970 G1 X40.8885 Y34.0310
N8975 G1 X40.7275 Y33.9315
N8980 G1 X40.7150 Y33.9240
N8985 G1 X40.5515 Y33.8290
N8990 G1 X40.5400 Y33.8225
N8995 G1 X40.3760 Y33.7330
N9000 G1 X40.3650 Y33.7270
N9005 G1 X40.2035 Y33.6440
N9010 G1 X40.1925 Y33.6385
N9015 G1 X40.0365 Y33.5630
N9020 G1 X40.0250 Y33.5580
N9025 G1 X39.9150 Y33.5080
N9030 G1 X40.0250 Y33.4580
N9035 G1 X40.0365 Y33.4525
N9040 G1 X40.1925 Y33.3775
N9045 G1 X40.2035 Y33.3720
N9050 G1 X40.3650 Y33.2890
N9055 G1 X40.3760 Y33.2830
N9060 G1 X40.5400 Y33.1935
N9065 G1 X40.5515 Y33.1870
N9070 G1 X40.7155 Y33.0915
N9075 G1 X40.7275 Y33.0845
N9080 G1 X40.8885 Y32.9845
N9085 G1 X40.9015 Y32.9760
N9090 G1 X41.0570 Y32.8730
N9095 G1 X41.0715 Y32.8630
N9100 G1 X41.2205 Y32.7565
N9105 G1 X41.2350 Y32.7455
N9110 G1 X41.3770 Y32.6355
N9115 G1 X41.3920 Y32.6235
N9120 G1 X41.5265 Y32.5110
N9125 G1 X41.5415 Y32.4980
N9130 G1 X41.6690 Y32.3820
N9135 G1 X41.6835 Y32.3685
N9140 G1 X41.8045 Y32.2495
N9145 G1 X41.8175 Y32.2360
N9150 G1 X41.9335 Y32.1135
N9155 G1 X41.9455 Y32.1005
N9160 G1 X42.0565 Y31.9740
N9165 G1 X42.0675 Y31.9615
N9170 G1 X42.1745 Y31.8315
N9175 G1 X42.1845 Y31.8190
N9180 G1 X42.2875 Y31.6855
N9185 G1 X42.2970 Y31.6725
N9190 G1 X42.3955 Y31.5355
N9195 G1 X42.4055 Y31.5215
N9200 G1 X42.4980 Y31.3830
N9205 G1 X42.5090 Y31.3655
N9210 G1 X42.5945 Y31.2260
N9215 G1 X42.6070 Y31.2045
N9220 G1 X42.6830 Y31.0650
N9225 G1 X42.6970 Y31.0370
N9230 G1 X42.7615 Y30.8990
N9235 G1 X42.7770 Y30.8625
N9240 G1 X42.8275 Y30.7270
N9245 G1 X42.8425 Y30.6795
N9250 G1 X42.8775 Y30.5470
N9255 G1 X42.8895 Y30.4865
N9260 G1 X42.9065 Y30.3580
N9265 G1 X42.9105 Y30.3220
N9270 G1 X42.9110 Y30.2860
N9275 G1 X42.9100 Y30.1610
N9280 G1 X42.9080 Y30.1220
N9285 G1 X42.9030 Y30.0835
N9290 G1 X42.8825 Y29.9615
N9295 G1 X42.8750 Y29.9250
N9300 G1 X42.8645 Y29.8885
N9305 G1 X42.8255 Y29.7685
N9310 G1 X42.8140 Y29.7380
N9315 G1 X42.8010 Y29.7080
N9320 G1 X42.7435 Y29.5880
N9325 G1 X42.7185 Y29.5425
N9330 G1 X42.6445 Y29.4215
N9335 G1 X42.6235 Y29.3900
N9340 G1 X42.5340 Y29.2665
N9345 G1 X42.5175 Y29.2450
N9350 G1 X42.4150 Y29.1180
N9355 G1 X42.4035 Y29.1045
N9360 G1 X42.2900 Y28.9740
N9365 G1 X42.2820 Y28.9650
N9370 G1 X42.1595 Y28.8305
N9375 G1 X42.1505 Y28.8210
N9380 G1 X41.8890 Y28.5490
N9385 G1 X41.8790 Y28.5390
N9390 G1 X41.7440 Y28.4065
N9395 G1 X41.7355 Y28.3980
N9400 G1 Z-2.0000
N9405 G1 X41.7345 Y28.3975
N9410 G1 X41.6000 Y28.2720
N9415 G1 X41.5865 Y28.2600
N9420 G1 X41.4540 Y28.1450
N9425 G1 X41.4335 Y28.1285
N9430 G1 X41.3045 Y28.0280
N9435 G1 X41.2740 Y28.0065
N9440 G1 X41.1495 Y27.9235
N9445 G1 X41.1175 Y27.9040
N9450 G1 X41.0570 Y27.8700
N9455 G1 X41.0295 Y27.8555
N9460 G1 X40.9705 Y27.8275
N9465 G1 X40.9370 Y27.8125
N9470 G1 X40.8800 Y27.7900
N9475 G1 X40.8390 Y27.7760
N9480 G1 X40.7830 Y27.7595
N9485 G1 X40.7355 Y27.7475
N9490 G1 X40.6810 Y27.7370
N9495 G1 X40.6265 Y27.7295
N9500 G1 X40.5740 Y27.7255
N9505 G1 X40.5155 Y27.7240
N9510 G1 X40.4640 Y27.7260
N9515 G1 X40.4030 Y27.7320
N9520 G1 X40.3525 Y27.7400
N9525 G1 X40.2940 Y27.7530
N9530 G1 X40.2445 Y27.7670
N9535 G1 X40.1900 Y27.7860
N9540 G1 X40.1415 Y27.8065
N9545 G1 X40.0950 Y27.8285
N9550 G1 X40.0475 Y27.8545
N9555 G1 X40.0080 Y27.8785
N9560 G1 X39.9610 Y27.9095
N9565 G1 X39.9155 Y27.9440
N9570 G1 X39.8235 Y28.0225
N9575 G1 X39.7835 Y28.0605
N9580 G1 X39.6925 Y28.1570
N9585 G1 X39.6835 Y28.1670
N9590 G1 Z-2.3330 F1000
N9595 G1 X39.6685 Y28.1845 F2000
N9600 G1 X39.5775 Y28.2965
N9605 G1 X39.5640 Y28.3135
N9610 G1 X39.4720 Y28.4375
N9615 G1 X39.4655 Y28.4460
N9620 G1 X39.3720 Y28.5775
N9625 G1 X39.1820 Y28.8430
N9630 G1 X39.0915 Y28.9625
N9635 G1 X39.0015 Y29.0720
N9640 G1 X38.9140 Y29.1680
N9645 G1 X38.8295 Y29.2500
N9650 G1 X38.7475 Y29.3185
N9655 G1 X38.6670 Y29.3750
N9660 G1 X38.5875 Y29.4215
N9665 G1 X38.5075 Y29.4600
N9670 G1 X38.4260 Y29.4910
N9675 G1 X38.3425 Y29.5155
N9680 G1 X38.2590 Y29.5335
N9685 G1 X38.1790 Y29.5445
N9690 G1 X38.1050 Y29.5485
N9695 G1 X38.0390 Y29.5450
N9700 G1 X37.9815 Y29.5355
N9705 G1 X37.9305 Y29.5200
N9710 G1 X37.8810 Y29.4970
N9715 G1 X37.8220 Y29.4585
N9720 G1 X37.8010 Y29.4415
N9725 G1 X37.7770 Y29.4195
N9730 G1 X37.7100 Y29.3455
N9735 G1 X37.6460 Y29.2580
N9740 G1 X37.5835 Y29.1525
N9745 G1 X37.5255 Y29.0325
N9750 G1 X37.4740 Y28.9010
N9755 G1 X37.4315 Y28.7630
N9760 G1 X37.3985 Y28.6215
N9765 G1 X37.3755 Y28.4805
N9770 G1 X37.3630 Y28.3415
N9775 G1 X37.3600 Y28.2060
N9780 G1 X37.3660 Y28.0735
N9785 G1 X37.3800 Y27.9430
N9790 G1 X37.4005 Y27.8135
N9795 G1 X37.4275 Y27.6830
N9800 G1 X37.4590 Y27.5515
N9805 G1 X37.6105 Y26.9840
N9810 G1 X37.6130 Y26.9755
N9815 G1 X37.6870 Y26.6760
N9820 G1 X37.6885 Y26.6690
N9825 G1 X37.7255 Y26.5120
N9830 G1 X37.7260 Y26.5090
N9835 G1 X37.7630 Y26.3460
N9840 G1 X37.7635 Y26.3450
N9845 G1 X37.8015 Y26.1745
N9850 G1 X37.8415 Y25.9970
N9855 G1 X37.8840 Y25.8125
N9860 G1 X37.9295 Y25.6190
N9865 G1 X37.9790 Y25.4155
N9870 G1 X38.0320 Y25.2020
N9875 G1 X38.0900 Y24.9770
N9880 G1 X38.1520 Y24.7405
N9885 G1 X38.2180 Y24.4920
N9890 G1 X38.2880 Y24.2315
N9895 G1 X38.3615 Y23.9600
N9900 G1 X38.4385 Y23.6775
N9905 G1 X38.5025 Y23.4395
N9910 G1 Z-2.0000
N9915 G1 X38.5175 Y23.3840
N9920 G1 Y23.3830
N9925 G1 X38.5990 Y23.0810
N9930 G1 Y23.0800
N9935 G1 X38.6820 Y22.7700
N9940 G1 Y22.7685
N9945 G1 X38.7655 Y22.4510
N9950 G1 X38.7660 Y22.4490
N9955 G1 X38.9340 Y21.8000
N9960 G1 X38.9345 Y21.7975
N9965 G1 X39.0085 Y21.5045
N9970 G1 Z-2.3330 F1000
N9975 G1 X39.1000 Y21.1420 F2000
N9980 G1 X39.1005 Y21.1410
N9985 G1 X39.1815 Y20.8165
N9990 G1 X39.2615 Y20.4980
N9995 G1 X39.3395 Y20.1875
N10000 G1 X39.4150 Y19.8885
N10005 G1 X39.4885 Y19.6020
N10010 G1 X39.5595 Y19.3300
N10015 G1 X39.6275 Y19.0745
N10020 G1 X39.6930 Y18.8355
N10025 G1 X39.7555 Y18.6145
N10030 G1 X39.8155 Y18.4095
N10035 G1 X39.8720 Y18.2200
N10040 G1 X39.9260 Y18.0425
N10045 G1 X39.9770 Y17.8760
N10050 G1 X39.9775 Y17.8730
N10055 G1 X40.0250 Y17.7145
N10060 G1 X40.0285 Y17.7025
N10065 G1 X40.1115 Y17.3960
N10070 G1 X40.1160 Y17.3775
N10075 G1 X40.1520 Y17.2215
N10080 G1 X40.1545 Y17.2080
N10085 G1 X40.1870 Y17.0460
N10090 G1 X40.1895 Y17.0335
N10095 G1 X40.2195 Y16.8630
N10100 G1 X40.2210 Y16.8540
N10105 G1 X40.2485 Y16.6740
N10110 G1 X40.2495 Y16.6690
N10115 G1 X40.2765 Y16.4800
N10120 G1 X40.3045 Y16.2880
N10125 G1 X40.3350 Y16.0995
N10130 G1 X40.3685 Y15.9235
N10135 G1 X40.4080 Y15.7615
N10140 G1 X40.4275 Y15.6980
N10145 G1 X40.4485 Y15.6395
N10150 G1 X40.4685 Y15.5920
N10155 G1 X40.4870 Y15.5560
N10160 G1 X40.4945 Y15.5440
N10165 G1 X40.5000 Y15.5450
N10170 G1 X40.5365 Y15.5560
N10175 G1 X40.5830 Y15.5740
N10180 G1 X40.6375 Y15.5985
N10185 G1 X40.6950 Y15.6285
N10190 G1 X40.8360 Y15.7115
N10195 G1 X40.9820 Y15.8080
N10200 G1 X41.1325 Y15.9145
N10205 G1 X41.2805 Y16.0230
N10210 G1 X41.4225 Y16.1275
N10215 G1 X41.4230 Y16.1280
N10220 G1 X41.5540 Y16.2245
N10225 G1 X41.5555 Y16.2255
N10230 G1 X41.6735 Y16.3115
N10235 G1 X41.7755 Y16.3865
N10240 G1 X41.8585 Y16.4500
N10245 G1 X41.9230 Y16.5035
N10250 G1 X41.9725 Y16.5505
N10255 G1 X42.0140 Y16.5985
N10260 G1 X42.0550 Y16.6545
N10265 G1 X42.0985 Y16.7270
N10270 G1 X42.1450 Y16.8185
N10275 G1 X42.1940 Y16.9305
N10280 G1 X42.2440 Y17.0620
N10285 G1 X42.2950 Y17.2105
N10290 G1 X42.3450 Y17.3735
N10295 G1 X42.3945 Y17.5490
N10300 G1 X42.4425 Y17.7345
N10305 G1 X42.4890 Y17.9270
N10310 G1 X42.5800 Y18.3365
N10315 G1 X42.6700 Y18.7635
N10320 G1 X42.6705 Y18.7660
N10325 G1 X42.7655 Y19.2065
N10330 G1 X42.7670 Y19.2135
N10335 G1 X42.8190 Y19.4380
N10340 G1 X42.8205 Y19.4450
N10345 G1 X42.8765 Y19.6730
N10350 G1 X42.8785 Y19.6815
N10355 G1 X42.9395 Y19.9135
N10360 G1 X42.9420 Y19.9230
N10365 G1 X43.0095 Y20.1595
N10370 G1 X43.0125 Y20.1700
N10375 G1 X43.0870 Y20.4110
N10380 G1 X43.0910 Y20.4220
N10385 G1 X43.1735 Y20.6690
N10390 G1 X43.1770 Y20.6800
N10395 G1 X43.2685 Y20.9325
N10400 G1 X43.2725 Y20.9435
N10405 G1 X43.3730 Y21.2025
N10410 G1 X43.3775 Y21.2130
N10415 G1 X43.4875 Y21.4785
N10420 G1 X43.4920 Y21.4890
N10425 G1 X43.6120 Y21.7610
N10430 G1 X43.6165 Y21.7710
N10435 G1 X43.7470 Y22.0505
N10440 G1 X43.7515 Y22.0595
N10445 G1 X43.8925 Y22.3460
N10450 G1 X43.8970 Y22.3545
N10455 G1 X44.0485 Y22.6485
N10460 G1 X44.0525 Y22.6565
N10465 G1 X44.2145 Y22.9570
N10470 G1 X44.2190 Y22.9645
N10475 G1 X44.2795 Y23.0730
N10480 G1 Z-3.5000 F1000
N10485 G1 X44.3915 Y23.2720 F2000
N10490 G1 X44.3955 Y23.2790
N10495 G1 X44.5785 Y23.5925
N10500 G1 X44.5830 Y23.5995
N10505 G1 X44.7765 Y23.9185
N10510 G1 X44.7805 Y23.9255
N10515 G1 X44.9845 Y24.2495
N10520 G1 X44.9885 Y24.2565
N10525 G1 X45.2025 Y24.5850
N10530 G1 X45.2070 Y24.5920
N10535 G1 X45.4310 Y24.9230
N10540 G1 X45.4360 Y24.9305
N10545 G1 X45.6695 Y25.2640
N10550 G1 X45.6750 Y25.2715
N10555 G1 X45.9190 Y25.6055
N10560 G1 X45.9250 Y25.6135
N10565 G1 X46.1785 Y25.9465
N10570 G1 X46.1850 Y25.9555
N10575 G1 X46.4485 Y26.2860
N10580 G1 X46.4555 Y26.2950
N10585 G1 X46.7285 Y26.6220
N10590 G1 X46.7365 Y26.6310
N10595 G1 X47.0185 Y26.9525
N10600 G1 X47.0265 Y26.9620
N10605 G1 X47.3170 Y27.2775
N10610 G1 X47.3260 Y27.2865
N10615 G1 X47.5300 Y27.4970
N10620 G1 Z-2.0000
N10625 G1 X47.6245 Y27.5945
N10630 G1 X47.6330 Y27.6035
N10635 G1 X47.9390 Y27.9030
N10640 G1 X47.9480 Y27.9115
N10645 G1 X48.2595 Y28.2025
N10650 G1 X48.2685 Y28.2110
N10655 G1 X48.5855 Y28.4925
N10660 G1 X48.5945 Y28.5000
N10665 G1 X48.9155 Y28.7720
N10670 G1 X48.9245 Y28.7795
N10675 G1 X49.0070 Y28.8455
N10680 G1 Z-3.5000 F1000
N10685 G1 X49.2490 Y29.0405 F2000
N10690 G1 X49.2575 Y29.0475
N10695 G1 X49.5835 Y29.2985
N10700 G1 X49.5925 Y29.3050
N10705 G1 X49.9190 Y29.5450
N10710 G1 X49.9275 Y29.5510
N10715 G1 X50.2540 Y29.7805
N10720 G1 X50.2625 Y29.7865
N10725 G1 X50.5875 Y30.0050
N10730 G1 X50.5950 Y30.0100
N10735 G1 X50.9170 Y30.2185
N10740 G1 X50.9250 Y30.2235
N10745 G1 X51.2440 Y30.4215
N10750 G1 X51.2510 Y30.4260
N10755 G1 X51.5655 Y30.6140
N10760 G1 X51.5725 Y30.6180
N10765 G1 X51.8825 Y30.7965
N10770 G1 X51.8885 Y30.8000
N10775 G1 X52.1920 Y30.9690
N10780 G1 X52.1980 Y30.9725
N10785 G1 X52.4955 Y31.1330
N10790 G1 X52.5020 Y31.1360
N10795 G1 X52.7935 Y31.2880
N10800 G1 X52.7980 Y31.2905
N10805 G1 X53.0820 Y31.4350
N10810 G1 X53.0875 Y31.4375
N10815 G1 X53.3655 Y31.5745
N10820 G1 X53.3695 Y31.5765
N10825 G1 X53.6405 Y31.7070
N10830 G1 X53.6450 Y31.7095
N10835 G1 X53.9100 Y31.8335
N10840 G1 X53.9140 Y31.8355
N10845 G1 X54.1730 Y31.9545
N10850 G1 X54.1770 Y31.9560
N10855 G1 X54.4310 Y32.0700
N10860 G1 X54.4345 Y32.0715
N10865 G1 X54.6840 Y32.1810
N10870 G1 X54.6875 Y32.1825
N10875 G1 X54.9330 Y32.2880
N10880 G1 X54.9390 Y32.2910
N10885 G1 X55.4235 Y32.4915
N10890 G1 X55.4325 Y32.4950
N10895 G1 X55.9145 Y32.6840
N10900 G1 X55.9255 Y32.6885
N10905 G1 X56.4155 Y32.8670
N10910 G1 X56.4265 Y32.8710
N10915 G1 X56.6785 Y32.9565
N10920 G1 X56.6865 Y32.9590
N10925 G1 X56.9445 Y33.0415
N10930 G1 X56.9540 Y33.0445
N10935 G1 X57.2200 Y33.1235
N10940 G1 X57.2300 Y33.1265
N10945 G1 X57.5050 Y33.2025
N10950 G1 X57.5160 Y33.2050
N10955 G1 X57.8010 Y33.2770
N10960 G1 X57.8120 Y33.2795
N10965 G1 X58.1080 Y33.3470
N10970 G1 X58.1195 Y33.3495
N10975 G1 X58.4265 Y33.4120
N10980 G1 X58.4385 Y33.4140
N10985 G1 X58.7565 Y33.4705
N10990 G1 X58.7680 Y33.4725
N10995 G1 X58.9980 Y33.5080
N11000 G1 X58.7680 Y33.5430
N11005 G1 X58.7565 Y33.5450
N11010 G1 X58.4385 Y33.6020
N11015 G1 X58.4265 Y33.6040
N11020 G1 X58.1195 Y33.6665
N11025 G1 X58.1080 Y33.6690
N11030 G1 X57.8120 Y33.7360
N11035 G1 X57.8010 Y33.7390
N11040 G1 X57.5160 Y33.8105
N11045 G1 X57.5050 Y33.8135
N11050 G1 X57.2300 Y33.8895
N11055 G1 X57.2200 Y33.8920
N11060 G1 X56.9540 Y33.9715
N11065 G1 X56.9445 Y33.9745
N11070 G1 X56.6865 Y34.0570
N11075 G1 X56.6785 Y34.0595
N11080 G1 X56.4265 Y34.1450
N11085 G1 X56.4155 Y34.1490
N11090 G1 X55.9255 Y34.3275
N11095 G1 X55.9145 Y34.3315
N11100 G1 X55.4325 Y34.5210
N11105 G1 X55.4235 Y34.5245
N11110 G1 X54.9390 Y34.7250
N11115 G1 X54.9330 Y34.7275
N11120 G1 X54.6875 Y34.8330
N11125 G1 X54.6840 Y34.8345
N11130 G1 X54.4345 Y34.9440
N11135 G1 X54.4310 Y34.9460
N11140 G1 X54.1770 Y35.0600
N11145 G1 X54.1730 Y35.0615
N11150 G1 X53.9140 Y35.1805
N11155 G1 X53.9100 Y35.1820
N11160 G1 X53.6450 Y35.3065
N11165 G1 X53.6405 Y35.3085
N11170 G1 X53.3695 Y35.4390
N11175 G1 X53.3655 Y35.4410
N11180 G1 X53.0875 Y35.5785
N11185 G1 X53.0820 Y35.5810
N11190 G1 X52.7980 Y35.7255
N11195 G1 X52.7930 Y35.7280
N11200 G1 X52.5015 Y35.8800
N11205 G1 X52.4960 Y35.8830
N11210 G1 X52.1985 Y36.0435
N11215 G1 X52.1920 Y36.0465
N11220 G1 X51.8885 Y36.2160
N11225 G1 X51.8825 Y36.2195
N11230 G1 X51.5725 Y36.3975
N11235 G1 X51.5655 Y36.4020
N11240 G1 X51.2510 Y36.5900
N11245 G1 X51.2440 Y36.5945
N11250 G1 X50.9250 Y36.7925
N11255 G1 X50.9170 Y36.7975
N11260 G1 X50.5950 Y37.0055
N11265 G1 X50.5875 Y37.0105
N11270 G1 X50.2625 Y37.2295
N11275 G1 X50.2540 Y37.2350
N11280 G1 X49.9275 Y37.4645
N11285 G1 X49.9190 Y37.4710
N11290 G1 X49.5925 Y37.7110
N11295 G1 X49.5835 Y37.7175
N11300 G1 X49.2575 Y37.9685
N11305 G1 X49.2485 Y37.9755
N11310 G1 X48.9245 Y38.2365
N11315 G1 X48.9155 Y38.2440
N11320 G1 X48.5945 Y38.5155
N11325 G1 X48.5855 Y38.5235
N11330 G1 X48.2685 Y38.8050
N11335 G1 X48.2595 Y38.8135
N11340 G1 X47.9480 Y39.1040
N11345 G1 X47.9390 Y39.1130
N11350 G1 X47.6330 Y39.4125
N11355 G1 X47.6245 Y39.4215
N11360 G1 X47.3260 Y39.7295
N11365 G1 X47.3175 Y39.7385
N11370 G1 X47.3070 Y39.7500
N11375 G1 Z-2.0000
N11380 G1 X47.0265 Y40.0540
N11385 G1 X47.0185 Y40.0630
N11390 G1 X46.7365 Y40.3845
N11395 G1 X46.7285 Y40.3940
N11400 G1 X46.4555 Y40.7210
N11405 G1 X46.4485 Y40.7300
N11410 G1 X46.1850 Y41.0605
N11415 G1 X46.1785 Y41.0690
N11420 G1 X46.0185 Y41.2795
N11425 G1 Z-3.5000 F1000
N11430 G1 X45.9250 Y41.4025 F2000
N11435 G1 X45.9190 Y41.4105
N11440 G1 X45.6750 Y41.7445
N11445 G1 X45.6695 Y41.7520
N11450 G1 X45.4360 Y42.0855
N11455 G1 X45.4310 Y42.0925
N11460 G1 X45.2070 Y42.4240
N11465 G1 X45.2025 Y42.4310
N11470 G1 X44.9885 Y42.7590
N11475 G1 X44.9845 Y42.7660
N11480 G1 X44.7805 Y43.0905
N11485 G1 X44.7765 Y43.0970
N11490 G1 X44.5830 Y43.4165
N11495 G1 X44.5785 Y43.4235
N11500 G1 X44.3955 Y43.7365
N11505 G1 X44.3915 Y43.7440
N11510 G1 X44.2190 Y44.0515
N11515 G1 X44.2145 Y44.0590
N11520 G1 X44.0525 Y44.3595
N11525 G1 X44.0485 Y44.3675
N11530 G1 X43.8970 Y44.6610
N11535 G1 X43.8925 Y44.6700
N11540 G1 X43.7515 Y44.9565
N11545 G1 X43.7470 Y44.9655
N11550 G1 X43.6165 Y45.2450
N11555 G1 X43.6120 Y45.2545
N11560 G1 X43.4920 Y45.5270
N11565 G1 X43.4875 Y45.5375
N11570 G1 X43.3775 Y45.8030
N11575 G1 X43.3730 Y45.8135
N11580 G1 X43.2725 Y46.0725
N11585 G1 X43.2685 Y46.0835
N11590 G1 X43.1770 Y46.3360
N11595 G1 X43.1735 Y46.3470
N11600 G1 X43.0910 Y46.5935
N11605 G1 X43.0870 Y46.6050
N11610 G1 X43.0125 Y46.8460
N11615 G1 X43.0095 Y46.8565
N11620 G1 X42.9420 Y47.0925
N11625 G1 X42.9395 Y47.1025
N11630 G1 X42.8785 Y47.3345
N11635 G1 X42.8765 Y47.3425
N11640 G1 X42.8205 Y47.5710
N11645 G1 X42.8190 Y47.5775
N11650 G1 X42.7670 Y47.8025
N11655 G1 X42.7655 Y47.8090
N11660 G1 X42.6705 Y48.2500
N11665 G1 X42.6700 Y48.2525
N11670 G1 X42.5800 Y48.6795
N11675 G1 X42.4890 Y49.0885
N11680 G1 X42.4425 Y49.2815
N11685 G1 X42.3945 Y49.4670
N11690 G1 X42.3450 Y49.6425
N11695 G1 X42.2950 Y49.8055
N11700 G1 X42.2440 Y49.9540
N11705 G1 X42.1940 Y50.0855
N11710 G1 X42.1450 Y50.1975
N11715 G1 X42.0985 Y50.2890
N11720 G1 X42.0545 Y50.3615
N11725 G1 X42.0140 Y50.4180
N11730 G1 X41.9725 Y50.4650
N11735 G1 X41.9230 Y50.5120
N11740 G1 X41.8585 Y50.5660
N11745 G1 X41.7755 Y50.6295
N11750 G1 X41.6730 Y50.7050
N11755 G1 X41.5555 Y50.7905
N11760 G1 X41.5545 Y50.7915
N11765 G1 X41.4235 Y50.8875
N11770 G1 X41.4220 Y50.8885
N11775 G1 X41.2805 Y50.9930
N11780 G1 X41.1325 Y51.1015
N11785 G1 X40.9820 Y51.2080
N11790 G1 X40.8355 Y51.3050
N11795 G1 X40.6955 Y51.3870
N11800 G1 X40.6375 Y51.4170
N11805 G1 X40.5820 Y51.4425
N11810 G1 X40.5365 Y51.4600
N11815 G1 X40.5010 Y51.4705
N11820 G1 X40.4945 Y51.4720
N11825 G1 X40.4875 Y51.4605
N11830 G1 X40.4685 Y51.4240
N11835 G1 X40.4485 Y51.3760
N11840 G1 X40.4275 Y51.3180
N11845 G1 X40.4080 Y51.2540
N11850 G1 X40.3685 Y51.0925
N11855 G1 X40.3350 Y50.9160
N11860 G1 X40.3045 Y50.7280
N11865 G1 X40.2765 Y50.5355
N11870 G1 X40.2495 Y50.3470
N11875 G1 X40.2485 Y50.3420
N11880 G1 X40.2210 Y50.1620
N11885 G1 X40.2190 Y50.1525
N11890 G1 X40.1895 Y49.9825
N11895 G1 X40.1870 Y49.9700
N11900 G1 X40.1550 Y49.8080
N11905 G1 X40.1520 Y49.7945
N11910 G1 X40.1160 Y49.6385
N11915 G1 X40.1115 Y49.6200
N11920 G1 X40.0285 Y49.3135
N11925 G1 X40.0250 Y49.3010
N11930 G1 X39.9775 Y49.1430
N11935 G1 X39.9770 Y49.1400
N11940 G1 X39.9260 Y48.9730
N11945 G1 X39.8720 Y48.7960
N11950 G1 X39.8155 Y48.6065
N11955 G1 X39.7555 Y48.4015
N11960 G1 X39.6930 Y48.1800
N11965 G1 X39.6275 Y47.9415
N11970 G1 X39.5595 Y47.6860
N11975 G1 X39.4885 Y47.4140
N11980 G1 X39.4150 Y47.1275
N11985 G1 X39.3395 Y46.8280
N11990 G1 X39.2615 Y46.5180
N11995 G1 X39.1820 Y46.1995
N12000 G1 X39.1005 Y45.8750
N12005 G1 X39.1000 Y45.8740
N12010 G1 X39.0330 Y45.6090
N12015 G1 Z-2.0000
N12020 G1 X38.9345 Y45.2185
N12025 G1 X38.9340 Y45.2160
N12030 G1 X38.7660 Y44.5670
N12035 G1 X38.7655 Y44.5645
N12040 G1 X38.6820 Y44.2475
N12045 G1 Y44.2460
N12050 G1 X38.5990 Y43.9360
N12055 G1 Y43.9345
N12060 G1 X38.5285 Y43.6735
N12065 G1 Z-3.5000 F1000
N12070 G1 X38.5175 Y43.6325 F2000
N12075 G1 Y43.6320
N12080 G1 X38.4385 Y43.3390
N12085 G1 X38.3615 Y43.0560
N12090 G1 X38.2880 Y42.7840
N12095 G1 X38.2180 Y42.5240
N12100 G1 X38.1520 Y42.2755
N12105 G1 X38.0900 Y42.0390
N12110 G1 X38.0320 Y41.8140
N12115 G1 X37.9790 Y41.6000
N12120 G1 X37.9295 Y41.3970
N12125 G1 X37.8840 Y41.2035
N12130 G1 X37.8415 Y41.0185
N12135 G1 X37.8015 Y40.8415
N12140 G1 X37.7635 Y40.6710
N12145 G1 X37.7630 Y40.6700
N12150 G1 X37.7260 Y40.5065
N12155 G1 X37.7255 Y40.5035
N12160 G1 X37.6885 Y40.3465
N12165 G1 X37.6870 Y40.3400
N12170 G1 X37.6130 Y40.0405
N12175 G1 X37.6105 Y40.0315
N12180 G1 X37.4590 Y39.4645
N12185 G1 X37.4275 Y39.3330
N12190 G1 X37.4005 Y39.2025
N12195 G1 X37.3800 Y39.0730
N12200 G1 X37.3660 Y38.9425
N12205 G1 X37.3600 Y38.8100
N12210 G1 X37.3630 Y38.6745
N12215 G1 X37.3755 Y38.5355
N12220 G1 X37.3985 Y38.3940
N12225 G1 X37.4315 Y38.2530
N12230 G1 X37.4740 Y38.1145
N12235 G1 X37.5255 Y37.9835
N12240 G1 X37.5835 Y37.8630
N12245 G1 X37.6460 Y37.7580
N12250 G1 X37.7100 Y37.6705
N12255 G1 X37.7770 Y37.5965
N12260 G1 X37.8010 Y37.5745
N12265 G1 X37.8220 Y37.5570
N12270 G1 X37.8810 Y37.5185
N12275 G1 X37.9305 Y37.4960
N12280 G1 X37.9815 Y37.4805
N12285 G1 X38.0390 Y37.4710
N12290 G1 X38.1050 Y37.4675
N12295 G1 X38.1790 Y37.4715
N12300 G1 X38.2590 Y37.4820
N12305 G1 X38.3425 Y37.5000
N12310 G1 X38.4255 Y37.5250
N12315 G1 X38.5075 Y37.5560
N12320 G1 X38.5880 Y37.5945
N12325 G1 X38.6670 Y37.6410
N12330 G1 X38.7475 Y37.6975
N12335 G1 X38.8295 Y37.7660
N12340 G1 X38.9140 Y37.8480
N12345 G1 X39.0015 Y37.9440
N12350 G1 X39.0915 Y38.0535
N12355 G1 X39.1820 Y38.1725
N12360 G1 X39.3720 Y38.4385
N12365 G1 X39.4655 Y38.5700
N12370 G1 X39.4720 Y38.5785
N12375 G1 X39.5640 Y38.7025
N12380 G1 X39.5775 Y38.7195
N12385 G1 X39.6685 Y38.8315
N12390 G1 X39.6925 Y38.8590
N12395 G1 X39.7835 Y38.9555
N12400 G1 X39.8235 Y38.9935
N12405 G1 X39.8915 Y39.0515
N12410 G1 Z-2.0000
N12415 G1 X39.9155 Y39.0720
N12420 G1 X39.9610 Y39.1060
N12425 G1 X40.0080 Y39.1375
N12430 G1 X40.0470 Y39.1610
N12435 G1 X40.0945 Y39.1870
N12440 G1 X40.1420 Y39.2100
N12445 G1 X40.1905 Y39.2300
N12450 G1 X40.2445 Y39.2490
N12455 G1 X40.2940 Y39.2630
N12460 G1 X40.3525 Y39.2760
N12465 G1 X40.4030 Y39.2840
N12470 G1 X40.4635 Y39.2900
N12475 G1 X40.5150 Y39.2920
N12480 G1 X40.5740 Y39.2905
N12485 G1 X40.6270 Y39.2860
N12490 G1 X40.6810 Y39.2785
N12495 G1 X40.7355 Y39.2680
N12500 G1 X40.7830 Y39.2565
N12505 G1 X40.8390 Y39.2400
N12510 G1 X40.8795 Y39.2260
N12515 G1 X40.9370 Y39.2035
N12520 G1 X40.9710 Y39.1885
N12525 G1 X41.0300 Y39.1600
N12530 G1 X41.0570 Y39.1460
N12535 G1 X41.1175 Y39.1120
N12540 G1 X41.1495 Y39.0925
N12545 G1 X41.2740 Y39.0095
N12550 G1 X41.3045 Y38.9880
N12555 G1 X41.4335 Y38.8875
N12560 G1 X41.4540 Y38.8705
N12565 G1 X41.5865 Y38.7560
N12570 G1 X41.6000 Y38.7440
N12575 G1 X41.7345 Y38.6185
N12580 G1 X41.7440 Y38.6095
N12585 G1 X41.8670 Y38.4885
N12590 G1 Z-3.5000 F1000
N12595 G1 X41.8790 Y38.4770 F2000
N12600 G1 X41.8890 Y38.4670
N12605 G1 X42.1505 Y38.1950
N12610 G1 X42.1595 Y38.1855
N12615 G1 X42.2820 Y38.0510
N12620 G1 X42.2900 Y38.0420
N12625 G1 X42.4035 Y37.9110
N12630 G1 X42.4150 Y37.8975
N12635 G1 X42.5175 Y37.7705
N12640 G1 X42.5340 Y37.7495
N12645 G1 X42.6235 Y37.6260
N12650 G1 X42.6445 Y37.5945
N12655 G1 X42.7185 Y37.4735
N12660 G1 X42.7435 Y37.4280
N12665 G1 X42.8010 Y37.3080
N12670 G1 X42.8140 Y37.2780
N12675 G1 X42.8255 Y37.2475
N12680 G1 X42.8645 Y37.1270
N12685 G1 X42.8750 Y37.0910
N12690 G1 X42.8825 Y37.0545
N12695 G1 X42.9030 Y36.9325
N12700 G1 X42.9080 Y36.8935
N12705 G1 X42.9100 Y36.8550
N12710 G1 X42.9110 Y36.7300
N12715 G1 X42.9105 Y36.6940
N12720 G1 X42.9065 Y36.6580
N12725 G1 X42.8895 Y36.5295
N12730 G1 X42.8775 Y36.4685
N12735 G1 X42.8425 Y36.3365
N12740 G1 X42.8275 Y36.2890
N12745 G1 X42.7770 Y36.1535
N12750 G1 X42.7615 Y36.1165
N12755 G1 X42.6970 Y35.9785
N12760 G1 X42.6830 Y35.9510
N12765 G1 X42.6070 Y35.8115
N12770 G1 X42.5945 Y35.7900
N12775 G1 X42.5090 Y35.6505
N12780 G1 X42.4980 Y35.6330
N12785 G1 X42.4055 Y35.4945
N12790 G1 X42.3955 Y35.4800
N12795 G1 X42.2970 Y35.3435
N12800 G1 X42.2875 Y35.3305
N12805 G1 X42.1845 Y35.1970
N12810 G1 X42.1745 Y35.1845
N12815 G1 X42.0675 Y35.0545
N12820 G1 X42.0570 Y35.0420
N12825 G1 X41.9455 Y34.9155
N12830 G1 X41.9335 Y34.9025
N12835 G1 X41.8175 Y34.7795
N12840 G1 X41.8045 Y34.7665
N12845 G1 X41.6835 Y34.6470
N12850 G1 X41.6690 Y34.6335
N12855 G1 X41.5415 Y34.5180
N12860 G1 X41.5265 Y34.5050
N12865 G1 X41.3920 Y34.3925
N12870 G1 X41.3770 Y34.3800
N12875 G1 X41.2350 Y34.2705
N12880 G1 X41.2205 Y34.2595
N12885 G1 X41.0715 Y34.1530
N12890 G1 X41.0570 Y34.1430
N12895 G1 X40.9015 Y34.0395
N12900 G1 X40.8885 Y34.0310
N12905 G1 X40.7275 Y33.9315
N12910 G1 X40.7150 Y33.9240
N12915 G1 X40.5515 Y33.8290
N12920 G1 X40.5400 Y33.8225
N12925 G1 X40.3760 Y33.7330
N12930 G1 X40.3650 Y33.7270
N12935 G1 X40.2035 Y33.6440
N12940 G1 X40.1925 Y33.6385
N12945 G1 X40.0365 Y33.5630
N12950 G1 X40.0250 Y33.5580
N12955 G1 X39.9150 Y33.5080
N12960 G1 X40.0250 Y33.4580
N12965 G1 X40.0365 Y33.4525
N12970 G1 X40.1925 Y33.3775
N12975 G1 X40.2035 Y33.3720
N12980 G1 X40.3650 Y33.2890
N12985 G1 X40.3760 Y33.2830
N12990 G1 X40.5400 Y33.1935
N12995 G1 X40.5515 Y33.1870
N13000 G1 X40.7155 Y33.0915
N13005 G1 X40.7275 Y33.0845
N13010 G1 X40.8885 Y32.9845
N13015 G1 X40.9015 Y32.9760
N13020 G1 X41.0570 Y32.8730
N13025 G1 X41.0715 Y32.8630
N13030 G1 X41.2205 Y32.7565
N13035 G1 X41.2350 Y32.7455
N13040 G1 X41.3770 Y32.6355
N13045 G1 X41.3920 Y32.6235
N13050 G1 X41.5265 Y32.5110
N13055 G1 X41.5415 Y32.4980
N13060 G1 X41.6690 Y32.3820
N13065 G1 X41.6835 Y32.3685
N13070 G1 X41.8045 Y32.2495
N13075 G1 X41.8175 Y32.2360
N13080 G1 X41.9335 Y32.1135
N13085 G1 X41.9455 Y32.1005
N13090 G1 X42.0565 Y31.9740
N13095 G1 X42.0675 Y31.9615
N13100 G1 X42.1745 Y31.8315
N13105 G1 X42.1845 Y31.8190
N13110 G1 X42.2875 Y31.6855
N13115 G1 X42.2970 Y31.6725
N13120 G1 X42.3955 Y31.5355
N13125 G1 X42.4055 Y31.5215
N13130 G1 X42.4980 Y31.3830
N13135 G1 X42.5090 Y31.3655
N13140 G1 X42.5945 Y31.2260
N13145 G1 X42.6070 Y31.2045
N13150 G1 X42.6830 Y31.0650
N13155 G1 X42.6970 Y31.0370
N13160 G1 X42.7615 Y30.8990
N13165 G1 X42.7770 Y30.8625
N13170 G1 X42.8275 Y30.7270
N13175 G1 X42.8425 Y30.6795
N13180 G1 X42.8775 Y30.5470
N13185 G1 X42.8895 Y30.4865
N13190 G1 X42.9065 Y30.3580
N13195 G1 X42.9105 Y30.3220
N13200 G1 X42.9110 Y30.2860
N13205 G1 X42.9100 Y30.1610
N13210 G1 X42.9080 Y30.1220
N13215 G1 X42.9030 Y30.0835
N13220 G1 X42.8825 Y29.9615
N13225 G1 X42.8750 Y29.9250
N13230 G1 X42.8645 Y29.8885
N13235 G1 X42.8255 Y29.7685
N13240 G1 X42.8140 Y29.7380
N13245 G1 X42.8010 Y29.7080
N13250 G1 X42.7435 Y29.5880
N13255 G1 X42.7185 Y29.5425
N13260 G1 X42.6445 Y29.4215
N13265 G1 X42.6235 Y29.3900
N13270 G1 X42.5340 Y29.2665
N13275 G1 X42.5175 Y29.2450
N13280 G1 X42.4150 Y29.1180
N13285 G1 X42.4035 Y29.1045
N13290 G1 X42.2900 Y28.9740
N13295 G1 X42.2820 Y28.9650
N13300 G1 X42.1595 Y28.8305
N13305 G1 X42.1505 Y28.8210
N13310 G1 X41.8890 Y28.5490
N13315 G1 X41.8790 Y28.5390
N13320 G1 X41.7440 Y28.4065
N13325 G1 X41.7355 Y28.3980
N13330 G1 Z-2.0000
N13335 G1 X41.7345 Y28.3975
N13340 G1 X41.6000 Y28.2720
N13345 G1 X41.5865 Y28.2600
N13350 G1 X41.4540 Y28.1450
N13355 G1 X41.4335 Y28.1285
N13360 G1 X41.3045 Y28.0280
N13365 G1 X41.2740 Y28.0065
N13370 G1 X41.1495 Y27.9235
N13375 G1 X41.1175 Y27.9040
N13380 G1 X41.0570 Y27.8700
N13385 G1 X41.0295 Y27.8555
N13390 G1 X40.9705 Y27.8275
N13395 G1 X40.9370 Y27.8125
N13400 G1 X40.8800 Y27.7900
N13405 G1 X40.8390 Y27.7760
N13410 G1 X40.7830 Y27.7595
N13415 G1 X40.7355 Y27.7475
N13420 G1 X40.6810 Y27.7370
N13425 G1 X40.6265 Y27.7295
N13430 G1 X40.5740 Y27.7255
N13435 G1 X40.5155 Y27.7240
N13440 G1 X40.4640 Y27.7260
N13445 G1 X40.4030 Y27.7320
N13450 G1 X40.3525 Y27.7400
N13455 G1 X40.2940 Y27.7530
N13460 G1 X40.2445 Y27.7670
N13465 G1 X40.1900 Y27.7860
N13470 G1 X40.1415 Y27.8065
N13475 G1 X40.0950 Y27.8285
N13480 G1 X40.0475 Y27.8545
N13485 G1 X40.0080 Y27.8785
N13490 G1 X39.9610 Y27.9095
N13495 G1 X39.9155 Y27.9440
N13500 G1 X39.8235 Y28.0225
N13505 G1 X39.7835 Y28.0605
N13510 G1 X39.6925 Y28.1570
N13515 G1 X39.6835 Y28.1670
N13520 G1 Z-3.5000 F1000
N13525 G1 X39.6685 Y28.1845 F2000
N13530 G1 X39.5775 Y28.2965
N13535 G1 X39.5640 Y28.3135
N13540 G1 X39.4720 Y28.4375
N13545 G1 X39.4655 Y28.4460
N13550 G1 X39.3720 Y28.5775
N13555 G1 X39.1820 Y28.8430
N13560 G1 X39.0915 Y28.9625
N13565 G1 X39.0015 Y29.0720
N13570 G1 X38.9140 Y29.1680
N13575 G1 X38.8295 Y29.2500
N13580 G1 X38.7475 Y29.3185
N13585 G1 X38.6670 Y29.3750
N13590 G1 X38.5875 Y29.4215
N13595 G1 X38.5075 Y29.4600
N13600 G1 X38.4260 Y29.4910
N13605 G1 X38.3425 Y29.5155
N13610 G1 X38.2590 Y29.5335
N13615 G1 X38.1790 Y29.5445
N13620 G1 X38.1050 Y29.5485
N13625 G1 X38.0390 Y29.5450
N13630 G1 X37.9815 Y29.5355
N13635 G1 X37.9305 Y29.5200
N13640 G1 X37.8810 Y29.4970
N13645 G1 X37.8220 Y29.4585
N13650 G1 X37.8010 Y29.4415
N13655 G1 X37.7770 Y29.4195
N13660 G1 X37.7100 Y29.3455
N13665 G1 X37.6460 Y29.2580
N13670 G1 X37.5835 Y29.1525
N13675 G1 X37.5255 Y29.0325
N13680 G1 X37.4740 Y28.9010
N13685 G1 X37.4315 Y28.7630
N13690 G1 X37.3985 Y28.6215
N13695 G1 X37.3755 Y28.4805
N13700 G1 X37.3630 Y28.3415
N13705 G1 X37.3600 Y28.2060
N13710 G1 X37.3660 Y28.0735
N13715 G1 X37.3800 Y27.9430
N13720 G1 X37.4005 Y27.8135
N13725 G1 X37.4275 Y27.6830
N13730 G1 X37.4590 Y27.5515
N13735 G1 X37.6105 Y26.9840
N13740 G1 X37.6130 Y26.9755
N13745 G1 X37.6870 Y26.6760
N13750 G1 X37.6885 Y26.6690
N13755 G1 X37.7255 Y26.5120
N13760 G1 X37.7260 Y26.5090
N13765 G1 X37.7630 Y26.3460
N13770 G1 X37.7635 Y26.3450
N13775 G1 X37.8015 Y26.1745
N13780 G1 X37.8415 Y25.9970
N13785 G1 X37.8840 Y25.8125
N13790 G1 X37.9295 Y25.6190
N13795 G1 X37.9790 Y25.4155
N13800 G1 X38.0320 Y25.2020
N13805 G1 X38.0900 Y24.9770
N13810 G1 X38.1520 Y24.7405
N13815 G1 X38.2180 Y24.4920
N13820 G1 X38.2880 Y24.2315
N13825 G1 X38.3615 Y23.9600
N13830 G1 X38.4385 Y23.6775
N13835 G1 X38.5025 Y23.4395
N13840 G1 Z-2.0000
N13845 G1 X38.5175 Y23.3840
N13850 G1 Y23.3830
N13855 G1 X38.5990 Y23.0810
N13860 G1 Y23.0800
N13865 G1 X38.6820 Y22.7700
N13870 G1 Y22.7685
N13875 G1 X38.7655 Y22.4510
N13880 G1 X38.7660 Y22.4490
N13885 G1 X38.9340 Y21.8000
N13890 G1 X38.9345 Y21.7975
N13895 G1 X39.0085 Y21.5045
N13900 G1 Z-3.5000 F1000
N13905 G1 X39.1000 Y21.1420 F2000
N13910 G1 X39.1005 Y21.1410
N13915 G1 X39.1815 Y20.8165
N13920 G1 X39.2615 Y20.4980
N13925 G1 X39.3395 Y20.1875
N13930 G1 X39.4150 Y19.8885
N13935 G1 X39.4885 Y19.6020
N13940 G1 X39.5595 Y19.3300
N13945 G1 X39.6275 Y19.0745
N13950 G1 X39.6930 Y18.8355
N13955 G1 X39.7555 Y18.6145
N13960 G1 X39.8155 Y18.4095
N13965 G1 X39.8720 Y18.2200
N13970 G1 X39.9260 Y18.0425
N13975 G1 X39.9770 Y17.8760
N13980 G1 X39.9775 Y17.8730
N13985 G1 X40.0250 Y17.7145
N13990 G1 X40.0285 Y17.7025
N13995 G1 X40.1115 Y17.3960
N14000 G1 X40.1160 Y17.3775
N14005 G1 X40.1520 Y17.2215
N14010 G1 X40.1545 Y17.2080
N14015 G1 X40.1870 Y17.0460
N14020 G1 X40.1895 Y17.0335
N14025 G1 X40.2195 Y16.8630
N14030 G1 X40.2210 Y16.8540
N14035 G1 X40.2485 Y16.6740
N14040 G1 X40.2495 Y16.6690
N14045 G1 X40.2765 Y16.4800
N14050 G1 X40.3045 Y16.2880
N14055 G1 X40.3350 Y16.0995
N14060 G1 X40.3685 Y15.9235
N14065 G1 X40.4080 Y15.7615
N14070 G1 X40.4275 Y15.6980
N14075 G1 X40.4485 Y15.6395
N14080 G1 X40.4685 Y15.5920
N14085 G1 X40.4870 Y15.5560
N14090 G1 X40.4945 Y15.5440
N14095 G1 X40.5000 Y15.5450
N14100 G1 X40.5365 Y15.5560
N14105 G1 X40.5830 Y15.5740
N14110 G1 X40.6375 Y15.5985
N14115 G1 X40.6950 Y15.6285
N14120 G1 X40.8360 Y15.7115
N14125 G1 X40.9820 Y15.8080
N14130 G1 X41.1325 Y15.9145
N14135 G1 X41.2805 Y16.0230
N14140 G1 X41.4225 Y16.1275
N14145 G1 X41.4230 Y16.1280
N14150 G1 X41.5540 Y16.2245
N14155 G1 X41.5555 Y16.2255
N14160 G1 X41.6735 Y16.3115
N14165 G1 X41.7755 Y16.3865
N14170 G1 X41.8585 Y16.4500
N14175 G1 X41.9230 Y16.5035
N14180 G1 X41.9725 Y16.5505
N14185 G1 X42.0140 Y16.5985
N14190 G1 X42.0550 Y16.6545
N14195 G1 X42.0985 Y16.7270
N14200 G1 X42.1450 Y16.8185
N14205 G1 X42.1940 Y16.9305
N14210 G1 X42.2440 Y17.0620
N14215 G1 X42.2950 Y17.2105
N14220 G1 X42.3450 Y17.3735
N14225 G1 X42.3945 Y17.5490
N14230 G1 X42.4425 Y17.7345
N14235 G1 X42.4890 Y17.9270
N14240 G1 X42.5800 Y18.3365
N14245 G1 X42.6700 Y18.7635
N14250 G1 X42.6705 Y18.7660
N14255 G1 X42.7655 Y19.2065
N14260 G1 X42.7670 Y19.2135
N14265 G1 X42.8190 Y19.4380
N14270 G1 X42.8205 Y19.4450
N14275 G1 X42.8765 Y19.6730
N14280 G1 X42.8785 Y19.6815
N14285 G1 X42.9395 Y19.9135
N14290 G1 X42.9420 Y19.9230
N14295 G1 X43.0095 Y20.1595
N14300 G1 X43.0125 Y20.1700
N14305 G1 X43.0870 Y20.4110
N14310 G1 X43.0910 Y20.4220
N14315 G1 X43.1735 Y20.6690
N14320 G1 X43.1770 Y20.6800
N14325 G1 X43.2685 Y20.9325
N14330 G1 X43.2725 Y20.9435
N14335 G1 X43.3730 Y21.2025
N14340 G1 X43.3775 Y21.2130
N14345 G1 X43.4875 Y21.4785
N14350 G1 X43.4920 Y21.4890
N14355 G1 X43.6120 Y21.7610
N14360 G1 X43.6165 Y21.7710
N14365 G1 X43.7470 Y22.0505
N14370 G1 X43.7515 Y22.0595
N14375 G1 X43.8925 Y22.3460
N14380 G1 X43.8970 Y22.3545
N14385 G1 X44.0485 Y22.6485
N14390 G1 X44.0525 Y22.6565
N14395 G1 X44.2145 Y22.9570
N14400 G1 X44.2190 Y22.9645
N14405 G1 X44.2795 Y23.0730
N14410 G0 Z10.0000
N14415 G0 X57.4560 Y22.2800
N14420 G0 Z5.0000
N14425 G1 Z0.4000 F1000
N14430 G1 Z-1.1670
N14435 G1 X57.5135 Y22.3110 F2000
N14440 G1 X57.6750 Y22.3985
N14445 G1 X57.8315 Y22.4830
N14450 G1 X57.8325 Y22.4835
N14455 G1 X58.1315 Y22.6440
N14460 G1 X58.1335 Y22.6455
N14465 G1 X58.7145 Y22.9540
N14470 G1 X59.0010 Y23.1100
N14475 G1 X59.2835 Y23.2740
N14480 G1 X59.5615 Y23.4495
N14485 G1 X59.8335 Y23.6385
N14490 G1 X60.0970 Y23.8420
N14495 G1 X60.3520 Y24.0575
N14500 G1 X60.5975 Y24.2805
N14505 G1 X60.8315 Y24.5060
N14510 G1 X61.0520 Y24.7280
N14515 G1 X61.2565 Y24.9430
N14520 G1 X61.4420 Y25.1510
N14525 G1 X61.6125 Y25.3595
N14530 G1 X61.6875 Y25.4605
N14535 G1 X61.7610 Y25.5665
N14540 G1 X61.8305 Y25.6760
N14545 G1 X61.8975 Y25.7905
N14550 G1 X61.9620 Y25.9115
N14555 G1 X62.0245 Y26.0390
N14560 G1 X62.0850 Y26.1730
N14565 G1 X62.1420 Y26.3095
N14570 G1 X62.2525 Y26.6080
N14575 G1 X62.3515 Y26.9135
N14580 G1 X62.4390 Y27.2190
N14585 G1 X62.4765 Y27.3655
N14590 G1 X62.5115 Y27.5095
N14595 G1 X62.5415 Y27.6465
N14600 G1 X62.5675 Y27.7785
N14605 G1 X62.5890 Y27.9025
N14610 G1 X62.6055 Y28.0190
N14615 G1 X62.6175 Y28.1275
N14620 G1 X62.6240 Y28.2280
N14625 G1 X62.6260 Y28.3230
N14630 G1 X62.6235 Y28.4105
N14635 G1 X62.6165 Y28.4930
N14640 G1 X62.6055 Y28.5710
N14645 G1 X62.5900 Y28.6455
N14650 G1 X62.5705 Y28.7190
N14655 G1 X62.5475 Y28.7900
N14660 G1 X62.5200 Y28.8580
N14665 G1 X62.4885 Y28.9260
N14670 G1 X62.4540 Y28.9910
N14675 G1 X62.4160 Y29.0525
N14680 G1 X62.3750 Y29.1110
N14685 G1 X62.3305 Y29.1670
N14690 G1 X62.2835 Y29.2190
N14695 G1 X62.2335 Y29.2675
N14700 G1 X62.1790 Y29.3130
N14705 G1 X62.1195 Y29.3555
N14710 G1 X62.0545 Y29.3960
N14715 G1 X61.9815 Y29.4340
N14720 G1 X61.9010 Y29.4700
N14725 G1 X61.8120 Y29.5025
N14730 G1 X61.7135 Y29.5325
N14735 G1 X61.6065 Y29.5590
N14740 G1 X61.4915 Y29.5815
N14745 G1 X61.3700 Y29.6005
N14750 G1 X61.2410 Y29.6145
N14755 G1 X61.1070 Y29.6245
N14760 G1 X60.9685 Y29.6300
N14765 G1 X60.8260 Y29.6310
N14770 G1 X60.6825 Y29.6280
N14775 G1 X60.3785 Y29.6090
N14780 G1 X60.0670 Y29.5755
N14785 G1 X59.7440 Y29.5280
N14790 G1 X59.4080 Y29.4680
N14795 G1 X59.0575 Y29.3965
N14800 G1 X58.6915 Y29.3145
N14805 G1 X58.3105 Y29.2225
N14810 G1 X57.9155 Y29.1195
N14815 G1 X57.5070 Y29.0045
N14820 G1 X57.0885 Y28.8765
N14825 G1 X56.6615 Y28.7345
N14830 G1 X56.2290 Y28.5780
N14835 G1 X55.7950 Y28.4060
N14840 G1 X55.3625 Y28.2195
N14845 G1 X54.9350 Y28.0195
N14850 G1 X54.5165 Y27.8080
N14855 G1 X54.1100 Y27.5865
N14860 G1 X53.7180 Y27.3575
N14865 G1 X53.3425 Y27.1220
N14870 G1 X52.9825 Y26.8810
N14875 G1 X52.6385 Y26.6360
N14880 G1 X52.3075 Y26.3860
N14885 G1 X51.9870 Y26.1310
N14890 G1 X51.6740 Y25.8700
N14895 G1 X51.3670 Y25.6020
N14900 G1 X51.0625 Y25.3255
N14905 G1 X50.7610 Y25.0395
N14910 G1 X50.4610 Y24.7430
N14915 G1 X50.1645 Y24.4340
N14920 G1 X49.8715 Y24.1120
N14925 G1 X49.5835 Y23.7760
N14930 G1 X49.3030 Y23.4265
N14935 G1 X49.0315 Y23.0660
N14940 G1 X48.7715 Y22.6960
N14945 G1 X48.5255 Y22.3220
N14950 G1 X48.2950 Y21.9465
N14955 G1 X48.1875 Y21.7635
N14960 G1 X48.0840 Y21.5810
N14965 G1 X47.9855 Y21.4015
N14970 G1 X47.8920 Y21.2255
N14975 G1 X47.8035 Y21.0540
N14980 G1 X47.7195 Y20.8875
N14985 G1 X47.6405 Y20.7255
N14990 G1 X47.5655 Y20.5695
N14995 G1 X47.4950 Y20.4195
N15000 G1 X47.4285 Y20.2755
N15005 G1 X47.3650 Y20.1380
N15010 G1 X47.3050 Y20.0070
N15015 G1 X47.2480 Y19.8825
N15020 G1 X47.2475 Y19.8810
N15025 G1 X47.1935 Y19.7640
N15030 G1 X47.1925 Y19.7620
N15035 G1 X47.1410 Y19.6515
N15040 G1 X47.1395 Y19.6490
N15045 G1 X47.0905 Y19.5450
N15050 G1 X47.0890 Y19.5425
N15055 G1 X47.0420 Y19.4435
N15060 G1 X47.0410 Y19.4420
N15065 G1 X46.9955 Y19.3480
N15070 G1 X46.9105 Y19.1735
N15075 G1 X46.8345 Y19.0125
N15080 G1 X46.7665 Y18.8575
N15085 G1 X46.7035 Y18.6990
N15090 G1 X46.6440 Y18.5340
N15095 G1 X46.5275 Y18.1790
N15100 G1 X46.4740 Y18.0085
N15105 G1 X46.4530 Y17.9415
N15110 G1 X46.4710 Y17.9495
N15115 G1 X46.6660 Y18.0410
N15120 G1 X46.6710 Y18.0430
N15125 G1 X46.8855 Y18.1405
N15130 G1 X46.8965 Y18.1455
N15135 G1 X47.0120 Y18.1945
N15140 G1 X47.0215 Y18.1985
N15145 G1 X47.1455 Y18.2480
N15150 G1 X47.1540 Y18.2515
N15155 G1 X47.2880 Y18.3025
N15160 G1 X47.2960 Y18.3055
N15165 G1 X47.4425 Y18.3580
N15170 G1 X47.4490 Y18.3605
N15175 G1 X47.6100 Y18.4160
N15180 G1 X47.6150 Y18.4175
N15185 G1 X47.7930 Y18.4770
N15190 G1 X47.7950 Y18.4775
N15195 G1 X47.8910 Y18.5090
N15200 G1 X47.8925 Y18.5095
N15205 G1 X47.9935 Y18.5425
N15210 G1 X47.9940
N15215 G1 X48.1000 Y18.5770
N15220 G1 X48.1005
N15225 G1 X48.2115 Y18.6130
N15230 G1 X48.3280 Y18.6505
N15235 G1 X48.4500 Y18.6900
N15240 G1 X48.5770 Y18.7310
N15245 G1 X48.7095 Y18.7740
N15250 G1 X48.8475 Y18.8185
N15255 G1 X48.9905 Y18.8655
N15260 G1 X49.1385 Y18.9140
N15265 G1 X49.2920 Y18.9645
N15270 G1 X49.4500 Y19.0170
N15275 G1 X49.6130 Y19.0715
N15280 G1 X49.9525 Y19.1855
N15285 G1 X50.3080 Y19.3070
N15290 G1 X50.6780 Y19.4350
N15295 G1 X51.0590 Y19.5690
N15300 G1 X51.4490 Y19.7080
N15305 G1 X52.2445 Y19.9985
N15310 G1 X53.0405 Y20.2995
N15315 G1 X53.4305 Y20.4505
N15320 G1 X53.8130 Y20.6020
N15325 G1 X54.1835 Y20.7515
N15330 G1 X54.5415 Y20.8990
N15335 G1 X54.8835 Y21.0435
N15340 G1 X55.2090 Y21.1840
N15345 G1 X55.5155 Y21.3200
N15350 G1 X55.8040 Y21.4515
N15355 G1 X56.0735 Y21.5775
N15360 G1 X56.3255 Y21.6980
N15365 G1 X56.5585 Y21.8125
N15370 G1 X56.7755 Y21.9220
N15375 G1 X56.9775 Y22.0260
N15380 G1 X57.1665 Y22.1255
N15385 G1 X57.3450 Y22.2205
N15390 G1 X57.4560 Y22.2800
N15395 G1 Z-2.3330 F1000
N15400 G1 X57.5135 Y22.3110 F2000
N15405 G1 X57.6750 Y22.3985
N15410 G1 X57.8315 Y22.4830
N15415 G1 X57.8325 Y22.4835
N15420 G1 X58.1315 Y22.6440
N15425 G1 X58.1335 Y22.6455
N15430 G1 X58.7145 Y22.9540
N15435 G1 X59.0010 Y23.1100
N15440 G1 X59.2835 Y23.2740
N15445 G1 X59.5565 Y23.4460
N15450 G1 Z-2.0000
N15455 G1 X59.5615 Y23.4495
N15460 G1 X59.8335 Y23.6385
N15465 G1 X60.0970 Y23.8420
N15470 G1 X60.3520 Y24.0575
N15475 G1 X60.5975 Y24.2805
N15480 G1 X60.8315 Y24.5060
N15485 G1 X61.0520 Y24.7280
N15490 G1 X61.0730 Y24.7505
N15495 G1 Z-2.3330 F1000
N15500 G1 X61.2565 Y24.9430 F2000
N15505 G1 X61.4420 Y25.1510
N15510 G1 X61.6125 Y25.3595
N15515 G1 X61.6875 Y25.4605
N15520 G1 X61.7610 Y25.5665
N15525 G1 X61.8305 Y25.6760
N15530 G1 X61.8975 Y25.7905
N15535 G1 X61.9620 Y25.9115
N15540 G1 X62.0245 Y26.0390
N15545 G1 X62.0850 Y26.1730
N15550 G1 X62.1420 Y26.3095
N15555 G1 X62.2525 Y26.6080
N15560 G1 X62.3515 Y26.9135
N15565 G1 X62.4390 Y27.2190
N15570 G1 X62.4765 Y27.3655
N15575 G1 X62.5115 Y27.5095
N15580 G1 X62.5415 Y27.6465
N15585 G1 X62.5675 Y27.7785
N15590 G1 X62.5890 Y27.9025
N15595 G1 X62.6055 Y28.0190
N15600 G1 X62.6175 Y28.1275
N15605 G1 X62.6240 Y28.2280
N15610 G1 X62.6260 Y28.3230
N15615 G1 X62.6235 Y28.4105
N15620 G1 X62.6165 Y28.4930
N15625 G1 X62.6055 Y28.5710
N15630 G1 X62.5900 Y28.6455
N15635 G1 X62.5705 Y28.7190
N15640 G1 X62.5475 Y28.7900
N15645 G1 X62.5200 Y28.8580
N15650 G1 X62.4885 Y28.9260
N15655 G1 X62.4540 Y28.9910
N15660 G1 X62.4160 Y29.0525
N15665 G1 X62.3750 Y29.1110
N15670 G1 X62.3305 Y29.1670
N15675 G1 X62.2835 Y29.2190
N15680 G1 X62.2335 Y29.2675
N15685 G1 X62.1790 Y29.3130
N15690 G1 X62.1195 Y29.3555
N15695 G1 X62.0545 Y29.3960
N15700 G1 X61.9815 Y29.4340
N15705 G1 X61.9010 Y29.4700
N15710 G1 X61.8120 Y29.5025
N15715 G1 X61.7135 Y29.5325
N15720 G1 X61.6065 Y29.5590
N15725 G1 X61.4915 Y29.5815
N15730 G1 X61.3700 Y29.6005
N15735 G1 X61.2410 Y29.6145
N15740 G1 X61.1070 Y29.6245
N15745 G1 X60.9685 Y29.6300
N15750 G1 X60.8260 Y29.6310
N15755 G1 X60.6825 Y29.6280
N15760 G1 X60.3785 Y29.6090
N15765 G1 X60.0670 Y29.5755
N15770 G1 X59.7440 Y29.5280
N15775 G1 X59.4080 Y29.4680
N15780 G1 X59.0575 Y29.3965
N15785 G1 X58.6915 Y29.3145
N15790 G1 X58.3105 Y29.2225
N15795 G1 X57.9155 Y29.1195
N15800 G1 X57.5070 Y29.0045
N15805 G1 X57.0885 Y28.8765
N15810 G1 X56.6615 Y28.7345
N15815 G1 X56.2290 Y28.5780
N15820 G1 X55.7950 Y28.4060
N15825 G1 X55.3625 Y28.2195
N15830 G1 X54.9350 Y28.0195
N15835 G1 X54.5165 Y27.8080
N15840 G1 X54.4190 Y27.7550
N15845 G1 Z-2.0000
N15850 G1 X54.1100 Y27.5865
N15855 G1 X53.7180 Y27.3575
N15860 G1 X53.3425 Y27.1220
N15865 G1 X52.9825 Y26.8810
N15870 G1 X52.7230 Y26.6960
N15875 G1 Z-2.3330 F1000
N15880 G1 X52.6385 Y26.6360 F2000
N15885 G1 X52.3075 Y26.3860
N15890 G1 X51.9870 Y26.1310
N15895 G1 X51.6740 Y25.8700
N15900 G1 X51.3670 Y25.6020
N15905 G1 X51.0625 Y25.3255
N15910 G1 X50.7610 Y25.0395
N15915 G1 X50.4610 Y24.7430
N15920 G1 X50.1645 Y24.4340
N15925 G1 X49.8715 Y24.1120
N15930 G1 X49.5835 Y23.7760
N15935 G1 X49.3030 Y23.4265
N15940 G1 X49.0315 Y23.0660
N15945 G1 X48.7715 Y22.6960
N15950 G1 X48.5255 Y22.3220
N15955 G1 X48.2950 Y21.9465
N15960 G1 X48.1875 Y21.7635
N15965 G1 X48.0840 Y21.5810
N15970 G1 X47.9855 Y21.4015
N15975 G1 X47.8920 Y21.2255
N15980 G1 X47.8035 Y21.0540
N15985 G1 X47.7195 Y20.8875
N15990 G1 X47.6405 Y20.7255
N15995 G1 X47.5655 Y20.5695
N16000 G1 X47.4950 Y20.4195
N16005 G1 X47.4285 Y20.2755
N16010 G1 X47.3650 Y20.1380
N16015 G1 X47.3050 Y20.0070
N16020 G1 X47.2480 Y19.8825
N16025 G1 X47.2475 Y19.8810
N16030 G1 X47.1935 Y19.7640
N16035 G1 X47.1925 Y19.7620
N16040 G1 X47.1410 Y19.6515
N16045 G1 X47.1395 Y19.6490
N16050 G1 X47.0905 Y19.5450
N16055 G1 X47.0890 Y19.5425
N16060 G1 X47.0420 Y19.4435
N16065 G1 X47.0410 Y19.4420
N16070 G1 X46.9955 Y19.3480
N16075 G1 X46.9105 Y19.1735
N16080 G1 X46.8345 Y19.0125
N16085 G1 X46.7665 Y18.8575
N16090 G1 X46.7035 Y18.6990
N16095 G1 X46.6440 Y18.5340
N16100 G1 X46.5275 Y18.1790
N16105 G1 X46.4740 Y18.0085
N16110 G1 X46.4530 Y17.9415
N16115 G1 X46.4710 Y17.9495
N16120 G1 X46.6660 Y18.0410
N16125 G1 X46.6710 Y18.0430
N16130 G1 X46.8855 Y18.1405
N16135 G1 X46.8965 Y18.1455
N16140 G1 X47.0120 Y18.1945
N16145 G1 X47.0215 Y18.1985
N16150 G1 X47.1455 Y18.2480
N16155 G1 X47.1540 Y18.2515
N16160 G1 X47.2880 Y18.3025
N16165 G1 X47.2960 Y18.3055
N16170 G1 X47.4425 Y18.3580
N16175 G1 X47.4490 Y18.3605
N16180 G1 X47.6100 Y18.4160
N16185 G1 X47.6150 Y18.4175
N16190 G1 X47.7930 Y18.4770
N16195 G1 X47.7950 Y18.4775
N16200 G1 X47.8910 Y18.5090
N16205 G1 X47.8925 Y18.5095
N16210 G1 X47.9935 Y18.5425
N16215 G1 X47.9940
N16220 G1 X48.1000 Y18.5770
N16225 G1 X48.1005
N16230 G1 X48.1735 Y18.6010
N16235 G1 Z-2.0000
N16240 G1 X48.2115 Y18.6130
N16245 G1 X48.3280 Y18.6505
N16250 G1 X48.4500 Y18.6900
N16255 G1 X48.5770 Y18.7310
N16260 G1 X48.7095 Y18.7740
N16265 G1 X48.8475 Y18.8185
N16270 G1 X48.9905 Y18.8655
N16275 G1 X49.1385 Y18.9140
N16280 G1 X49.2920 Y18.9645
N16285 G1 X49.4500 Y19.0170
N16290 G1 X49.6130 Y19.0715
N16295 G1 X49.9525 Y19.1855
N16300 G1 X50.0730 Y19.2270
N16305 G1 Z-2.3330 F1000
N16310 G1 X50.3080 Y19.3070 F2000
N16315 G1 X50.6780 Y19.4350
N16320 G1 X51.0590 Y19.5690
N16325 G1 X51.4490 Y19.7080
N16330 G1 X52.2445 Y19.9985
N16335 G1 X53.0405 Y20.2995
N16340 G1 X53.4305 Y20.4505
N16345 G1 X53.8130 Y20.6020
N16350 G1 X54.1835 Y20.7515
N16355 G1 X54.5415 Y20.8990
N16360 G1 X54.8835 Y21.0435
N16365 G1 X55.2090 Y21.1840
N16370 G1 X55.5155 Y21.3200
N16375 G1 X55.8040 Y21.4515
N16380 G1 X56.0735 Y21.5775
N16385 G1 X56.3255 Y21.6980
N16390 G1 X56.5585 Y21.8125
N16395 G1 X56.7755 Y21.9220
N16400 G1 X56.9775 Y22.0260
N16405 G1 X57.1665 Y22.1255
N16410 G1 X57.3450 Y22.2205
N16415 G1 X57.4560 Y22.2800
N16420 G1 Z-3.5000 F1000
N16425 G1 X57.5135 Y22.3110 F2000
N16430 G1 X57.6750 Y22.3985
N16435 G1 X57.8315 Y22.4830
N16440 G1 X57.8325 Y22.4835
N16445 G1 X58.1315 Y22.6440
N16450 G1 X58.1335 Y22.6455
N16455 G1 X58.7145 Y22.9540
N16460 G1 X59.0010 Y23.1100
N16465 G1 X59.2835 Y23.2740
N16470 G1 X59.5565 Y23.4460
N16475 G1 Z-2.0000
N16480 G1 X59.5615 Y23.4495
N16485 G1 X59.8335 Y23.6385
N16490 G1 X60.0970 Y23.8420
N16495 G1 X60.3520 Y24.0575
N16500 G1 X60.5975 Y24.2805
N16505 G1 X60.8315 Y24.5060
N16510 G1 X61.0520 Y24.7280
N16515 G1 X61.0730 Y24.7505
N16520 G1 Z-3.5000 F1000
N16525 G1 X61.2565 Y24.9430 F2000
N16530 G1 X61.4420 Y25.1510
N16535 G1 X61.6125 Y25.3595
N16540 G1 X61.6875 Y25.4605
N16545 G1 X61.7610 Y25.5665
N16550 G1 X61.8305 Y25.6760
N16555 G1 X61.8975 Y25.7905
N16560 G1 X61.9620 Y25.9115
N16565 G1 X62.0245 Y26.0390
N16570 G1 X62.0850 Y26.1730
N16575 G1 X62.1420 Y26.3095
N16580 G1 X62.2525 Y26.6080
N16585 G1 X62.3515 Y26.9135
N16590 G1 X62.4390 Y27.2190
N16595 G1 X62.4765 Y27.3655
N16600 G1 X62.5115 Y27.5095
N16605 G1 X62.5415 Y27.6465
N16610 G1 X62.5675 Y27.7785
N16615 G1 X62.5890 Y27.9025
N16620 G1 X62.6055 Y28.0190
N16625 G1 X62.6175 Y28.1275
N16630 G1 X62.6240 Y28.2280
N16635 G1 X62.6260 Y28.3230
N16640 G1 X62.6235 Y28.4105
N16645 G1 X62.6165 Y28.4930
N16650 G1 X62.6055 Y28.5710
N16655 G1 X62.5900 Y28.6455
N16660 G1 X62.5705 Y28.7190
N16665 G1 X62.5475 Y28.7900
N16670 G1 X62.5200 Y28.8580
N16675 G1 X62.4885 Y28.9260
N16680 G1 X62.4540 Y28.9910
N16685 G1 X62.4160 Y29.0525
N16690 G1 X62.3750 Y29.1110
N16695 G1 X62.3305 Y29.1670
N16700 G1 X62.2835 Y29.2190
N16705 G1 X62.2335 Y29.2675
N16710 G1 X62.1790 Y29.3130
N16715 G1 X62.1195 Y29.3555
N16720 G1 X62.0545 Y29.3960
N16725 G1 X61.9815 Y29.4340
N16730 G1 X61.9010 Y29.4700
N16735 G1 X61.8120 Y29.5025
N16740 G1 X61.7135 Y29.5325
N16745 G1 X61.6065 Y29.5590
N16750 G1 X61.4915 Y29.5815
N16755 G1 X61.3700 Y29.6005
N16760 G1 X61.2410 Y29.6145
N16765 G1 X61.1070 Y29.6245
N16770 G1 X60.9685 Y29.6300
N16775 G1 X60.8260 Y29.6310
N16780 G1 X60.6825 Y29.6280
N16785 G1 X60.3785 Y29.6090
N16790 G1 X60.0670 Y29.5755
N16795 G1 X59.7440 Y29.5280
N16800 G1 X59.4080 Y29.4680
N16805 G1 X59.0575 Y29.3965
N16810 G1 X58.6915 Y29.3145
N16815 G1 X58.3105 Y29.2225
N16820 G1 X57.9155 Y29.1195
N16825 G1 X57.5070 Y29.0045
N16830 G1 X57.0885 Y28.8765
N16835 G1 X56.6615 Y28.7345
N16840 G1 X56.2290 Y28.5780
N16845 G1 X55.7950 Y28.4060
N16850 G1 X55.3625 Y28.2195
N16855 G1 X54.9350 Y28.0195
N16860 G1 X54.5165 Y27.8080
N16865 G1 X54.4190 Y27.7550
N16870 G1 Z-2.0000
N16875 G1 X54.1100 Y27.5865
N16880 G1 X53.7180 Y27.3575
N16885 G1 X53.3425 Y27.1220
N16890 G1 X52.9825 Y26.8810
N16895 G1 X52.7230 Y26.6960
N16900 G1 Z-3.5000 F1000
N16905 G1 X52.6385 Y26.6360 F2000
N16910 G1 X52.3075 Y26.3860
N16915 G1 X51.9870 Y26.1310
N16920 G1 X51.6740 Y25.8700
N16925 G1 X51.3670 Y25.6020
N16930 G1 X51.0625 Y25.3255
N16935 G1 X50.7610 Y25.0395
N16940 G1 X50.4610 Y24.7430
N16945 G1 X50.1645 Y24.4340
N16950 G1 X49.8715 Y24.1120
N16955 G1 X49.5835 Y23.7760
N16960 G1 X49.3030 Y23.4265
N16965 G1 X49.0315 Y23.0660
N16970 G1 X48.7715 Y22.6960
N16975 G1 X48.5255 Y22.3220
N16980 G1 X48.2950 Y21.9465
N16985 G1 X48.1875 Y21.7635
N16990 G1 X48.0840 Y21.5810
N16995 G1 X47.9855 Y21.4015
N17000 G1 X47.8920 Y21.2255
N17005 G1 X47.8035 Y21.0540
N17010 G1 X47.7195 Y20.8875
N17015 G1 X47.6405 Y20.7255
N17020 G1 X47.5655 Y20.5695
N17025 G1 X47.4950 Y20.4195
N17030 G1 X47.4285 Y20.2755
N17035 G1 X47.3650 Y20.1380
N17040 G1 X47.3050 Y20.0070
N17045 G1 X47.2480 Y19.8825
N17050 G1 X47.2475 Y19.8810
N17055 G1 X47.1935 Y19.7640
N17060 G1 X47.1925 Y19.7620
N17065 G1 X47.1410 Y19.6515
N17070 G1 X47.1395 Y19.6490
N17075 G1 X47.0905 Y19.5450
N17080 G1 X47.0890 Y19.5425
N17085 G1 X47.0420 Y19.4435
N17090 G1 X47.0410 Y19.4420
N17095 G1 X46.9955 Y19.3480
N17100 G1 X46.9105 Y19.1735
N17105 G1 X46.8345 Y19.0125
N17110 G1 X46.7665 Y18.8575
N17115 G1 X46.7035 Y18.6990
N17120 G1 X46.6440 Y18.5340
N17125 G1 X46.5275 Y18.1790
N17130 G1 X46.4740 Y18.0085
N17135 G1 X46.4530 Y17.9415
N17140 G1 X46.4710 Y17.9495
N17145 G1 X46.6660 Y18.0410
N17150 G1 X46.6710 Y18.0430
N17155 G1 X46.8855 Y18.1405
N17160 G1 X46.8965 Y18.1455
N17165 G1 X47.0120 Y18.1945
N17170 G1 X47.0215 Y18.1985
N17175 G1 X47.1455 Y18.2480
N17180 G1 X47.1540 Y18.2515
N17185 G1 X47.2880 Y18.3025
N17190 G1 X47.2960 Y18.3055
N17195 G1 X47.4425 Y18.3580
N17200 G1 X47.4490 Y18.3605
N17205 G1 X47.6100 Y18.4160
N17210 G1 X47.6150 Y18.4175
N17215 G1 X47.7930 Y18.4770
N17220 G1 X47.7950 Y18.4775
N17225 G1 X47.8910 Y18.5090
N17230 G1 X47.8925 Y18.5095
N17235 G1 X47.9935 Y18.5425
N17240 G1 X47.9940
N17245 G1 X48.1000 Y18.5770
N17250 G1 X48.1005
N17255 G1 X48.1735 Y18.6010
N17260 G1 Z-2.0000
N17265 G1 X48.2115 Y18.6130
N17270 G1 X48.3280 Y18.6505
N17275 G1 X48.4500 Y18.6900
N17280 G1 X48.5770 Y18.7310
N17285 G1 X48.7095 Y18.7740
N17290 G1 X48.8475 Y18.8185
N17295 G1 X48.9905 Y18.8655
N17300 G1 X49.1385 Y18.9140
N17305 G1 X49.2920 Y18.9645
N17310 G1 X49.4500 Y19.0170
N17315 G1 X49.6130 Y19.0715
N17320 G1 X49.9525 Y19.1855
N17325 G1 X50.0730 Y19.2270
N17330 G1 Z-3.5000 F1000
N17335 G1 X50.3080 Y19.3070 F2000
N17340 G1 X50.6780 Y19.4350
N17345 G1 X51.0590 Y19.5690
N17350 G1 X51.4490 Y19.7080
N17355 G1 X52.2445 Y19.9985
N17360 G1 X53.0405 Y20.2995
N17365 G1 X53.4305 Y20.4505
N17370 G1 X53.8130 Y20.6020
N17375 G1 X54.1835 Y20.7515
N17380 G1 X54.5415 Y20.8990
N17385 G1 X54.8835 Y21.0435
N17390 G1 X55.2090 Y21.1840
N17395 G1 X55.5155 Y21.3200
N17400 G1 X55.8040 Y21.4515
N17405 G1 X56.0735 Y21.5775
N17410 G1 X56.3255 Y21.6980
N17415 G1 X56.5585 Y21.8125
N17420 G1 X56.7755 Y21.9220
N17425 G1 X56.9775 Y22.0260
N17430 G1 X57.1665 Y22.1255
N17435 G1 X57.3450 Y22.2205
N17440 G1 X57.4560 Y22.2800
N17445 G0 Z10.0000
N17450 G0 X57.4190 Y4.5225
N17455 G0 Z5.0000
N17460 G1 Z0.4000 F1000
N17465 G1 Z-1.1670
N17470 G1 X57.6605 Y4.6235 F2000
N17475 G1 X58.0030 Y4.7850
N17480 G1 X58.3430 Y4.9640
N17485 G1 X58.6810 Y5.1590
N17490 G1 X59.0145 Y5.3680
N17495 G1 X59.3425 Y5.5890
N17500 G1 X59.6615 Y5.8195
N17505 G1 X59.9710 Y6.0580
N17510 G1 X60.2670 Y6.3020
N17515 G1 X60.5480 Y6.5520
N17520 G1 X60.8130 Y6.8090
N17525 G1 X60.9360 Y6.9370
N17530 G1 X61.0555 Y7.0675
N17535 G1 X61.1690 Y7.1990
N17540 G1 X61.2780 Y7.3320
N17545 G1 X61.3805 Y7.4660
N17550 G1 X61.4770 Y7.6015
N17555 G1 X61.5680 Y7.7385
N17560 G1 X61.6530 Y7.8775
N17565 G1 X61.7325 Y8.0180
N17570 G1 X61.8050 Y8.1595
N17575 G1 X61.8715 Y8.3030
N17580 G1 X61.9320 Y8.4490
N17585 G1 X61.9865 Y8.5975
N17590 G1 X62.0355 Y8.7485
N17595 G1 X62.0780 Y8.9020
N17600 G1 X62.1140 Y9.0575
N17605 G1 X62.1445 Y9.2165
N17610 G1 X62.1685 Y9.3780
N17615 G1 X62.1870 Y9.5425
N17620 G1 X62.1990 Y9.7095
N17625 G1 X62.2055 Y9.8790
N17630 G1 X62.2060 Y10.0520
N17635 G1 X62.2015 Y10.2260
N17640 G1 X62.1910 Y10.4015
N17645 G1 X62.1750 Y10.5790
N17650 G1 X62.1545 Y10.7545
N17655 G1 X62.0990 Y11.1160
N17660 G1 X62.0290 Y11.4700
N17665 G1 X61.9470 Y11.8155
N17670 G1 X61.9045 Y11.9795
N17675 G1 X61.8600 Y12.1410
N17680 G1 X61.8155 Y12.2955
N17685 G1 X61.7710 Y12.4435
N17690 G1 X61.7275 Y12.5850
N17695 G1 X61.6850 Y12.7170
N17700 G1 X61.6440 Y12.8415
N17705 G1 X61.6040 Y12.9575
N17710 G1 X61.5655 Y13.0655
N17715 G1 X61.5290 Y13.1655
N17720 G1 X61.4945 Y13.2570
N17725 G1 X61.4620 Y13.3395
N17730 G1 X61.4300 Y13.4175
N17735 G1 X61.4000 Y13.4880
N17740 G1 X61.3730 Y13.5500
N17745 G1 X61.3460 Y13.6075
N17750 G1 X61.2940 Y13.7160
N17755 G1 X61.2450 Y13.8140
N17760 G1 X61.1975 Y13.9080
N17765 G1 X61.1895 Y13.9250
N17770 G1 X61.1475 Y14.0170
N17775 G1 X61.1330 Y14.0520
N17780 G1 X61.0980 Y14.1470
N17785 G1 X61.0825 Y14.1970
N17790 G1 X61.0565 Y14.2995
N17795 G1 X61.0450 Y14.3590
N17800 G1 X61.0305 Y14.4725
N17805 G1 X61.0265 Y14.5320
N17810 G1 X61.0255 Y14.6585
N17815 G1 X61.0275 Y14.7055
N17820 G1 X61.0395 Y14.8450
N17825 G1 X61.0440 Y14.8820
N17830 G1 X61.0685 Y15.0340
N17835 G1 X61.0735 Y15.0600
N17840 G1 X61.1085 Y15.2215
N17845 G1 X61.1130 Y15.2420
N17850 G1 X61.1570 Y15.4110
N17855 G1 X61.1605 Y15.4240
N17860 G1 X61.2105 Y15.5970
N17865 G1 X61.2140 Y15.6080
N17870 G1 X61.3225 Y15.9530
N17875 G1 X61.3245 Y15.9585
N17880 G1 X61.3790 Y16.1250
N17885 G1 Y16.1260
N17890 G1 X61.4315 Y16.2855
N17895 G1 X61.4810 Y16.4365
N17900 G1 X61.5275 Y16.5790
N17905 G1 X61.5280 Y16.5810
N17910 G1 X61.5725 Y16.7170
N17915 G1 X61.5735 Y16.7200
N17920 G1 X61.6165 Y16.8485
N17925 G1 X61.6180 Y16.8525
N17930 G1 X61.6600 Y16.9745
N17935 G1 X61.6630 Y16.9830
N17940 G1 X61.7055 Y17.0995
N17945 G1 X61.7105 Y17.1135
N17950 G1 X61.7550 Y17.2245
N17955 G1 X61.7625 Y17.2420
N17960 G1 X61.8100 Y17.3490
N17965 G1 X61.8210 Y17.3725
N17970 G1 X61.8730 Y17.4750
N17975 G1 X61.8860 Y17.4990
N17980 G1 X61.9425 Y17.5970
N17985 G1 X61.9610 Y17.6265
N17990 G1 X62.0230 Y17.7180
N17995 G1 X62.0480 Y17.7520
N18000 G1 X62.1160 Y17.8365
N18005 G1 X62.1475 Y17.8720
N18010 G1 X62.2210 Y17.9475
N18015 G1 X62.2630 Y17.9860
N18020 G1 X62.3420 Y18.0505
N18025 G1 X62.3690 Y18.0705
N18030 G1 X62.3970 Y18.0895
N18035 G1 X62.4815 Y18.1410
N18040 G1 X62.5140 Y18.1595
N18045 G1 X62.5480 Y18.1750
N18050 G1 X62.6375 Y18.2130
