
This G-code is the result of a post-processor modification by chiefenne.
The original post-processor (version 45917) was modified to include additional features.
The postprocessor is intended for use with the KinetiC-NC control software from CNC-STEP.
For more information, please visit the CNC-STEP website at https://www.cnc-step.com/

The following modifications have been made to the original post-processor:
 - Intial section which supports a specific safe path to the workpiece origin (G54)
 - Jump labels between sections (e.g., 2D adaptive clearing, pockets, etc.)
   Allows to execute individual sections separately
 - Repeat / Next with counter for each operation
   Allows to redo sections multiple times
 - Allow ':' as a permitted character in comments
 - Swap spindle speed and direction, M3 S12000 instead of S12000 M3

%
(LOEWE Anagram Charm)
(Anagram Charm)
(Machine:)
(  vendor: CNC STEP)
(  model: HIGH-Z S-720T)
(  description: Generic 3-axis)

(Tools used in this program:)
(T2 D=2 CR=0 - ZMIN=-3.5 - Schaftfrser)

(Safe path to workpiece origin - typically G54)
G54
#100=#900 (read x-offset which was set in G54)
#101=0   (safe y for going to workpiece)
#102=0   (safe z for going to workpiece)
PRINT "x-offset = ";#100;"mm"
PRINT "y-offset = ";#101;"mm"
PRINT "z-offset = ";#102;"mm"
ASKBOOL "Continue with offsets?" I=2
IF #0=0 THEN
  ASKFLT "Enter x-offset" I=0.0 J=720.0
  #100=#0
  PRINT "x-offset = ";#100;"mm"
ENDIF

N10 G90 G94
N15 G17
N20 G21

G53
G0 Z=#102
G0 Y=#101
G0 X=#100

(Modify SKIP label to jump to the respective section)
(To activate, remove the brackets around SKIP and JUMP labels)
(Skip label is without : and JUMP label is with :)
(SKIP Q0002)
(Q0001:)

(2D-Kontur1)
N25 T2 M66
(Schaftfraeser 2mm Holz, GFK, CFK)
N30 M3 S24000
N35 G17 G90 G94
N40 G54
N45 G0 X17.2825 Y16.0873
N50 G0 G43 Z20.0000 H2
(Edit repeat count according to needs)
REPEAT=1
N55 G0 Z5.0000
N60 G1 Z0.4000 F1000
N65 G1 Z-1.1670
N70 G1 X17.3430 Y16.1487 F2000
N75 G1 X17.3495 Y16.1555
N80 G1 X17.4105 Y16.2130
N85 G1 X17.4150 Y16.2172
N90 G1 X17.4758 Y16.2720
N95 G1 X17.4805 Y16.2763
N100 G1 X17.5410 Y16.3280
N105 G1 X17.5460 Y16.3322
N110 G1 X17.6060 Y16.3810
N115 G1 X17.6140 Y16.3870
N120 G1 X17.7345 Y16.4773
N125 G1 X17.7450 Y16.4847
N130 G1 X17.8715 Y16.5695
N135 G1 X17.8800 Y16.5750
N140 G1 X17.9475 Y16.6165
N145 G1 X17.9540 Y16.6202
N150 G1 X18.0252 Y16.6610
N155 G1 X18.0325 Y16.6653
N160 G1 X18.1077 Y16.7050
N165 G1 X18.1165 Y16.7093
N170 G1 X18.1955 Y16.7473
N175 G1 X18.2052 Y16.7518
N180 G1 X18.2105 Y16.7540
N185 G1 X18.2052 Y16.7563
N190 G1 X18.1955 Y16.7605
N195 G1 X18.1163 Y16.7987
N200 G1 X18.1077 Y16.8030
N205 G1 X18.0328 Y16.8427
N210 G1 X18.0252 Y16.8468
N215 G1 X17.9540 Y16.8878
N220 G1 X17.9475 Y16.8915
N225 G1 X17.8800 Y16.9330
N230 G1 X17.8715 Y16.9385
N235 G1 X17.7450 Y17.0233
N240 G1 X17.7345 Y17.0308
N245 G1 X17.6140 Y17.1208
N250 G1 X17.6060 Y17.1270
N255 G1 X17.5460 Y17.1758
N260 G1 X17.5410 Y17.1800
N265 G1 X17.4805 Y17.2318
N270 G1 X17.4758 Y17.2360
N275 G1 X17.4150 Y17.2907
N280 G1 X17.4103 Y17.2950
N285 G1 X17.3495 Y17.3525
N290 G1 X17.3430 Y17.3590
N295 G1 X17.2233 Y17.4810
N300 G1 X17.2142 Y17.4907
N305 G1 X17.1013 Y17.6193
N310 G1 X17.0940 Y17.6277
N315 G1 X17.0413 Y17.6935
N320 G1 X17.0360 Y17.7000
N325 G1 X16.9862 Y17.7665
N330 G1 X16.9810 Y17.7735
N335 G1 X16.9340 Y17.8410
N340 G1 X16.9290 Y17.8485
N345 G1 X16.8848 Y17.9170
N350 G1 X16.8800 Y17.9247
N355 G1 X16.8385 Y17.9945
N360 G1 X16.8340 Y18.0023
N365 G1 X16.7950 Y18.0738
N370 G1 X16.7907 Y18.0815
N375 G1 X16.7538 Y18.1550
N380 G1 X16.7503 Y18.1623
N385 G1 X16.7150 Y18.2383
N390 G1 X16.7120 Y18.2450
N395 G1 X16.7082 Y18.2540
N400 G1 X16.4960
N405 G1 X16.4922 Y18.2450
N410 G1 X16.4890 Y18.2383
N415 G1 X16.4537 Y18.1623
N420 G1 X16.4503 Y18.1550
N425 G1 X16.4133 Y18.0815
N430 G1 X16.4093 Y18.0738
N435 G1 X16.3700 Y18.0023
N440 G1 X16.3657 Y17.9945
N445 G1 X16.3242 Y17.9247
N450 G1 X16.3193 Y17.9170
N455 G1 X16.2752 Y17.8485
N460 G1 X16.2700 Y17.8410
N465 G1 X16.2230 Y17.7735
N470 G1 X16.2180 Y17.7665
N475 G1 X16.1680 Y17.7000
N480 G1 X16.1630 Y17.6935
N485 G1 X16.1103 Y17.6277
N490 G1 X16.1030 Y17.6193
N495 G1 X15.9898 Y17.4910
N500 G1 X15.9808 Y17.4810
N505 G1 X15.8613 Y17.3590
N510 G1 X15.8545 Y17.3525
N515 G1 X15.7937 Y17.2950
N520 G1 X15.7892 Y17.2907
N525 G1 X15.7285 Y17.2360
N530 G1 X15.7238 Y17.2318
N535 G1 X15.6632 Y17.1800
N540 G1 X15.6580 Y17.1758
N545 G1 X15.5980 Y17.1270
N550 G1 X15.5902 Y17.1208
N555 G1 X15.4697 Y17.0308
N560 G1 X15.4593 Y17.0233
N565 G1 X15.3325 Y16.9385
N570 G1 X15.3242 Y16.9330
N575 G1 X15.2568 Y16.8915
N580 G1 X15.2502 Y16.8878
N585 G1 X15.1790 Y16.8468
N590 G1 X15.1715 Y16.8427
N595 G1 X15.0965 Y16.8030
N600 G1 X15.0877 Y16.7987
N605 G1 X15.0087 Y16.7605
N610 G1 X14.9987 Y16.7563
N615 G1 X14.9938 Y16.7540
N620 G1 X14.9987 Y16.7518
N625 G1 X15.0085 Y16.7473
N630 G1 X15.0877 Y16.7093
N635 G1 X15.0965 Y16.7050
N640 G1 X15.1715 Y16.6653
N645 G1 X15.1790 Y16.6610
N650 G1 X15.2502 Y16.6202
N655 G1 X15.2568 Y16.6165
N660 G1 X15.3242 Y16.5750
N665 G1 X15.3325 Y16.5695
N670 G1 X15.4593 Y16.4847
N675 G1 X15.4697 Y16.4773
N680 G1 X15.5902 Y16.3870
N685 G1 X15.5980 Y16.3810
N690 G1 X15.6580 Y16.3322
N695 G1 X15.6632 Y16.3280
N700 G1 X15.7238 Y16.2763
N705 G1 X15.7285 Y16.2720
N710 G1 X15.7892 Y16.2172
N715 G1 X15.7937 Y16.2130
N720 G1 X15.8545 Y16.1555
N725 G1 X15.8613 Y16.1487
N730 G1 X15.9808 Y16.0267
N735 G1 X15.9898 Y16.0170
N740 G1 X16.1030 Y15.8887
N745 G1 X16.1103 Y15.8800
N750 G1 X16.1630 Y15.8145
N755 G1 X16.1680 Y15.8080
N760 G1 X16.2180 Y15.7415
N765 G1 X16.2230 Y15.7342
N770 G1 X16.2703 Y15.6670
N775 G1 X16.2752 Y15.6595
N780 G1 X16.3193 Y15.5910
N785 G1 X16.3242 Y15.5832
N790 G1 X16.3657 Y15.5135
N795 G1 X16.3700 Y15.5058
N800 G1 X16.4093 Y15.4343
N805 G1 X16.4133 Y15.4265
N810 G1 X16.4503 Y15.3530
N815 G1 X16.4537 Y15.3458
N820 G1 X16.4890 Y15.2698
N825 G1 X16.4920 Y15.2628
N830 G1 X16.4960 Y15.2540
N835 G1 X16.6020
N840 G1 X16.7082
N845 G1 X16.7120 Y15.2630
N850 G1 X16.7150 Y15.2698
N855 G1 X16.7503 Y15.3458
N860 G1 X16.7538 Y15.3530
N865 G1 X16.7907 Y15.4265
N870 G1 X16.7950 Y15.4343
N875 G1 X16.8340 Y15.5058
N880 G1 X16.8385 Y15.5135
N885 G1 X16.8800 Y15.5832
N890 G1 X16.8848 Y15.5910
N895 G1 X16.9290 Y15.6595
N900 G1 X16.9340 Y15.6670
N905 G1 X16.9810 Y15.7342
N910 G1 X16.9862 Y15.7415
N915 G1 X17.0362 Y15.8080
N920 G1 X17.0413 Y15.8145
N925 G1 X17.0940 Y15.8800
N930 G1 X17.1013 Y15.8887
N935 G1 X17.2142 Y16.0170
N940 G1 X17.2233 Y16.0267
N945 G1 X17.2825 Y16.0873
N950 G1 Z-2.3330 F1000
N955 G1 X17.3430 Y16.1487 F2000
N960 G1 X17.3495 Y16.1555
N965 G1 X17.4105 Y16.2130
N970 G1 X17.4150 Y16.2172
N975 G1 X17.4758 Y16.2720
N980 G1 X17.4805 Y16.2763
N985 G1 X17.5410 Y16.3280
N990 G1 X17.5460 Y16.3322
N995 G1 X17.6060 Y16.3810
N1000 G1 X17.6140 Y16.3870
N1005 G1 X17.7345 Y16.4773
N1010 G1 X17.7450 Y16.4847
N1015 G1 X17.8715 Y16.5695
N1020 G1 X17.8800 Y16.5750
N1025 G1 X17.9475 Y16.6165
N1030 G1 X17.9540 Y16.6202
N1035 G1 X18.0252 Y16.6610
N1040 G1 X18.0325 Y16.6653
N1045 G1 X18.1077 Y16.7050
N1050 G1 X18.1165 Y16.7093
N1055 G1 X18.1955 Y16.7473
N1060 G1 X18.2052 Y16.7518
N1065 G1 X18.2105 Y16.7540
N1070 G1 X18.2052 Y16.7563
N1075 G1 X18.1955 Y16.7605
N1080 G1 X18.1163 Y16.7987
N1085 G1 X18.1077 Y16.8030
N1090 G1 X18.0328 Y16.8427
N1095 G1 X18.0252 Y16.8468
N1100 G1 X17.9540 Y16.8878
N1105 G1 X17.9475 Y16.8915
N1110 G1 X17.8800 Y16.9330
N1115 G1 X17.8715 Y16.9385
N1120 G1 X17.7450 Y17.0233
N1125 G1 X17.7345 Y17.0308
N1130 G1 X17.6140 Y17.1208
N1135 G1 X17.6060 Y17.1270
N1140 G1 X17.5460 Y17.1758
N1145 G1 X17.5410 Y17.1800
N1150 G1 X17.4805 Y17.2318
N1155 G1 X17.4758 Y17.2360
N1160 G1 X17.4150 Y17.2907
N1165 G1 X17.4103 Y17.2950
N1170 G1 X17.3495 Y17.3525
N1175 G1 X17.3430 Y17.3590
N1180 G1 X17.2233 Y17.4810
N1185 G1 X17.2142 Y17.4907
N1190 G1 X17.1013 Y17.6193
N1195 G1 X17.0940 Y17.6277
N1200 G1 X17.0413 Y17.6935
N1205 G1 X17.0360 Y17.7000
N1210 G1 X16.9862 Y17.7665
N1215 G1 X16.9810 Y17.7735
N1220 G1 X16.9340 Y17.8410
N1225 G1 X16.9290 Y17.8485
N1230 G1 X16.8848 Y17.9170
N1235 G1 X16.8800 Y17.9247
N1240 G1 X16.8385 Y17.9945
N1245 G1 X16.8340 Y18.0023
N1250 G1 X16.7950 Y18.0738
N1255 G1 X16.7907 Y18.0815
N1260 G1 X16.7538 Y18.1550
N1265 G1 X16.7503 Y18.1623
N1270 G1 X16.7150 Y18.2383
N1275 G1 X16.7120 Y18.2450
N1280 G1 X16.7082 Y18.2540
N1285 G1 X16.4960
N1290 G1 X16.4922 Y18.2450
N1295 G1 X16.4890 Y18.2383
N1300 G1 X16.4537 Y18.1623
N1305 G1 X16.4503 Y18.1550
N1310 G1 X16.4133 Y18.0815
N1315 G1 X16.4093 Y18.0738
N1320 G1 X16.3700 Y18.0023
N1325 G1 X16.3657 Y17.9945
N1330 G1 X16.3242 Y17.9247
N1335 G1 X16.3193 Y17.9170
N1340 G1 X16.2752 Y17.8485
N1345 G1 X16.2700 Y17.8410
N1350 G1 X16.2230 Y17.7735
N1355 G1 X16.2180 Y17.7665
N1360 G1 X16.1680 Y17.7000
N1365 G1 X16.1630 Y17.6935
N1370 G1 X16.1103 Y17.6277
N1375 G1 X16.1030 Y17.6193
N1380 G1 X15.9898 Y17.4910
N1385 G1 X15.9808 Y17.4810
N1390 G1 X15.8613 Y17.3590
N1395 G1 X15.8545 Y17.3525
N1400 G1 X15.7937 Y17.2950
N1405 G1 X15.7892 Y17.2907
N1410 G1 X15.7285 Y17.2360
N1415 G1 X15.7238 Y17.2318
N1420 G1 X15.6632 Y17.1800
N1425 G1 X15.6580 Y17.1758
N1430 G1 X15.5980 Y17.1270
N1435 G1 X15.5902 Y17.1208
N1440 G1 X15.4697 Y17.0308
N1445 G1 X15.4593 Y17.0233
N1450 G1 X15.3325 Y16.9385
N1455 G1 X15.3242 Y16.9330
N1460 G1 X15.2568 Y16.8915
N1465 G1 X15.2502 Y16.8878
N1470 G1 X15.1790 Y16.8468
N1475 G1 X15.1715 Y16.8427
N1480 G1 X15.0965 Y16.8030
N1485 G1 X15.0877 Y16.7987
N1490 G1 X15.0087 Y16.7605
N1495 G1 X14.9987 Y16.7563
N1500 G1 X14.9938 Y16.7540
N1505 G1 X14.9987 Y16.7518
N1510 G1 X15.0085 Y16.7473
N1515 G1 X15.0877 Y16.7093
N1520 G1 X15.0965 Y16.7050
N1525 G1 X15.1715 Y16.6653
N1530 G1 X15.1790 Y16.6610
N1535 G1 X15.2502 Y16.6202
N1540 G1 X15.2568 Y16.6165
N1545 G1 X15.3242 Y16.5750
N1550 G1 X15.3325 Y16.5695
N1555 G1 X15.4593 Y16.4847
N1560 G1 X15.4697 Y16.4773
N1565 G1 X15.5902 Y16.3870
N1570 G1 X15.5980 Y16.3810
N1575 G1 X15.6580 Y16.3322
N1580 G1 X15.6632 Y16.3280
N1585 G1 X15.7238 Y16.2763
N1590 G1 X15.7285 Y16.2720
N1595 G1 X15.7892 Y16.2172
N1600 G1 X15.7937 Y16.2130
N1605 G1 X15.8545 Y16.1555
N1610 G1 X15.8613 Y16.1487
N1615 G1 X15.9808 Y16.0267
N1620 G1 X15.9898 Y16.0170
N1625 G1 X16.1030 Y15.8887
N1630 G1 X16.1103 Y15.8800
N1635 G1 X16.1630 Y15.8145
N1640 G1 X16.1680 Y15.8080
N1645 G1 X16.2180 Y15.7415
N1650 G1 X16.2230 Y15.7342
N1655 G1 X16.2703 Y15.6670
N1660 G1 X16.2752 Y15.6595
N1665 G1 X16.3193 Y15.5910
N1670 G1 X16.3242 Y15.5832
N1675 G1 X16.3657 Y15.5135
N1680 G1 X16.3700 Y15.5058
N1685 G1 X16.4093 Y15.4343
N1690 G1 X16.4133 Y15.4265
N1695 G1 X16.4503 Y15.3530
N1700 G1 X16.4537 Y15.3458
N1705 G1 X16.4890 Y15.2698
N1710 G1 X16.4920 Y15.2628
N1715 G1 X16.4960 Y15.2540
N1720 G1 X16.6020
N1725 G1 X16.7082
N1730 G1 X16.7120 Y15.2630
N1735 G1 X16.7150 Y15.2698
N1740 G1 X16.7503 Y15.3458
N1745 G1 X16.7538 Y15.3530
N1750 G1 X16.7907 Y15.4265
N1755 G1 X16.7950 Y15.4343
N1760 G1 X16.8340 Y15.5058
N1765 G1 X16.8385 Y15.5135
N1770 G1 X16.8800 Y15.5832
N1775 G1 X16.8848 Y15.5910
N1780 G1 X16.9290 Y15.6595
N1785 G1 X16.9340 Y15.6670
N1790 G1 X16.9810 Y15.7342
N1795 G1 X16.9862 Y15.7415
N1800 G1 X17.0362 Y15.8080
N1805 G1 X17.0413 Y15.8145
N1810 G1 X17.0940 Y15.8800
N1815 G1 X17.1013 Y15.8887
N1820 G1 X17.2142 Y16.0170
N1825 G1 X17.2233 Y16.0267
N1830 G1 X17.2825 Y16.0873
N1835 G1 Z-3.5000 F1000
N1840 G1 X17.3430 Y16.1487 F2000
N1845 G1 X17.3495 Y16.1555
N1850 G1 X17.4105 Y16.2130
N1855 G1 X17.4150 Y16.2172
N1860 G1 X17.4758 Y16.2720
N1865 G1 X17.4805 Y16.2763
N1870 G1 X17.5410 Y16.3280
N1875 G1 X17.5460 Y16.3322
N1880 G1 X17.6060 Y16.3810
N1885 G1 X17.6140 Y16.3870
N1890 G1 X17.7345 Y16.4773
N1895 G1 X17.7450 Y16.4847
N1900 G1 X17.8715 Y16.5695
N1905 G1 X17.8800 Y16.5750
N1910 G1 X17.9475 Y16.6165
N1915 G1 X17.9540 Y16.6202
N1920 G1 X18.0252 Y16.6610
N1925 G1 X18.0325 Y16.6653
N1930 G1 X18.1077 Y16.7050
N1935 G1 X18.1165 Y16.7093
N1940 G1 X18.1955 Y16.7473
N1945 G1 X18.2052 Y16.7518
N1950 G1 X18.2105 Y16.7540
N1955 G1 X18.2052 Y16.7563
N1960 G1 X18.1955 Y16.7605
N1965 G1 X18.1163 Y16.7987
N1970 G1 X18.1077 Y16.8030
N1975 G1 X18.0328 Y16.8427
N1980 G1 X18.0252 Y16.8468
N1985 G1 X17.9540 Y16.8878
N1990 G1 X17.9475 Y16.8915
N1995 G1 X17.8800 Y16.9330
N2000 G1 X17.8715 Y16.9385
N2005 G1 X17.7450 Y17.0233
N2010 G1 X17.7345 Y17.0308
N2015 G1 X17.6140 Y17.1208
N2020 G1 X17.6060 Y17.1270
N2025 G1 X17.5460 Y17.1758
N2030 G1 X17.5410 Y17.1800
N2035 G1 X17.4805 Y17.2318
N2040 G1 X17.4758 Y17.2360
N2045 G1 X17.4150 Y17.2907
N2050 G1 X17.4103 Y17.2950
N2055 G1 X17.3495 Y17.3525
N2060 G1 X17.3430 Y17.3590
N2065 G1 X17.2233 Y17.4810
N2070 G1 X17.2142 Y17.4907
N2075 G1 X17.1013 Y17.6193
N2080 G1 X17.0940 Y17.6277
N2085 G1 X17.0413 Y17.6935
N2090 G1 X17.0360 Y17.7000
N2095 G1 X16.9862 Y17.7665
N2100 G1 X16.9810 Y17.7735
N2105 G1 X16.9340 Y17.8410
N2110 G1 X16.9290 Y17.8485
N2115 G1 X16.8848 Y17.9170
N2120 G1 X16.8800 Y17.9247
N2125 G1 X16.8385 Y17.9945
N2130 G1 X16.8340 Y18.0023
N2135 G1 X16.7950 Y18.0738
N2140 G1 X16.7907 Y18.0815
N2145 G1 X16.7538 Y18.1550
N2150 G1 X16.7503 Y18.1623
N2155 G1 X16.7150 Y18.2383
N2160 G1 X16.7120 Y18.2450
N2165 G1 X16.7082 Y18.2540
N2170 G1 X16.4960
N2175 G1 X16.4922 Y18.2450
N2180 G1 X16.4890 Y18.2383
N2185 G1 X16.4537 Y18.1623
N2190 G1 X16.4503 Y18.1550
N2195 G1 X16.4133 Y18.0815
N2200 G1 X16.4093 Y18.0738
N2205 G1 X16.3700 Y18.0023
N2210 G1 X16.3657 Y17.9945
N2215 G1 X16.3242 Y17.9247
N2220 G1 X16.3193 Y17.9170
N2225 G1 X16.2752 Y17.8485
N2230 G1 X16.2700 Y17.8410
N2235 G1 X16.2230 Y17.7735
N2240 G1 X16.2180 Y17.7665
N2245 G1 X16.1680 Y17.7000
N2250 G1 X16.1630 Y17.6935
N2255 G1 X16.1103 Y17.6277
N2260 G1 X16.1030 Y17.6193
N2265 G1 X15.9898 Y17.4910
N2270 G1 X15.9808 Y17.4810
N2275 G1 X15.8613 Y17.3590
N2280 G1 X15.8545 Y17.3525
N2285 G1 X15.7937 Y17.2950
N2290 G1 X15.7892 Y17.2907
N2295 G1 X15.7285 Y17.2360
N2300 G1 X15.7238 Y17.2318
N2305 G1 X15.6632 Y17.1800
N2310 G1 X15.6580 Y17.1758
N2315 G1 X15.5980 Y17.1270
N2320 G1 X15.5902 Y17.1208
N2325 G1 X15.4697 Y17.0308
N2330 G1 X15.4593 Y17.0233
N2335 G1 X15.3325 Y16.9385
N2340 G1 X15.3242 Y16.9330
N2345 G1 X15.2568 Y16.8915
N2350 G1 X15.2502 Y16.8878
N2355 G1 X15.1790 Y16.8468
N2360 G1 X15.1715 Y16.8427
N2365 G1 X15.0965 Y16.8030
N2370 G1 X15.0877 Y16.7987
N2375 G1 X15.0087 Y16.7605
N2380 G1 X14.9987 Y16.7563
N2385 G1 X14.9938 Y16.7540
N2390 G1 X14.9987 Y16.7518
N2395 G1 X15.0085 Y16.7473
N2400 G1 X15.0877 Y16.7093
N2405 G1 X15.0965 Y16.7050
N2410 G1 X15.1715 Y16.6653
N2415 G1 X15.1790 Y16.6610
N2420 G1 X15.2502 Y16.6202
N2425 G1 X15.2568 Y16.6165
N2430 G1 X15.3242 Y16.5750
N2435 G1 X15.3325 Y16.5695
N2440 G1 X15.4593 Y16.4847
N2445 G1 X15.4697 Y16.4773
N2450 G1 X15.5902 Y16.3870
N2455 G1 X15.5980 Y16.3810
N2460 G1 X15.6580 Y16.3322
N2465 G1 X15.6632 Y16.3280
N2470 G1 X15.7238 Y16.2763
N2475 G1 X15.7285 Y16.2720
N2480 G1 X15.7892 Y16.2172
N2485 G1 X15.7937 Y16.2130
N2490 G1 X15.8545 Y16.1555
N2495 G1 X15.8613 Y16.1487
N2500 G1 X15.9808 Y16.0267
N2505 G1 X15.9898 Y16.0170
N2510 G1 X16.1030 Y15.8887
N2515 G1 X16.1103 Y15.8800
N2520 G1 X16.1630 Y15.8145
N2525 G1 X16.1680 Y15.8080
N2530 G1 X16.2180 Y15.7415
N2535 G1 X16.2230 Y15.7342
N2540 G1 X16.2703 Y15.6670
N2545 G1 X16.2752 Y15.6595
N2550 G1 X16.3193 Y15.5910
N2555 G1 X16.3242 Y15.5832
N2560 G1 X16.3657 Y15.5135
N2565 G1 X16.3700 Y15.5058
N2570 G1 X16.4093 Y15.4343
N2575 G1 X16.4133 Y15.4265
N2580 G1 X16.4503 Y15.3530
N2585 G1 X16.4537 Y15.3458
N2590 G1 X16.4890 Y15.2698
N2595 G1 X16.4920 Y15.2628
N2600 G1 X16.4960 Y15.2540
N2605 G1 X16.6020
N2610 G1 X16.7082
N2615 G1 X16.7120 Y15.2630
N2620 G1 X16.7150 Y15.2698
N2625 G1 X16.7503 Y15.3458
N2630 G1 X16.7538 Y15.3530
N2635 G1 X16.7907 Y15.4265
N2640 G1 X16.7950 Y15.4343
N2645 G1 X16.8340 Y15.5058
N2650 G1 X16.8385 Y15.5135
N2655 G1 X16.8800 Y15.5832
N2660 G1 X16.8848 Y15.5910
N2665 G1 X16.9290 Y15.6595
N2670 G1 X16.9340 Y15.6670
N2675 G1 X16.9810 Y15.7342
N2680 G1 X16.9862 Y15.7415
N2685 G1 X17.0362 Y15.8080
N2690 G1 X17.0413 Y15.8145
N2695 G1 X17.0940 Y15.8800
N2700 G1 X17.1013 Y15.8887
N2705 G1 X17.2142 Y16.0170
N2710 G1 X17.2233 Y16.0267
N2715 G1 X17.2825 Y16.0873
N2720 G0 Z10.0000
N2725 G0 X22.1397 Y11.5365
N2730 G0 Z5.0000
N2735 G1 Z0.4000 F1000
N2740 G1 Z-1.1670
N2745 G1 X22.1958 Y11.6360 F2000
N2750 G1 X22.1977 Y11.6395
N2755 G1 X22.2892 Y11.7963
N2760 G1 X22.2915 Y11.7997
N2765 G1 X22.3882 Y11.9593
N2770 G1 X22.3903 Y11.9627
N2775 G1 X22.4922 Y12.1248
N2780 G1 X22.4943 Y12.1282
N2785 G1 X22.6013 Y12.2925
N2790 G1 X22.6035 Y12.2960
N2795 G1 X22.7155 Y12.4615
N2800 G1 X22.7180 Y12.4652
N2805 G1 X22.8347 Y12.6320
N2810 G1 X22.8375 Y12.6357
N2815 G1 X22.9595 Y12.8027
N2820 G1 X22.9625 Y12.8067
N2825 G1 X23.0892 Y12.9733
N2830 G1 X23.0925 Y12.9778
N2835 G1 X23.2243 Y13.1430
N2840 G1 X23.2278 Y13.1475
N2845 G1 X23.3642 Y13.3110
N2850 G1 X23.3682 Y13.3155
N2855 G1 X23.5093 Y13.4763
N2860 G1 X23.5132 Y13.4810
N2865 G1 X23.6585 Y13.6387
N2870 G1 X23.6630 Y13.6433
N2875 G1 X23.8122 Y13.7973
N2880 G1 X23.8165 Y13.8018
N2885 G1 X23.9695 Y13.9515
N2890 G1 X23.9740 Y13.9558
N2895 G1 X24.1298 Y14.1013
N2900 G1 X24.1343 Y14.1055
N2905 G1 X24.2928 Y14.2462
N2910 G1 X24.2972 Y14.2500
N2915 G1 X24.4578 Y14.3860
N2920 G1 X24.4623 Y14.3897
N2925 G1 X24.6245 Y14.5203
N2930 G1 X24.6288 Y14.5237
N2935 G1 X24.7918 Y14.6493
N2940 G1 X24.7963 Y14.6525
N2945 G1 X24.9595 Y14.7725
N2950 G1 X24.9638 Y14.7755
N2955 G1 X25.1270 Y14.8902
N2960 G1 X25.1313 Y14.8933
N2965 G1 X25.2937 Y15.0025
N2970 G1 X25.2975 Y15.0050
N2975 G1 X25.4585 Y15.1092
N2980 G1 X25.4625 Y15.1118
N2985 G1 X25.6220 Y15.2108
N2990 G1 X25.6255 Y15.2130
N2995 G1 X25.7828 Y15.3070
N3000 G1 X25.7862 Y15.3090
N3005 G1 X25.9413 Y15.3983
N3010 G1 X25.9443 Y15.4000
N3015 G1 X26.0960 Y15.4845
N3020 G1 X26.0990 Y15.4863
N3025 G1 X26.2477 Y15.5665
N3030 G1 X26.2510 Y15.5680
N3035 G1 X26.3968 Y15.6440
N3040 G1 X26.3990 Y15.6453
N3045 G1 X26.5410 Y15.7175
N3050 G1 X26.5437 Y15.7188
N3055 G1 X26.6827 Y15.7873
N3060 G1 X26.6848 Y15.7882
N3065 G1 X26.8203 Y15.8535
N3070 G1 X26.8225 Y15.8547
N3075 G1 X26.9550 Y15.9168
N3080 G1 X26.9570 Y15.9177
N3085 G1 X27.0865 Y15.9772
N3090 G1 X27.0885 Y15.9780
N3095 G1 X27.2155 Y16.0350
N3100 G1 X27.2172 Y16.0358
N3105 G1 X27.3420 Y16.0905
N3110 G1 X27.3438 Y16.0912
N3115 G1 X27.4665 Y16.1440
N3120 G1 X27.4695 Y16.1455
N3125 G1 X27.7117 Y16.2458
N3130 G1 X27.7162 Y16.2475
N3135 G1 X27.9572 Y16.3420
N3140 G1 X27.9627 Y16.3442
N3145 G1 X28.2078 Y16.4335
N3150 G1 X28.2132 Y16.4355
N3155 G1 X28.3392 Y16.4782
N3160 G1 X28.3433 Y16.4795
N3165 G1 X28.4722 Y16.5207
N3170 G1 X28.4770 Y16.5222
N3175 G1 X28.6100 Y16.5617
N3180 G1 X28.6150 Y16.5633
N3185 G1 X28.7525 Y16.6013
N3190 G1 X28.7580 Y16.6025
N3195 G1 X28.9005 Y16.6385
N3200 G1 X28.9060 Y16.6397
N3205 G1 X29.0540 Y16.6735
N3210 G1 X29.0598 Y16.6747
N3215 G1 X29.2132 Y16.7060
N3220 G1 X29.2192 Y16.7070
N3225 G1 X29.3783 Y16.7353
N3230 G1 X29.3840 Y16.7362
N3235 G1 X29.4990 Y16.7540
N3240 G1 X29.3840 Y16.7715
N3245 G1 X29.3783 Y16.7725
N3250 G1 X29.2192 Y16.8010
N3255 G1 X29.2132 Y16.8020
N3260 G1 X29.0598 Y16.8332
N3265 G1 X29.0540 Y16.8345
N3270 G1 X28.9060 Y16.8680
N3275 G1 X28.9005 Y16.8695
N3280 G1 X28.7580 Y16.9052
N3285 G1 X28.7525 Y16.9067
N3290 G1 X28.6150 Y16.9447
N3295 G1 X28.6100 Y16.9460
N3300 G1 X28.4770 Y16.9857
N3305 G1 X28.4722 Y16.9872
N3310 G1 X28.3433 Y17.0285
N3315 G1 X28.3392 Y17.0297
N3320 G1 X28.2132 Y17.0725
N3325 G1 X28.2078 Y17.0745
N3330 G1 X27.9627 Y17.1638
N3335 G1 X27.9572 Y17.1657
N3340 G1 X27.7162 Y17.2605
N3345 G1 X27.7117 Y17.2623
N3350 G1 X27.4695 Y17.3625
N3355 G1 X27.4665 Y17.3637
N3360 G1 X27.3438 Y17.4165
N3365 G1 X27.3420 Y17.4172
N3370 G1 X27.2172 Y17.4720
N3375 G1 X27.2155 Y17.4730
N3380 G1 X27.0885 Y17.5300
N3385 G1 X27.0865 Y17.5308
N3390 G1 X26.9570 Y17.5903
N3395 G1 X26.9550 Y17.5910
N3400 G1 X26.8225 Y17.6532
N3405 G1 X26.8203 Y17.6543
N3410 G1 X26.6848 Y17.7195
N3415 G1 X26.6827 Y17.7205
N3420 G1 X26.5437 Y17.7892
N3425 G1 X26.5410 Y17.7905
N3430 G1 X26.3990 Y17.8627
N3435 G1 X26.3965 Y17.8640
N3440 G1 X26.2508 Y17.9400
N3445 G1 X26.2480 Y17.9415
N3450 G1 X26.0993 Y18.0218
N3455 G1 X26.0960 Y18.0233
N3460 G1 X25.9443 Y18.1080
N3465 G1 X25.9413 Y18.1097
N3470 G1 X25.7862 Y18.1988
N3475 G1 X25.7828 Y18.2010
N3480 G1 X25.6255 Y18.2950
N3485 G1 X25.6220 Y18.2972
N3490 G1 X25.4625 Y18.3962
N3495 G1 X25.4585 Y18.3987
N3500 G1 X25.2975 Y18.5027
N3505 G1 X25.2937 Y18.5053
N3510 G1 X25.1313 Y18.6148
N3515 G1 X25.1270 Y18.6175
N3520 G1 X24.9638 Y18.7323
N3525 G1 X24.9595 Y18.7355
N3530 G1 X24.7963 Y18.8555
N3535 G1 X24.7918 Y18.8588
N3540 G1 X24.6288 Y18.9842
N3545 G1 X24.6242 Y18.9877
N3550 G1 X24.4623 Y19.1182
N3555 G1 X24.4578 Y19.1220
N3560 G1 X24.2972 Y19.2578
N3565 G1 X24.2928 Y19.2617
N3570 G1 X24.1343 Y19.4025
N3575 G1 X24.1298 Y19.4067
N3580 G1 X23.9740 Y19.5520
N3585 G1 X23.9695 Y19.5565
N3590 G1 X23.8165 Y19.7063
N3595 G1 X23.8122 Y19.7108
N3600 G1 X23.6630 Y19.8648
N3605 G1 X23.6588 Y19.8693
N3610 G1 X23.5132 Y20.0270
N3615 G1 X23.5093 Y20.0315
N3620 G1 X23.3682 Y20.1923
N3625 G1 X23.3642 Y20.1970
N3630 G1 X23.2278 Y20.3605
N3635 G1 X23.2243 Y20.3650
N3640 G1 X23.0925 Y20.5302
N3645 G1 X23.0892 Y20.5345
N3650 G1 X22.9625 Y20.7013
N3655 G1 X22.9595 Y20.7052
N3660 G1 X22.8375 Y20.8723
N3665 G1 X22.8347 Y20.8760
N3670 G1 X22.7180 Y21.0428
N3675 G1 X22.7155 Y21.0463
N3680 G1 X22.6035 Y21.2120
N3685 G1 X22.6013 Y21.2155
N3690 G1 X22.4943 Y21.3795
N3695 G1 X22.4922 Y21.3830
N3700 G1 X22.3903 Y21.5452
N3705 G1 X22.3882 Y21.5485
N3710 G1 X22.2915 Y21.7082
N3715 G1 X22.2892 Y21.7117
N3720 G1 X22.1977 Y21.8682
N3725 G1 X22.1958 Y21.8720
N3730 G1 X22.1095 Y22.0257
N3735 G1 X22.1073 Y22.0295
N3740 G1 X22.0263 Y22.1797
N3745 G1 X22.0242 Y22.1837
N3750 G1 X21.9485 Y22.3305
N3755 G1 X21.9462 Y22.3350
N3760 G1 X21.8758 Y22.4782
N3765 G1 X21.8735 Y22.4827
N3770 G1 X21.8083 Y22.6225
N3775 G1 X21.8060 Y22.6273
N3780 G1 X21.7460 Y22.7635
N3785 G1 X21.7437 Y22.7688
N3790 G1 X21.6887 Y22.9015
N3795 G1 X21.6865 Y22.9067
N3800 G1 X21.6363 Y23.0362
N3805 G1 X21.6343 Y23.0418
N3810 G1 X21.5885 Y23.1680
N3815 G1 X21.5867 Y23.1735
N3820 G1 X21.5455 Y23.2967
N3825 G1 X21.5435 Y23.3025
N3830 G1 X21.5063 Y23.4230
N3835 G1 X21.5048 Y23.4282
N3840 G1 X21.4710 Y23.5463
N3845 G1 X21.4698 Y23.5512
N3850 G1 X21.4393 Y23.6672
N3855 G1 X21.4383 Y23.6713
N3860 G1 X21.4103 Y23.7855
N3865 G1 X21.4095 Y23.7888
N3870 G1 X21.3835 Y23.9013
N3875 G1 X21.3828 Y23.9045
N3880 G1 X21.3352 Y24.1250
N3885 G1 X21.3350 Y24.1262
N3890 G1 X21.2900 Y24.3397
N3895 G1 X21.2445 Y24.5443
N3900 G1 X21.2213 Y24.6408
N3905 G1 X21.1973 Y24.7335
N3910 G1 X21.1725 Y24.8212
N3915 G1 X21.1475 Y24.9028
N3920 G1 X21.1220 Y24.9770
N3925 G1 X21.0970 Y25.0428
N3930 G1 X21.0725 Y25.0987
N3935 G1 X21.0493 Y25.1445
N3940 G1 X21.0272 Y25.1807
N3945 G1 X21.0070 Y25.2090
N3950 G1 X20.9862 Y25.2325
N3955 G1 X20.9615 Y25.2560
N3960 G1 X20.9292 Y25.2830
N3965 G1 X20.8878 Y25.3148
N3970 G1 X20.8365 Y25.3525
N3975 G1 X20.7778 Y25.3953
N3980 G1 X20.7772 Y25.3957
N3985 G1 X20.7117 Y25.4438
N3990 G1 X20.7110 Y25.4443
N3995 G1 X20.6403 Y25.4965
N4000 G1 X20.5663 Y25.5508
N4005 G1 X20.4910 Y25.6040
N4010 G1 X20.4178 Y25.6525
N4015 G1 X20.3478 Y25.6935
N4020 G1 X20.3188 Y25.7085
N4025 G1 X20.2910 Y25.7213
N4030 G1 X20.2682 Y25.7300
N4035 G1 X20.2505 Y25.7353
N4040 G1 X20.2473 Y25.7360
N4045 G1 X20.2437 Y25.7303
N4050 G1 X20.2342 Y25.7120
N4055 G1 X20.2243 Y25.6880
N4060 G1 X20.2138 Y25.6590
N4065 G1 X20.2040 Y25.6270
N4070 G1 X20.1842 Y25.5463
N4075 G1 X20.1675 Y25.4580
N4080 G1 X20.1522 Y25.3640
N4085 G1 X20.1382 Y25.2677
N4090 G1 X20.1247 Y25.1735
N4095 G1 X20.1242 Y25.1710
N4100 G1 X20.1105 Y25.0810
N4105 G1 X20.1095 Y25.0763
N4110 G1 X20.0948 Y24.9913
N4115 G1 X20.0935 Y24.9850
N4120 G1 X20.0775 Y24.9040
N4125 G1 X20.0760 Y24.8972
N4130 G1 X20.0580 Y24.8193
N4135 G1 X20.0557 Y24.8100
N4140 G1 X20.0143 Y24.6567
N4145 G1 X20.0125 Y24.6505
N4150 G1 X19.9887 Y24.5715
N4155 G1 X19.9885 Y24.5700
N4160 G1 X19.9630 Y24.4865
N4165 G1 X19.9360 Y24.3980
N4170 G1 X19.9078 Y24.3032
N4175 G1 X19.8777 Y24.2007
N4180 G1 X19.8465 Y24.0900
N4185 G1 X19.8137 Y23.9707
N4190 G1 X19.7797 Y23.8430
N4195 G1 X19.7443 Y23.7070
N4200 G1 X19.7075 Y23.5637
N4205 G1 X19.6698 Y23.4140
N4210 G1 X19.6307 Y23.2590
N4215 G1 X19.5910 Y23.0998
N4220 G1 X19.5502 Y22.9375
N4225 G1 X19.5500 Y22.9370
N4230 G1 X19.4672 Y22.6092
N4235 G1 X19.4670 Y22.6080
N4240 G1 X19.3830 Y22.2835
N4245 G1 X19.3828 Y22.2823
N4250 G1 X19.3410 Y22.1238
N4255 G1 Y22.1230
N4260 G1 X19.2995 Y21.9680
N4265 G1 Y21.9672
N4270 G1 X19.2587 Y21.8163
N4275 G1 Y21.8160
N4280 G1 X19.2192 Y21.6695
N4285 G1 X19.1807 Y21.5280
N4290 G1 X19.1440 Y21.3920
N4295 G1 X19.1090 Y21.2620
N4300 G1 X19.0760 Y21.1378
N4305 G1 X19.0450 Y21.0195
N4310 G1 X19.0160 Y20.9070
N4315 G1 X18.9895 Y20.8000
N4320 G1 X18.9647 Y20.6985
N4325 G1 X18.9420 Y20.6017
N4330 G1 X18.9208 Y20.5093
N4335 G1 X18.9007 Y20.4208
N4340 G1 X18.8818 Y20.3355
N4345 G1 X18.8815 Y20.3350
N4350 G1 X18.8630 Y20.2533
N4355 G1 X18.8627 Y20.2518
N4360 G1 X18.8442 Y20.1732
N4365 G1 X18.8435 Y20.1700
N4370 G1 X18.8065 Y20.0203
N4375 G1 X18.8053 Y20.0158
N4380 G1 X18.7295 Y19.7323
N4385 G1 X18.7138 Y19.6665
N4390 G1 X18.7003 Y19.6013
N4395 G1 X18.6900 Y19.5365
N4400 G1 X18.6830 Y19.4713
N4405 G1 X18.6800 Y19.4050
N4410 G1 X18.6815 Y19.3373
N4415 G1 X18.6878 Y19.2677
N4420 G1 X18.6992 Y19.1970
N4425 G1 X18.7157 Y19.1265
N4430 G1 X18.7370 Y19.0572
N4435 G1 X18.7628 Y18.9917
N4440 G1 X18.7918 Y18.9315
N4445 G1 X18.8230 Y18.8790
N4450 G1 X18.8550 Y18.8352
N4455 G1 X18.8885 Y18.7982
N4460 G1 X18.9005 Y18.7873
N4465 G1 X18.9110 Y18.7785
N4470 G1 X18.9405 Y18.7593
N4475 G1 X18.9653 Y18.7480
N4480 G1 X18.9907 Y18.7402
N4485 G1 X19.0195 Y18.7355
N4490 G1 X19.0525 Y18.7338
N4495 G1 X19.0895 Y18.7357
N4500 G1 X19.1295 Y18.7410
N4505 G1 X19.1713 Y18.7500
N4510 G1 X19.2127 Y18.7625
N4515 G1 X19.2538 Y18.7780
N4520 G1 X19.2940 Y18.7972
N4525 G1 X19.3335 Y18.8205
N4530 G1 X19.3738 Y18.8487
N4535 G1 X19.4148 Y18.8830
N4540 G1 X19.4570 Y18.9240
N4545 G1 X19.5008 Y18.9720
N4550 G1 X19.5458 Y19.0267
N4555 G1 X19.5910 Y19.0862
N4560 G1 X19.6860 Y19.2192
N4565 G1 X19.7327 Y19.2850
N4570 G1 X19.7360 Y19.2892
N4575 G1 X19.7820 Y19.3513
N4580 G1 X19.7888 Y19.3597
N4585 G1 X19.8343 Y19.4157
N4590 G1 X19.8463 Y19.4295
N4595 G1 X19.8917 Y19.4778
N4600 G1 X19.9118 Y19.4967
N4605 G1 X19.9578 Y19.5360
N4610 G1 X19.9805 Y19.5530
N4615 G1 X20.0040 Y19.5688
N4620 G1 X20.0235 Y19.5805
N4625 G1 X20.0472 Y19.5935
N4630 G1 X20.0710 Y19.6050
N4635 G1 X20.0953 Y19.6150
N4640 G1 X20.1223 Y19.6245
N4645 G1 X20.1470 Y19.6315
N4650 G1 X20.1762 Y19.6380
N4655 G1 X20.2015 Y19.6420
N4660 G1 X20.2318 Y19.6450
N4665 G1 X20.2575 Y19.6460
N4670 G1 X20.2870 Y19.6453
N4675 G1 X20.3135 Y19.6430
N4680 G1 X20.3405 Y19.6393
N4685 G1 X20.3678 Y19.6340
N4690 G1 X20.3915 Y19.6283
N4695 G1 X20.4195 Y19.6200
N4700 G1 X20.4398 Y19.6130
N4705 G1 X20.4685 Y19.6017
N4710 G1 X20.4855 Y19.5942
N4715 G1 X20.5150 Y19.5800
N4720 G1 X20.5285 Y19.5730
N4725 G1 X20.5587 Y19.5560
N4730 G1 X20.5748 Y19.5463
N4735 G1 X20.6370 Y19.5048
N4740 G1 X20.6522 Y19.4940
N4745 G1 X20.7168 Y19.4438
N4750 G1 X20.7270 Y19.4352
N4755 G1 X20.7933 Y19.3780
N4760 G1 X20.8000 Y19.3720
N4765 G1 X20.8672 Y19.3092
N4770 G1 X20.8720 Y19.3047
N4775 G1 X20.9395 Y19.2385
N4780 G1 X20.9445 Y19.2335
N4785 G1 X21.0753 Y19.0975
N4790 G1 X21.0798 Y19.0927
N4795 G1 X21.1410 Y19.0255
N4800 G1 X21.1450 Y19.0210
N4805 G1 X21.2018 Y18.9555
N4810 G1 X21.2075 Y18.9488
N4815 G1 X21.2587 Y18.8852
N4820 G1 X21.2670 Y18.8747
N4825 G1 X21.3117 Y18.8130
N4830 G1 X21.3223 Y18.7972
N4835 G1 X21.3592 Y18.7368
N4840 G1 X21.3717 Y18.7140
N4845 G1 X21.4005 Y18.6540
N4850 G1 X21.4070 Y18.6390
N4855 G1 X21.4127 Y18.6238
N4860 G1 X21.4322 Y18.5635
N4865 G1 X21.4375 Y18.5455
N4870 G1 X21.4413 Y18.5272
N4875 G1 X21.4515 Y18.4662
N4880 G1 X21.4540 Y18.4468
N4885 G1 X21.4550 Y18.4275
N4890 G1 X21.4555 Y18.3650
N4895 G1 X21.4552 Y18.3470
N4900 G1 X21.4533 Y18.3290
N4905 G1 X21.4447 Y18.2647
N4910 G1 X21.4387 Y18.2342
N4915 G1 X21.4213 Y18.1683
N4920 G1 X21.4138 Y18.1445
N4925 G1 X21.3885 Y18.0768
N4930 G1 X21.3807 Y18.0583
N4935 G1 X21.3485 Y17.9892
N4940 G1 X21.3415 Y17.9755
N4945 G1 X21.3035 Y17.9058
N4950 G1 X21.2972 Y17.8950
N4955 G1 X21.2545 Y17.8253
N4960 G1 X21.2490 Y17.8165
N4965 G1 X21.2028 Y17.7473
N4970 G1 X21.1977 Y17.7400
N4975 G1 X21.1485 Y17.6717
N4980 G1 X21.1438 Y17.6653
N4985 G1 X21.0922 Y17.5985
N4990 G1 X21.0873 Y17.5922
N4995 G1 X21.0338 Y17.5272
N5000 G1 X21.0285 Y17.5210
N5005 G1 X20.9728 Y17.4578
N5010 G1 X20.9668 Y17.4513
N5015 G1 X20.9088 Y17.3897
N5020 G1 X20.9022 Y17.3833
N5025 G1 X20.8418 Y17.3235
N5030 G1 X20.8345 Y17.3167
N5035 G1 X20.7707 Y17.2590
N5040 G1 X20.7632 Y17.2525
N5045 G1 X20.6960 Y17.1962
N5050 G1 X20.6885 Y17.1900
N5055 G1 X20.6175 Y17.1352
N5060 G1 X20.6103 Y17.1298
N5065 G1 X20.5358 Y17.0765
N5070 G1 X20.5285 Y17.0715
N5075 G1 X20.4507 Y17.0197
N5080 G1 X20.4443 Y17.0155
N5085 G1 X20.3637 Y16.9657
N5090 G1 X20.3575 Y16.9620
N5095 G1 X20.2757 Y16.9145
N5100 G1 X20.2700 Y16.9112
N5105 G1 X20.1880 Y16.8665
N5110 G1 X20.1825 Y16.8635
N5115 G1 X20.1017 Y16.8220
N5120 G1 X20.0963 Y16.8193
N5125 G1 X20.0182 Y16.7815
N5130 G1 X20.0125 Y16.7790
N5135 G1 X19.9575 Y16.7540
N5140 G1 X20.0125 Y16.7290
N5145 G1 X20.0182 Y16.7263
N5150 G1 X20.0963 Y16.6887
N5155 G1 X20.1017 Y16.6860
N5160 G1 X20.1825 Y16.6445
N5165 G1 X20.1880 Y16.6415
N5170 G1 X20.2700 Y16.5968
N5175 G1 X20.2757 Y16.5935
N5180 G1 X20.3577 Y16.5458
N5185 G1 X20.3637 Y16.5422
N5190 G1 X20.4443 Y16.4922
N5195 G1 X20.4507 Y16.4880
N5200 G1 X20.5285 Y16.4365
N5205 G1 X20.5358 Y16.4315
N5210 G1 X20.6103 Y16.3783
N5215 G1 X20.6175 Y16.3727
N5220 G1 X20.6885 Y16.3178
N5225 G1 X20.6960 Y16.3117
N5230 G1 X20.7632 Y16.2555
N5235 G1 X20.7707 Y16.2490
N5240 G1 X20.8345 Y16.1910
N5245 G1 X20.8418 Y16.1842
N5250 G1 X20.9022 Y16.1247
N5255 G1 X20.9088 Y16.1180
N5260 G1 X20.9668 Y16.0568
N5265 G1 X20.9728 Y16.0502
N5270 G1 X21.0282 Y15.9870
N5275 G1 X21.0338 Y15.9808
N5280 G1 X21.0873 Y15.9157
N5285 G1 X21.0922 Y15.9095
N5290 G1 X21.1438 Y15.8428
N5295 G1 X21.1485 Y15.8362
N5300 G1 X21.1977 Y15.7677
N5305 G1 X21.2028 Y15.7607
N5310 G1 X21.2490 Y15.6915
N5315 G1 X21.2545 Y15.6828
N5320 G1 X21.2972 Y15.6130
N5325 G1 X21.3035 Y15.6022
N5330 G1 X21.3415 Y15.5325
N5335 G1 X21.3485 Y15.5185
N5340 G1 X21.3807 Y15.4495
N5345 G1 X21.3885 Y15.4313
N5350 G1 X21.4138 Y15.3635
N5355 G1 X21.4213 Y15.3398
N5360 G1 X21.4387 Y15.2735
N5365 G1 X21.4447 Y15.2432
N5370 G1 X21.4533 Y15.1790
N5375 G1 X21.4552 Y15.1610
N5380 G1 X21.4555 Y15.1430
N5385 G1 X21.4550 Y15.0805
N5390 G1 X21.4540 Y15.0610
N5395 G1 X21.4515 Y15.0418
N5400 G1 X21.4413 Y14.9808
N5405 G1 X21.4375 Y14.9625
N5410 G1 X21.4322 Y14.9443
N5415 G1 X21.4127 Y14.8842
N5420 G1 X21.4070 Y14.8690
N5425 G1 X21.4005 Y14.8540
N5430 G1 X21.3717 Y14.7940
N5435 G1 X21.3592 Y14.7713
N5440 G1 X21.3223 Y14.7108
N5445 G1 X21.3117 Y14.6950
N5450 G1 X21.2670 Y14.6333
N5455 G1 X21.2587 Y14.6225
N5460 G1 X21.2075 Y14.5590
N5465 G1 X21.2018 Y14.5523
N5470 G1 X21.1450 Y14.4870
N5475 G1 X21.1410 Y14.4825
N5480 G1 X21.0798 Y14.4153
N5485 G1 X21.0753 Y14.4105
N5490 G1 X20.9445 Y14.2745
N5495 G1 X20.9395 Y14.2695
N5500 G1 X20.8720 Y14.2033
N5505 G1 X20.8672 Y14.1988
N5510 G1 X20.8000 Y14.1360
N5515 G1 X20.7933 Y14.1300
N5520 G1 X20.7270 Y14.0725
N5525 G1 X20.7168 Y14.0642
N5530 G1 X20.6522 Y14.0140
N5535 G1 X20.6370 Y14.0032
N5540 G1 X20.5748 Y13.9618
N5545 G1 X20.5587 Y13.9520
N5550 G1 X20.5285 Y13.9350
N5555 G1 X20.5147 Y13.9277
N5560 G1 X20.4853 Y13.9138
N5565 G1 X20.4685 Y13.9062
N5570 G1 X20.4400 Y13.8950
N5575 G1 X20.4195 Y13.8880
N5580 G1 X20.3915 Y13.8797
N5585 G1 X20.3678 Y13.8737
N5590 G1 X20.3405 Y13.8685
N5595 G1 X20.3133 Y13.8648
N5600 G1 X20.2870 Y13.8628
N5605 G1 X20.2578 Y13.8620
N5610 G1 X20.2320 Y13.8630
N5615 G1 X20.2015 Y13.8660
N5620 G1 X20.1762 Y13.8700
N5625 G1 X20.1470 Y13.8765
N5630 G1 X20.1223 Y13.8835
N5635 G1 X20.0950 Y13.8930
N5640 G1 X20.0708 Y13.9032
N5645 G1 X20.0475 Y13.9142
N5650 G1 X20.0237 Y13.9273
N5655 G1 X20.0040 Y13.9392
N5660 G1 X19.9805 Y13.9548
N5665 G1 X19.9578 Y13.9720
N5670 G1 X19.9118 Y14.0113
N5675 G1 X19.8917 Y14.0303
N5680 G1 X19.8463 Y14.0785
N5685 G1 X19.8343 Y14.0922
N5690 G1 X19.7888 Y14.1483
N5695 G1 X19.7820 Y14.1568
N5700 G1 X19.7360 Y14.2188
N5705 G1 X19.7327 Y14.2230
N5710 G1 X19.6860 Y14.2888
N5715 G1 X19.5910 Y14.4215
N5720 G1 X19.5458 Y14.4812
N5725 G1 X19.5008 Y14.5360
N5730 G1 X19.4570 Y14.5840
N5735 G1 X19.4148 Y14.6250
N5740 G1 X19.3738 Y14.6593
N5745 G1 X19.3335 Y14.6875
N5750 G1 X19.2937 Y14.7108
N5755 G1 X19.2538 Y14.7300
N5760 G1 X19.2130 Y14.7455
N5765 G1 X19.1713 Y14.7577
N5770 G1 X19.1295 Y14.7668
N5775 G1 X19.0895 Y14.7722
N5780 G1 X19.0525 Y14.7743
N5785 G1 X19.0195 Y14.7725
N5790 G1 X18.9907 Y14.7677
N5795 G1 X18.9653 Y14.7600
N5800 G1 X18.9405 Y14.7485
N5805 G1 X18.9110 Y14.7293
N5810 G1 X18.9005 Y14.7208
N5815 G1 X18.8885 Y14.7097
N5820 G1 X18.8550 Y14.6728
N5825 G1 X18.8230 Y14.6290
N5830 G1 X18.7918 Y14.5762
N5835 G1 X18.7628 Y14.5162
N5840 G1 X18.7370 Y14.4505
N5845 G1 X18.7157 Y14.3815
N5850 G1 X18.6992 Y14.3108
N5855 G1 X18.6878 Y14.2402
N5860 G1 X18.6815 Y14.1707
N5865 G1 X18.6800 Y14.1030
N5870 G1 X18.6830 Y14.0367
N5875 G1 X18.6900 Y13.9715
N5880 G1 X18.7003 Y13.9068
N5885 G1 X18.7138 Y13.8415
N5890 G1 X18.7295 Y13.7758
N5895 G1 X18.8053 Y13.4920
N5900 G1 X18.8065 Y13.4878
N5905 G1 X18.8435 Y13.3380
N5910 G1 X18.8442 Y13.3345
N5915 G1 X18.8627 Y13.2560
N5920 G1 X18.8630 Y13.2545
N5925 G1 X18.8815 Y13.1730
N5930 G1 X18.8818 Y13.1725
N5935 G1 X18.9007 Y13.0872
N5940 G1 X18.9208 Y12.9985
N5945 G1 X18.9420 Y12.9062
N5950 G1 X18.9647 Y12.8095
N5955 G1 X18.9895 Y12.7078
N5960 G1 X19.0160 Y12.6010
N5965 G1 X19.0450 Y12.4885
N5970 G1 X19.0760 Y12.3703
N5975 G1 X19.1090 Y12.2460
N5980 G1 X19.1440 Y12.1158
N5985 G1 X19.1807 Y11.9800
N5990 G1 X19.2192 Y11.8387
N5995 G1 X19.2587 Y11.6920
N6000 G1 Y11.6915
N6005 G1 X19.2995 Y11.5405
N6010 G1 Y11.5400
N6015 G1 X19.3410 Y11.3850
N6020 G1 Y11.3842
N6025 G1 X19.3828 Y11.2255
N6030 G1 X19.3830 Y11.2245
N6035 G1 X19.4670 Y10.9000
N6040 G1 X19.4672 Y10.8987
N6045 G1 X19.5500 Y10.5710
N6050 G1 X19.5502 Y10.5705
N6055 G1 X19.5907 Y10.4083
N6060 G1 X19.6307 Y10.2490
N6065 G1 X19.6698 Y10.0938
N6070 G1 X19.7075 Y9.9443
N6075 G1 X19.7443 Y9.8010
N6080 G1 X19.7797 Y9.6650
N6085 G1 X19.8137 Y9.5373
N6090 G1 X19.8465 Y9.4177
N6095 G1 X19.8777 Y9.3072
N6100 G1 X19.9078 Y9.2048
N6105 G1 X19.9360 Y9.1100
N6110 G1 X19.9630 Y9.0213
N6115 G1 X19.9885 Y8.9380
N6120 G1 X19.9887 Y8.9365
N6125 G1 X20.0125 Y8.8573
N6130 G1 X20.0143 Y8.8513
N6135 G1 X20.0557 Y8.6980
N6140 G1 X20.0580 Y8.6888
N6145 G1 X20.0760 Y8.6107
N6150 G1 X20.0772 Y8.6040
N6155 G1 X20.0935 Y8.5230
N6160 G1 X20.0948 Y8.5168
N6165 G1 X20.1097 Y8.4315
N6170 G1 X20.1105 Y8.4270
N6175 G1 X20.1242 Y8.3370
N6180 G1 X20.1247 Y8.3345
N6185 G1 X20.1382 Y8.2400
N6190 G1 X20.1522 Y8.1440
N6195 G1 X20.1675 Y8.0497
N6200 G1 X20.1842 Y7.9618
N6205 G1 X20.2040 Y7.8807
N6210 G1 X20.2138 Y7.8490
N6215 G1 X20.2243 Y7.8197
N6220 G1 X20.2342 Y7.7960
N6225 G1 X20.2435 Y7.7780
N6230 G1 X20.2473 Y7.7720
N6235 G1 X20.2500 Y7.7725
N6240 G1 X20.2682 Y7.7780
N6245 G1 X20.2915 Y7.7870
N6250 G1 X20.3188 Y7.7992
N6255 G1 X20.3475 Y7.8143
N6260 G1 X20.4180 Y7.8557
N6265 G1 X20.4910 Y7.9040
N6270 G1 X20.5663 Y7.9573
N6275 G1 X20.6403 Y8.0115
N6280 G1 X20.7112 Y8.0638
N6285 G1 X20.7115 Y8.0640
N6290 G1 X20.7770 Y8.1122
N6295 G1 X20.7778 Y8.1128
N6300 G1 X20.8367 Y8.1557
N6305 G1 X20.8878 Y8.1933
N6310 G1 X20.9292 Y8.2250
N6315 G1 X20.9615 Y8.2517
N6320 G1 X20.9862 Y8.2752
N6325 G1 X21.0070 Y8.2993
N6330 G1 X21.0275 Y8.3272
N6335 G1 X21.0493 Y8.3635
N6340 G1 X21.0725 Y8.4093
N6345 G1 X21.0970 Y8.4652
N6350 G1 X21.1220 Y8.5310
N6355 G1 X21.1475 Y8.6052
N6360 G1 X21.1725 Y8.6867
N6365 G1 X21.1973 Y8.7745
N6370 G1 X21.2213 Y8.8673
N6375 G1 X21.2445 Y8.9635
N6380 G1 X21.2900 Y9.1683
N6385 G1 X21.3350 Y9.3818
N6390 G1 X21.3352 Y9.3830
N6395 G1 X21.3828 Y9.6032
N6400 G1 X21.3835 Y9.6067
N6405 G1 X21.4095 Y9.7190
N6410 G1 X21.4103 Y9.7225
N6415 G1 X21.4383 Y9.8365
N6420 G1 X21.4393 Y9.8407
N6425 G1 X21.4698 Y9.9567
N6430 G1 X21.4710 Y9.9615
N6435 G1 X21.5048 Y10.0798
N6440 G1 X21.5063 Y10.0850
N6445 G1 X21.5435 Y10.2055
N6450 G1 X21.5455 Y10.2110
N6455 G1 X21.5867 Y10.3345
N6460 G1 X21.5885 Y10.3400
N6465 G1 X21.6343 Y10.4663
N6470 G1 X21.6363 Y10.4718
N6475 G1 X21.6865 Y10.6013
N6480 G1 X21.6887 Y10.6065
N6485 G1 X21.7437 Y10.7393
N6490 G1 X21.7460 Y10.7445
N6495 G1 X21.8060 Y10.8805
N6500 G1 X21.8083 Y10.8855
N6505 G1 X21.8735 Y11.0252
N6510 G1 X21.8758 Y11.0297
N6515 G1 X21.9462 Y11.1730
N6520 G1 X21.9485 Y11.1773
N6525 G1 X22.0242 Y11.3242
N6530 G1 X22.0263 Y11.3283
N6535 G1 X22.1073 Y11.4785
N6540 G1 X22.1095 Y11.4823
N6545 G1 X22.1397 Y11.5365
N6550 G1 Z-2.3330 F1000
N6555 G1 X22.1958 Y11.6360 F2000
N6560 G1 X22.1977 Y11.6395
N6565 G1 X22.2892 Y11.7963
N6570 G1 X22.2915 Y11.7997
N6575 G1 X22.3882 Y11.9593
N6580 G1 X22.3903 Y11.9627
N6585 G1 X22.4922 Y12.1248
N6590 G1 X22.4943 Y12.1282
N6595 G1 X22.6013 Y12.2925
N6600 G1 X22.6035 Y12.2960
N6605 G1 X22.7155 Y12.4615
N6610 G1 X22.7180 Y12.4652
N6615 G1 X22.8347 Y12.6320
N6620 G1 X22.8375 Y12.6357
N6625 G1 X22.9595 Y12.8027
N6630 G1 X22.9625 Y12.8067
N6635 G1 X23.0892 Y12.9733
N6640 G1 X23.0925 Y12.9778
N6645 G1 X23.2243 Y13.1430
N6650 G1 X23.2278 Y13.1475
N6655 G1 X23.3642 Y13.3110
N6660 G1 X23.3682 Y13.3155
N6665 G1 X23.5093 Y13.4763
N6670 G1 X23.5132 Y13.4810
N6675 G1 X23.6585 Y13.6387
N6680 G1 X23.6630 Y13.6433
N6685 G1 X23.7650 Y13.7485
N6690 G1 Z-2.0000
N6695 G1 X23.8122 Y13.7973
N6700 G1 X23.8165 Y13.8018
N6705 G1 X23.9695 Y13.9515
N6710 G1 X23.9740 Y13.9558
N6715 G1 X24.1298 Y14.1013
N6720 G1 X24.1343 Y14.1055
N6725 G1 X24.2928 Y14.2462
N6730 G1 X24.2972 Y14.2500
N6735 G1 X24.4578 Y14.3860
N6740 G1 X24.4623 Y14.3897
N6745 G1 X24.5035 Y14.4228
N6750 G1 Z-2.3330 F1000
N6755 G1 X24.6245 Y14.5203 F2000
N6760 G1 X24.6288 Y14.5237
N6765 G1 X24.7918 Y14.6493
N6770 G1 X24.7963 Y14.6525
N6775 G1 X24.9595 Y14.7725
N6780 G1 X24.9638 Y14.7755
N6785 G1 X25.1270 Y14.8902
N6790 G1 X25.1313 Y14.8933
N6795 G1 X25.2937 Y15.0025
N6800 G1 X25.2975 Y15.0050
N6805 G1 X25.4585 Y15.1092
N6810 G1 X25.4625 Y15.1118
N6815 G1 X25.6220 Y15.2108
N6820 G1 X25.6255 Y15.2130
N6825 G1 X25.7828 Y15.3070
N6830 G1 X25.7862 Y15.3090
N6835 G1 X25.9413 Y15.3983
N6840 G1 X25.9443 Y15.4000
N6845 G1 X26.0960 Y15.4845
N6850 G1 X26.0990 Y15.4863
N6855 G1 X26.2477 Y15.5665
N6860 G1 X26.2510 Y15.5680
N6865 G1 X26.3968 Y15.6440
N6870 G1 X26.3990 Y15.6453
N6875 G1 X26.5410 Y15.7175
N6880 G1 X26.5437 Y15.7188
N6885 G1 X26.6827 Y15.7873
N6890 G1 X26.6848 Y15.7882
N6895 G1 X26.8203 Y15.8535
N6900 G1 X26.8225 Y15.8547
N6905 G1 X26.9550 Y15.9168
N6910 G1 X26.9570 Y15.9177
N6915 G1 X27.0865 Y15.9772
N6920 G1 X27.0885 Y15.9780
N6925 G1 X27.2155 Y16.0350
N6930 G1 X27.2172 Y16.0358
N6935 G1 X27.3420 Y16.0905
N6940 G1 X27.3438 Y16.0912
N6945 G1 X27.4665 Y16.1440
N6950 G1 X27.4695 Y16.1455
N6955 G1 X27.7117 Y16.2458
N6960 G1 X27.7162 Y16.2475
N6965 G1 X27.9572 Y16.3420
N6970 G1 X27.9627 Y16.3442
N6975 G1 X28.2078 Y16.4335
N6980 G1 X28.2132 Y16.4355
N6985 G1 X28.3392 Y16.4782
N6990 G1 X28.3433 Y16.4795
N6995 G1 X28.4722 Y16.5207
N7000 G1 X28.4770 Y16.5222
N7005 G1 X28.6100 Y16.5617
N7010 G1 X28.6150 Y16.5633
N7015 G1 X28.7525 Y16.6013
N7020 G1 X28.7580 Y16.6025
N7025 G1 X28.9005 Y16.6385
N7030 G1 X28.9060 Y16.6397
N7035 G1 X29.0540 Y16.6735
N7040 G1 X29.0598 Y16.6747
N7045 G1 X29.2132 Y16.7060
N7050 G1 X29.2192 Y16.7070
N7055 G1 X29.3783 Y16.7353
N7060 G1 X29.3840 Y16.7362
N7065 G1 X29.4990 Y16.7540
N7070 G1 X29.3840 Y16.7715
N7075 G1 X29.3783 Y16.7725
N7080 G1 X29.2192 Y16.8010
N7085 G1 X29.2132 Y16.8020
N7090 G1 X29.0598 Y16.8332
N7095 G1 X29.0540 Y16.8345
N7100 G1 X28.9060 Y16.8680
N7105 G1 X28.9005 Y16.8695
N7110 G1 X28.7580 Y16.9052
N7115 G1 X28.7525 Y16.9067
N7120 G1 X28.6150 Y16.9447
N7125 G1 X28.6100 Y16.9460
N7130 G1 X28.4770 Y16.9857
N7135 G1 X28.4722 Y16.9872
N7140 G1 X28.3433 Y17.0285
N7145 G1 X28.3392 Y17.0297
N7150 G1 X28.2132 Y17.0725
N7155 G1 X28.2078 Y17.0745
N7160 G1 X27.9627 Y17.1638
N7165 G1 X27.9572 Y17.1657
N7170 G1 X27.7162 Y17.2605
N7175 G1 X27.7117 Y17.2623
N7180 G1 X27.4695 Y17.3625
N7185 G1 X27.4665 Y17.3637
N7190 G1 X27.3438 Y17.4165
N7195 G1 X27.3420 Y17.4172
N7200 G1 X27.2172 Y17.4720
N7205 G1 X27.2155 Y17.4730
N7210 G1 X27.0885 Y17.5300
N7215 G1 X27.0865 Y17.5308
N7220 G1 X26.9570 Y17.5903
N7225 G1 X26.9550 Y17.5910
N7230 G1 X26.8225 Y17.6532
N7235 G1 X26.8203 Y17.6543
N7240 G1 X26.6848 Y17.7195
N7245 G1 X26.6827 Y17.7205
N7250 G1 X26.5437 Y17.7892
N7255 G1 X26.5410 Y17.7905
N7260 G1 X26.3990 Y17.8627
N7265 G1 X26.3965 Y17.8640
N7270 G1 X26.2508 Y17.9400
N7275 G1 X26.2480 Y17.9415
N7280 G1 X26.0993 Y18.0218
N7285 G1 X26.0960 Y18.0233
N7290 G1 X25.9443 Y18.1080
N7295 G1 X25.9413 Y18.1097
N7300 G1 X25.7862 Y18.1988
N7305 G1 X25.7828 Y18.2010
N7310 G1 X25.6255 Y18.2950
N7315 G1 X25.6220 Y18.2972
N7320 G1 X25.4625 Y18.3962
N7325 G1 X25.4585 Y18.3987
N7330 G1 X25.2975 Y18.5027
N7335 G1 X25.2937 Y18.5053
N7340 G1 X25.1313 Y18.6148
N7345 G1 X25.1270 Y18.6175
N7350 G1 X24.9638 Y18.7323
N7355 G1 X24.9595 Y18.7355
N7360 G1 X24.7963 Y18.8555
N7365 G1 X24.7918 Y18.8588
N7370 G1 X24.6288 Y18.9842
N7375 G1 X24.6242 Y18.9877
N7380 G1 X24.4623 Y19.1182
N7385 G1 X24.4578 Y19.1220
N7390 G1 X24.2972 Y19.2578
N7395 G1 X24.2928 Y19.2617
N7400 G1 X24.1343 Y19.4025
N7405 G1 X24.1298 Y19.4067
N7410 G1 X23.9740 Y19.5520
N7415 G1 X23.9695 Y19.5565
N7420 G1 X23.8165 Y19.7063
N7425 G1 X23.8122 Y19.7108
N7430 G1 X23.6630 Y19.8648
N7435 G1 X23.6588 Y19.8693
N7440 G1 X23.6535 Y19.8750
N7445 G1 Z-2.0000
N7450 G1 X23.5132 Y20.0270
N7455 G1 X23.5093 Y20.0315
N7460 G1 X23.3682 Y20.1923
N7465 G1 X23.3642 Y20.1970
N7470 G1 X23.2278 Y20.3605
N7475 G1 X23.2243 Y20.3650
N7480 G1 X23.0925 Y20.5302
N7485 G1 X23.0892 Y20.5345
N7490 G1 X23.0093 Y20.6397
N7495 G1 Z-2.3330 F1000
N7500 G1 X22.9625 Y20.7013 F2000
N7505 G1 X22.9595 Y20.7052
N7510 G1 X22.8375 Y20.8723
N7515 G1 X22.8347 Y20.8760
N7520 G1 X22.7180 Y21.0428
N7525 G1 X22.7155 Y21.0463
N7530 G1 X22.6035 Y21.2120
N7535 G1 X22.6013 Y21.2155
N7540 G1 X22.4943 Y21.3795
N7545 G1 X22.4922 Y21.3830
N7550 G1 X22.3903 Y21.5452
N7555 G1 X22.3882 Y21.5485
N7560 G1 X22.2915 Y21.7082
N7565 G1 X22.2892 Y21.7117
N7570 G1 X22.1977 Y21.8682
N7575 G1 X22.1958 Y21.8720
N7580 G1 X22.1095 Y22.0257
N7585 G1 X22.1073 Y22.0295
N7590 G1 X22.0263 Y22.1797
N7595 G1 X22.0242 Y22.1837
N7600 G1 X21.9485 Y22.3305
N7605 G1 X21.9462 Y22.3350
N7610 G1 X21.8758 Y22.4782
N7615 G1 X21.8735 Y22.4827
N7620 G1 X21.8083 Y22.6225
N7625 G1 X21.8060 Y22.6273
N7630 G1 X21.7460 Y22.7635
N7635 G1 X21.7437 Y22.7688
N7640 G1 X21.6887 Y22.9015
N7645 G1 X21.6865 Y22.9067
N7650 G1 X21.6363 Y23.0362
N7655 G1 X21.6343 Y23.0418
N7660 G1 X21.5885 Y23.1680
N7665 G1 X21.5867 Y23.1735
N7670 G1 X21.5455 Y23.2967
N7675 G1 X21.5435 Y23.3025
N7680 G1 X21.5063 Y23.4230
N7685 G1 X21.5048 Y23.4282
N7690 G1 X21.4710 Y23.5463
N7695 G1 X21.4698 Y23.5512
N7700 G1 X21.4393 Y23.6672
N7705 G1 X21.4383 Y23.6713
N7710 G1 X21.4103 Y23.7855
N7715 G1 X21.4095 Y23.7888
N7720 G1 X21.3835 Y23.9013
N7725 G1 X21.3828 Y23.9045
N7730 G1 X21.3352 Y24.1250
N7735 G1 X21.3350 Y24.1262
N7740 G1 X21.2900 Y24.3397
N7745 G1 X21.2445 Y24.5443
N7750 G1 X21.2213 Y24.6408
N7755 G1 X21.1973 Y24.7335
N7760 G1 X21.1725 Y24.8212
N7765 G1 X21.1475 Y24.9028
N7770 G1 X21.1220 Y24.9770
N7775 G1 X21.0970 Y25.0428
N7780 G1 X21.0725 Y25.0987
N7785 G1 X21.0493 Y25.1445
N7790 G1 X21.0272 Y25.1807
N7795 G1 X21.0070 Y25.2090
N7800 G1 X20.9862 Y25.2325
N7805 G1 X20.9615 Y25.2560
N7810 G1 X20.9292 Y25.2830
N7815 G1 X20.8878 Y25.3148
N7820 G1 X20.8365 Y25.3525
N7825 G1 X20.7778 Y25.3953
N7830 G1 X20.7772 Y25.3957
N7835 G1 X20.7117 Y25.4438
N7840 G1 X20.7110 Y25.4443
N7845 G1 X20.6403 Y25.4965
N7850 G1 X20.5663 Y25.5508
N7855 G1 X20.4910 Y25.6040
N7860 G1 X20.4178 Y25.6525
N7865 G1 X20.3478 Y25.6935
N7870 G1 X20.3188 Y25.7085
N7875 G1 X20.2910 Y25.7213
N7880 G1 X20.2682 Y25.7300
N7885 G1 X20.2505 Y25.7353
N7890 G1 X20.2473 Y25.7360
N7895 G1 X20.2437 Y25.7303
N7900 G1 X20.2342 Y25.7120
N7905 G1 X20.2243 Y25.6880
N7910 G1 X20.2138 Y25.6590
N7915 G1 X20.2040 Y25.6270
N7920 G1 X20.1842 Y25.5463
N7925 G1 X20.1675 Y25.4580
N7930 G1 X20.1522 Y25.3640
N7935 G1 X20.1382 Y25.2677
N7940 G1 X20.1247 Y25.1735
N7945 G1 X20.1242 Y25.1710
N7950 G1 X20.1105 Y25.0810
N7955 G1 X20.1095 Y25.0763
N7960 G1 X20.0948 Y24.9913
N7965 G1 X20.0935 Y24.9850
N7970 G1 X20.0775 Y24.9040
N7975 G1 X20.0760 Y24.8972
N7980 G1 X20.0580 Y24.8193
N7985 G1 X20.0557 Y24.8100
N7990 G1 X20.0143 Y24.6567
N7995 G1 X20.0125 Y24.6505
N8000 G1 X19.9887 Y24.5715
N8005 G1 X19.9885 Y24.5700
N8010 G1 X19.9630 Y24.4865
N8015 G1 X19.9360 Y24.3980
N8020 G1 X19.9078 Y24.3032
N8025 G1 X19.8777 Y24.2007
N8030 G1 X19.8465 Y24.0900
N8035 G1 X19.8137 Y23.9707
N8040 G1 X19.7797 Y23.8430
N8045 G1 X19.7443 Y23.7070
N8050 G1 X19.7075 Y23.5637
N8055 G1 X19.6698 Y23.4140
N8060 G1 X19.6307 Y23.2590
N8065 G1 X19.5910 Y23.0998
N8070 G1 X19.5502 Y22.9375
N8075 G1 X19.5500 Y22.9370
N8080 G1 X19.5165 Y22.8045
N8085 G1 Z-2.0000
N8090 G1 X19.4672 Y22.6092
N8095 G1 X19.4670 Y22.6080
N8100 G1 X19.3830 Y22.2835
N8105 G1 X19.3828 Y22.2823
N8110 G1 X19.3410 Y22.1238
N8115 G1 Y22.1230
N8120 G1 X19.2995 Y21.9680
N8125 G1 Y21.9672
N8130 G1 X19.2643 Y21.8367
N8135 G1 Z-2.3330 F1000
N8140 G1 X19.2587 Y21.8163 F2000
N8145 G1 Y21.8160
N8150 G1 X19.2192 Y21.6695
N8155 G1 X19.1807 Y21.5280
N8160 G1 X19.1440 Y21.3920
N8165 G1 X19.1090 Y21.2620
N8170 G1 X19.0760 Y21.1378
N8175 G1 X19.0450 Y21.0195
N8180 G1 X19.0160 Y20.9070
N8185 G1 X18.9895 Y20.8000
N8190 G1 X18.9647 Y20.6985
N8195 G1 X18.9420 Y20.6017
N8200 G1 X18.9208 Y20.5093
N8205 G1 X18.9007 Y20.4208
N8210 G1 X18.8818 Y20.3355
N8215 G1 X18.8815 Y20.3350
N8220 G1 X18.8630 Y20.2533
N8225 G1 X18.8627 Y20.2518
N8230 G1 X18.8442 Y20.1732
N8235 G1 X18.8435 Y20.1700
N8240 G1 X18.8065 Y20.0203
N8245 G1 X18.8053 Y20.0158
N8250 G1 X18.7295 Y19.7323
N8255 G1 X18.7138 Y19.6665
N8260 G1 X18.7003 Y19.6013
N8265 G1 X18.6900 Y19.5365
N8270 G1 X18.6830 Y19.4713
N8275 G1 X18.6800 Y19.4050
N8280 G1 X18.6815 Y19.3373
N8285 G1 X18.6878 Y19.2677
N8290 G1 X18.6992 Y19.1970
N8295 G1 X18.7157 Y19.1265
N8300 G1 X18.7370 Y19.0572
N8305 G1 X18.7628 Y18.9917
N8310 G1 X18.7918 Y18.9315
N8315 G1 X18.8230 Y18.8790
N8320 G1 X18.8550 Y18.8352
N8325 G1 X18.8885 Y18.7982
N8330 G1 X18.9005 Y18.7873
N8335 G1 X18.9110 Y18.7785
N8340 G1 X18.9405 Y18.7593
N8345 G1 X18.9653 Y18.7480
N8350 G1 X18.9907 Y18.7402
N8355 G1 X19.0195 Y18.7355
N8360 G1 X19.0525 Y18.7338
N8365 G1 X19.0895 Y18.7357
N8370 G1 X19.1295 Y18.7410
N8375 G1 X19.1713 Y18.7500
N8380 G1 X19.2127 Y18.7625
N8385 G1 X19.2538 Y18.7780
N8390 G1 X19.2940 Y18.7972
N8395 G1 X19.3335 Y18.8205
N8400 G1 X19.3738 Y18.8487
N8405 G1 X19.4148 Y18.8830
N8410 G1 X19.4570 Y18.9240
N8415 G1 X19.5008 Y18.9720
N8420 G1 X19.5458 Y19.0267
N8425 G1 X19.5910 Y19.0862
N8430 G1 X19.6860 Y19.2192
N8435 G1 X19.7327 Y19.2850
N8440 G1 X19.7360 Y19.2892
N8445 G1 X19.7820 Y19.3513
N8450 G1 X19.7888 Y19.3597
N8455 G1 X19.8343 Y19.4157
N8460 G1 X19.8463 Y19.4295
N8465 G1 X19.8917 Y19.4778
N8470 G1 X19.9118 Y19.4967
N8475 G1 X19.9458 Y19.5257
N8480 G1 Z-2.0000
N8485 G1 X19.9578 Y19.5360
N8490 G1 X19.9805 Y19.5530
N8495 G1 X20.0040 Y19.5688
N8500 G1 X20.0235 Y19.5805
N8505 G1 X20.0472 Y19.5935
N8510 G1 X20.0710 Y19.6050
N8515 G1 X20.0953 Y19.6150
N8520 G1 X20.1223 Y19.6245
N8525 G1 X20.1470 Y19.6315
N8530 G1 X20.1762 Y19.6380
N8535 G1 X20.2015 Y19.6420
N8540 G1 X20.2318 Y19.6450
N8545 G1 X20.2575 Y19.6460
N8550 G1 X20.2870 Y19.6453
N8555 G1 X20.3135 Y19.6430
N8560 G1 X20.3405 Y19.6393
N8565 G1 X20.3678 Y19.6340
N8570 G1 X20.3915 Y19.6283
N8575 G1 X20.4195 Y19.6200
N8580 G1 X20.4398 Y19.6130
N8585 G1 X20.4685 Y19.6017
N8590 G1 X20.4855 Y19.5942
N8595 G1 X20.5150 Y19.5800
N8600 G1 X20.5285 Y19.5730
N8605 G1 X20.5587 Y19.5560
N8610 G1 X20.5748 Y19.5463
N8615 G1 X20.6370 Y19.5048
N8620 G1 X20.6522 Y19.4940
N8625 G1 X20.7168 Y19.4438
N8630 G1 X20.7270 Y19.4352
N8635 G1 X20.7933 Y19.3780
N8640 G1 X20.8000 Y19.3720
N8645 G1 X20.8672 Y19.3092
N8650 G1 X20.8720 Y19.3047
N8655 G1 X20.9335 Y19.2443
N8660 G1 Z-2.3330 F1000
N8665 G1 X20.9395 Y19.2385 F2000
N8670 G1 X20.9445 Y19.2335
N8675 G1 X21.0753 Y19.0975
N8680 G1 X21.0798 Y19.0927
N8685 G1 X21.1410 Y19.0255
N8690 G1 X21.1450 Y19.0210
N8695 G1 X21.2018 Y18.9555
N8700 G1 X21.2075 Y18.9488
N8705 G1 X21.2587 Y18.8852
N8710 G1 X21.2670 Y18.8747
N8715 G1 X21.3117 Y18.8130
N8720 G1 X21.3223 Y18.7972
N8725 G1 X21.3592 Y18.7368
N8730 G1 X21.3717 Y18.7140
N8735 G1 X21.4005 Y18.6540
N8740 G1 X21.4070 Y18.6390
N8745 G1 X21.4127 Y18.6238
N8750 G1 X21.4322 Y18.5635
N8755 G1 X21.4375 Y18.5455
N8760 G1 X21.4413 Y18.5272
N8765 G1 X21.4515 Y18.4662
N8770 G1 X21.4540 Y18.4468
N8775 G1 X21.4550 Y18.4275
N8780 G1 X21.4555 Y18.3650
N8785 G1 X21.4552 Y18.3470
N8790 G1 X21.4533 Y18.3290
N8795 G1 X21.4447 Y18.2647
N8800 G1 X21.4387 Y18.2342
N8805 G1 X21.4213 Y18.1683
N8810 G1 X21.4138 Y18.1445
N8815 G1 X21.3885 Y18.0768
N8820 G1 X21.3807 Y18.0583
N8825 G1 X21.3485 Y17.9892
N8830 G1 X21.3415 Y17.9755
N8835 G1 X21.3035 Y17.9058
N8840 G1 X21.2972 Y17.8950
N8845 G1 X21.2545 Y17.8253
N8850 G1 X21.2490 Y17.8165
N8855 G1 X21.2028 Y17.7473
N8860 G1 X21.1977 Y17.7400
N8865 G1 X21.1485 Y17.6717
N8870 G1 X21.1438 Y17.6653
N8875 G1 X21.0922 Y17.5985
N8880 G1 X21.0873 Y17.5922
N8885 G1 X21.0338 Y17.5272
N8890 G1 X21.0285 Y17.5210
N8895 G1 X20.9728 Y17.4578
N8900 G1 X20.9668 Y17.4513
N8905 G1 X20.9088 Y17.3897
N8910 G1 X20.9022 Y17.3833
N8915 G1 X20.8418 Y17.3235
N8920 G1 X20.8345 Y17.3167
N8925 G1 X20.7707 Y17.2590
N8930 G1 X20.7632 Y17.2525
N8935 G1 X20.6960 Y17.1962
N8940 G1 X20.6885 Y17.1900
N8945 G1 X20.6175 Y17.1352
N8950 G1 X20.6103 Y17.1298
N8955 G1 X20.5358 Y17.0765
N8960 G1 X20.5285 Y17.0715
N8965 G1 X20.4507 Y17.0197
N8970 G1 X20.4443 Y17.0155
N8975 G1 X20.3637 Y16.9657
N8980 G1 X20.3575 Y16.9620
N8985 G1 X20.2757 Y16.9145
N8990 G1 X20.2700 Y16.9112
N8995 G1 X20.1880 Y16.8665
N9000 G1 X20.1825 Y16.8635
N9005 G1 X20.1017 Y16.8220
N9010 G1 X20.0963 Y16.8193
N9015 G1 X20.0182 Y16.7815
N9020 G1 X20.0125 Y16.7790
N9025 G1 X19.9575 Y16.7540
N9030 G1 X20.0125 Y16.7290
N9035 G1 X20.0182 Y16.7263
N9040 G1 X20.0963 Y16.6887
N9045 G1 X20.1017 Y16.6860
N9050 G1 X20.1825 Y16.6445
N9055 G1 X20.1880 Y16.6415
N9060 G1 X20.2700 Y16.5968
N9065 G1 X20.2757 Y16.5935
N9070 G1 X20.3577 Y16.5458
N9075 G1 X20.3637 Y16.5422
N9080 G1 X20.4443 Y16.4922
N9085 G1 X20.4507 Y16.4880
N9090 G1 X20.5285 Y16.4365
N9095 G1 X20.5358 Y16.4315
N9100 G1 X20.6103 Y16.3783
N9105 G1 X20.6175 Y16.3727
N9110 G1 X20.6885 Y16.3178
N9115 G1 X20.6960 Y16.3117
N9120 G1 X20.7632 Y16.2555
N9125 G1 X20.7707 Y16.2490
N9130 G1 X20.8345 Y16.1910
N9135 G1 X20.8418 Y16.1842
N9140 G1 X20.9022 Y16.1247
N9145 G1 X20.9088 Y16.1180
N9150 G1 X20.9668 Y16.0568
N9155 G1 X20.9728 Y16.0502
N9160 G1 X21.0282 Y15.9870
N9165 G1 X21.0338 Y15.9808
N9170 G1 X21.0873 Y15.9157
N9175 G1 X21.0922 Y15.9095
N9180 G1 X21.1438 Y15.8428
N9185 G1 X21.1485 Y15.8362
N9190 G1 X21.1977 Y15.7677
N9195 G1 X21.2028 Y15.7607
N9200 G1 X21.2490 Y15.6915
N9205 G1 X21.2545 Y15.6828
N9210 G1 X21.2972 Y15.6130
N9215 G1 X21.3035 Y15.6022
N9220 G1 X21.3415 Y15.5325
N9225 G1 X21.3485 Y15.5185
N9230 G1 X21.3807 Y15.4495
N9235 G1 X21.3885 Y15.4313
N9240 G1 X21.4138 Y15.3635
N9245 G1 X21.4213 Y15.3398
N9250 G1 X21.4387 Y15.2735
N9255 G1 X21.4447 Y15.2432
N9260 G1 X21.4533 Y15.1790
N9265 G1 X21.4552 Y15.1610
N9270 G1 X21.4555 Y15.1430
N9275 G1 X21.4550 Y15.0805
N9280 G1 X21.4540 Y15.0610
N9285 G1 X21.4515 Y15.0418
N9290 G1 X21.4413 Y14.9808
N9295 G1 X21.4375 Y14.9625
N9300 G1 X21.4322 Y14.9443
N9305 G1 X21.4127 Y14.8842
N9310 G1 X21.4070 Y14.8690
N9315 G1 X21.4005 Y14.8540
N9320 G1 X21.3717 Y14.7940
N9325 G1 X21.3592 Y14.7713
N9330 G1 X21.3223 Y14.7108
N9335 G1 X21.3117 Y14.6950
N9340 G1 X21.2670 Y14.6333
N9345 G1 X21.2587 Y14.6225
N9350 G1 X21.2075 Y14.5590
N9355 G1 X21.2018 Y14.5523
N9360 G1 X21.1450 Y14.4870
N9365 G1 X21.1410 Y14.4825
N9370 G1 X21.0798 Y14.4153
N9375 G1 X21.0753 Y14.4105
N9380 G1 X20.9445 Y14.2745
N9385 G1 X20.9395 Y14.2695
N9390 G1 X20.8720 Y14.2033
N9395 G1 X20.8678 Y14.1990
N9400 G1 Z-2.0000
N9405 G1 X20.8672 Y14.1988
N9410 G1 X20.8000 Y14.1360
N9415 G1 X20.7933 Y14.1300
N9420 G1 X20.7270 Y14.0725
N9425 G1 X20.7168 Y14.0642
N9430 G1 X20.6522 Y14.0140
N9435 G1 X20.6370 Y14.0032
N9440 G1 X20.5748 Y13.9618
N9445 G1 X20.5587 Y13.9520
N9450 G1 X20.5285 Y13.9350
N9455 G1 X20.5147 Y13.9277
N9460 G1 X20.4853 Y13.9138
N9465 G1 X20.4685 Y13.9062
N9470 G1 X20.4400 Y13.8950
N9475 G1 X20.4195 Y13.8880
N9480 G1 X20.3915 Y13.8797
N9485 G1 X20.3678 Y13.8737
N9490 G1 X20.3405 Y13.8685
N9495 G1 X20.3133 Y13.8648
N9500 G1 X20.2870 Y13.8628
N9505 G1 X20.2578 Y13.8620
N9510 G1 X20.2320 Y13.8630
N9515 G1 X20.2015 Y13.8660
N9520 G1 X20.1762 Y13.8700
N9525 G1 X20.1470 Y13.8765
N9530 G1 X20.1223 Y13.8835
N9535 G1 X20.0950 Y13.8930
N9540 G1 X20.0708 Y13.9032
N9545 G1 X20.0475 Y13.9142
N9550 G1 X20.0237 Y13.9273
N9555 G1 X20.0040 Y13.9392
N9560 G1 X19.9805 Y13.9548
N9565 G1 X19.9578 Y13.9720
N9570 G1 X19.9118 Y14.0113
N9575 G1 X19.8917 Y14.0303
N9580 G1 X19.8463 Y14.0785
N9585 G1 X19.8418 Y14.0835
N9590 G1 Z-2.3330 F1000
N9595 G1 X19.8343 Y14.0922 F2000
N9600 G1 X19.7888 Y14.1483
N9605 G1 X19.7820 Y14.1568
N9610 G1 X19.7360 Y14.2188
N9615 G1 X19.7327 Y14.2230
N9620 G1 X19.6860 Y14.2888
N9625 G1 X19.5910 Y14.4215
N9630 G1 X19.5458 Y14.4812
N9635 G1 X19.5008 Y14.5360
N9640 G1 X19.4570 Y14.5840
N9645 G1 X19.4148 Y14.6250
N9650 G1 X19.3738 Y14.6593
N9655 G1 X19.3335 Y14.6875
N9660 G1 X19.2937 Y14.7108
N9665 G1 X19.2538 Y14.7300
N9670 G1 X19.2130 Y14.7455
N9675 G1 X19.1713 Y14.7577
N9680 G1 X19.1295 Y14.7668
N9685 G1 X19.0895 Y14.7722
N9690 G1 X19.0525 Y14.7743
N9695 G1 X19.0195 Y14.7725
N9700 G1 X18.9907 Y14.7677
N9705 G1 X18.9653 Y14.7600
N9710 G1 X18.9405 Y14.7485
N9715 G1 X18.9110 Y14.7293
N9720 G1 X18.9005 Y14.7208
N9725 G1 X18.8885 Y14.7097
N9730 G1 X18.8550 Y14.6728
N9735 G1 X18.8230 Y14.6290
N9740 G1 X18.7918 Y14.5762
N9745 G1 X18.7628 Y14.5162
N9750 G1 X18.7370 Y14.4505
N9755 G1 X18.7157 Y14.3815
N9760 G1 X18.6992 Y14.3108
N9765 G1 X18.6878 Y14.2402
N9770 G1 X18.6815 Y14.1707
N9775 G1 X18.6800 Y14.1030
N9780 G1 X18.6830 Y14.0367
N9785 G1 X18.6900 Y13.9715
N9790 G1 X18.7003 Y13.9068
N9795 G1 X18.7138 Y13.8415
N9800 G1 X18.7295 Y13.7758
N9805 G1 X18.8053 Y13.4920
N9810 G1 X18.8065 Y13.4878
N9815 G1 X18.8435 Y13.3380
N9820 G1 X18.8442 Y13.3345
N9825 G1 X18.8627 Y13.2560
N9830 G1 X18.8630 Y13.2545
N9835 G1 X18.8815 Y13.1730
N9840 G1 X18.8818 Y13.1725
N9845 G1 X18.9007 Y13.0872
N9850 G1 X18.9208 Y12.9985
N9855 G1 X18.9420 Y12.9062
N9860 G1 X18.9647 Y12.8095
N9865 G1 X18.9895 Y12.7078
N9870 G1 X19.0160 Y12.6010
N9875 G1 X19.0450 Y12.4885
N9880 G1 X19.0760 Y12.3703
N9885 G1 X19.1090 Y12.2460
N9890 G1 X19.1440 Y12.1158
N9895 G1 X19.1807 Y11.9800
N9900 G1 X19.2192 Y11.8387
N9905 G1 X19.2512 Y11.7197
N9910 G1 Z-2.0000
N9915 G1 X19.2587 Y11.6920
N9920 G1 Y11.6915
N9925 G1 X19.2995 Y11.5405
N9930 G1 Y11.5400
N9935 G1 X19.3410 Y11.3850
N9940 G1 Y11.3842
N9945 G1 X19.3828 Y11.2255
N9950 G1 X19.3830 Y11.2245
N9955 G1 X19.4670 Y10.9000
N9960 G1 X19.4672 Y10.8987
N9965 G1 X19.5042 Y10.7523
N9970 G1 Z-2.3330 F1000
N9975 G1 X19.5500 Y10.5710 F2000
N9980 G1 X19.5502 Y10.5705
N9985 G1 X19.5907 Y10.4083
N9990 G1 X19.6307 Y10.2490
N9995 G1 X19.6698 Y10.0938
N10000 G1 X19.7075 Y9.9443
N10005 G1 X19.7443 Y9.8010
N10010 G1 X19.7797 Y9.6650
N10015 G1 X19.8137 Y9.5373
N10020 G1 X19.8465 Y9.4177
N10025 G1 X19.8777 Y9.3072
N10030 G1 X19.9078 Y9.2048
N10035 G1 X19.9360 Y9.1100
N10040 G1 X19.9630 Y9.0213
N10045 G1 X19.9885 Y8.9380
N10050 G1 X19.9887 Y8.9365
N10055 G1 X20.0125 Y8.8573
N10060 G1 X20.0143 Y8.8513
N10065 G1 X20.0557 Y8.6980
N10070 G1 X20.0580 Y8.6888
N10075 G1 X20.0760 Y8.6107
N10080 G1 X20.0772 Y8.6040
N10085 G1 X20.0935 Y8.5230
N10090 G1 X20.0948 Y8.5168
N10095 G1 X20.1097 Y8.4315
N10100 G1 X20.1105 Y8.4270
N10105 G1 X20.1242 Y8.3370
N10110 G1 X20.1247 Y8.3345
N10115 G1 X20.1382 Y8.2400
N10120 G1 X20.1522 Y8.1440
N10125 G1 X20.1675 Y8.0497
N10130 G1 X20.1842 Y7.9618
N10135 G1 X20.2040 Y7.8807
N10140 G1 X20.2138 Y7.8490
N10145 G1 X20.2243 Y7.8197
N10150 G1 X20.2342 Y7.7960
N10155 G1 X20.2435 Y7.7780
N10160 G1 X20.2473 Y7.7720
N10165 G1 X20.2500 Y7.7725
N10170 G1 X20.2682 Y7.7780
N10175 G1 X20.2915 Y7.7870
N10180 G1 X20.3188 Y7.7992
N10185 G1 X20.3475 Y7.8143
N10190 G1 X20.4180 Y7.8557
N10195 G1 X20.4910 Y7.9040
N10200 G1 X20.5663 Y7.9573
N10205 G1 X20.6403 Y8.0115
N10210 G1 X20.7112 Y8.0638
N10215 G1 X20.7115 Y8.0640
N10220 G1 X20.7770 Y8.1122
N10225 G1 X20.7778 Y8.1128
N10230 G1 X20.8367 Y8.1557
N10235 G1 X20.8878 Y8.1933
N10240 G1 X20.9292 Y8.2250
N10245 G1 X20.9615 Y8.2517
N10250 G1 X20.9862 Y8.2752
N10255 G1 X21.0070 Y8.2993
N10260 G1 X21.0275 Y8.3272
N10265 G1 X21.0493 Y8.3635
N10270 G1 X21.0725 Y8.4093
N10275 G1 X21.0970 Y8.4652
N10280 G1 X21.1220 Y8.5310
N10285 G1 X21.1475 Y8.6052
N10290 G1 X21.1725 Y8.6867
N10295 G1 X21.1973 Y8.7745
N10300 G1 X21.2213 Y8.8673
N10305 G1 X21.2445 Y8.9635
N10310 G1 X21.2900 Y9.1683
N10315 G1 X21.3350 Y9.3818
N10320 G1 X21.3352 Y9.3830
N10325 G1 X21.3828 Y9.6032
N10330 G1 X21.3835 Y9.6067
N10335 G1 X21.4095 Y9.7190
N10340 G1 X21.4103 Y9.7225
N10345 G1 X21.4383 Y9.8365
N10350 G1 X21.4393 Y9.8407
N10355 G1 X21.4698 Y9.9567
N10360 G1 X21.4710 Y9.9615
N10365 G1 X21.5048 Y10.0798
N10370 G1 X21.5063 Y10.0850
N10375 G1 X21.5435 Y10.2055
N10380 G1 X21.5455 Y10.2110
N10385 G1 X21.5867 Y10.3345
N10390 G1 X21.5885 Y10.3400
N10395 G1 X21.6343 Y10.4663
N10400 G1 X21.6363 Y10.4718
N10405 G1 X21.6865 Y10.6013
N10410 G1 X21.6887 Y10.6065
N10415 G1 X21.7437 Y10.7393
N10420 G1 X21.7460 Y10.7445
N10425 G1 X21.8060 Y10.8805
N10430 G1 X21.8083 Y10.8855
N10435 G1 X21.8735 Y11.0252
N10440 G1 X21.8758 Y11.0297
N10445 G1 X21.9462 Y11.1730
N10450 G1 X21.9485 Y11.1773
N10455 G1 X22.0242 Y11.3242
N10460 G1 X22.0263 Y11.3283
N10465 G1 X22.1073 Y11.4785
N10470 G1 X22.1095 Y11.4823
N10475 G1 X22.1397 Y11.5365
N10480 G1 Z-3.5000 F1000
N10485 G1 X22.1958 Y11.6360 F2000
N10490 G1 X22.1977 Y11.6395
N10495 G1 X22.2892 Y11.7963
N10500 G1 X22.2915 Y11.7997
N10505 G1 X22.3882 Y11.9593
N10510 G1 X22.3903 Y11.9627
N10515 G1 X22.4922 Y12.1248
N10520 G1 X22.4943 Y12.1282
N10525 G1 X22.6013 Y12.2925
N10530 G1 X22.6035 Y12.2960
N10535 G1 X22.7155 Y12.4615
N10540 G1 X22.7180 Y12.4652
N10545 G1 X22.8347 Y12.6320
N10550 G1 X22.8375 Y12.6357
N10555 G1 X22.9595 Y12.8027
N10560 G1 X22.9625 Y12.8067
N10565 G1 X23.0892 Y12.9733
N10570 G1 X23.0925 Y12.9778
N10575 G1 X23.2243 Y13.1430
N10580 G1 X23.2278 Y13.1475
N10585 G1 X23.3642 Y13.3110
N10590 G1 X23.3682 Y13.3155
N10595 G1 X23.5093 Y13.4763
N10600 G1 X23.5132 Y13.4810
N10605 G1 X23.6585 Y13.6387
N10610 G1 X23.6630 Y13.6433
N10615 G1 X23.7650 Y13.7485
N10620 G1 Z-2.0000
N10625 G1 X23.8122 Y13.7973
N10630 G1 X23.8165 Y13.8018
N10635 G1 X23.9695 Y13.9515
N10640 G1 X23.9740 Y13.9558
N10645 G1 X24.1298 Y14.1013
N10650 G1 X24.1343 Y14.1055
N10655 G1 X24.2928 Y14.2462
N10660 G1 X24.2972 Y14.2500
N10665 G1 X24.4578 Y14.3860
N10670 G1 X24.4623 Y14.3897
N10675 G1 X24.5035 Y14.4228
N10680 G1 Z-3.5000 F1000
N10685 G1 X24.6245 Y14.5203 F2000
N10690 G1 X24.6288 Y14.5237
N10695 G1 X24.7918 Y14.6493
N10700 G1 X24.7963 Y14.6525
N10705 G1 X24.9595 Y14.7725
N10710 G1 X24.9638 Y14.7755
N10715 G1 X25.1270 Y14.8902
N10720 G1 X25.1313 Y14.8933
N10725 G1 X25.2937 Y15.0025
N10730 G1 X25.2975 Y15.0050
N10735 G1 X25.4585 Y15.1092
N10740 G1 X25.4625 Y15.1118
N10745 G1 X25.6220 Y15.2108
N10750 G1 X25.6255 Y15.2130
N10755 G1 X25.7828 Y15.3070
N10760 G1 X25.7862 Y15.3090
N10765 G1 X25.9413 Y15.3983
N10770 G1 X25.9443 Y15.4000
N10775 G1 X26.0960 Y15.4845
N10780 G1 X26.0990 Y15.4863
N10785 G1 X26.2477 Y15.5665
N10790 G1 X26.2510 Y15.5680
N10795 G1 X26.3968 Y15.6440
N10800 G1 X26.3990 Y15.6453
N10805 G1 X26.5410 Y15.7175
N10810 G1 X26.5437 Y15.7188
N10815 G1 X26.6827 Y15.7873
N10820 G1 X26.6848 Y15.7882
N10825 G1 X26.8203 Y15.8535
N10830 G1 X26.8225 Y15.8547
N10835 G1 X26.9550 Y15.9168
N10840 G1 X26.9570 Y15.9177
N10845 G1 X27.0865 Y15.9772
N10850 G1 X27.0885 Y15.9780
N10855 G1 X27.2155 Y16.0350
N10860 G1 X27.2172 Y16.0358
N10865 G1 X27.3420 Y16.0905
N10870 G1 X27.3438 Y16.0912
N10875 G1 X27.4665 Y16.1440
N10880 G1 X27.4695 Y16.1455
N10885 G1 X27.7117 Y16.2458
N10890 G1 X27.7162 Y16.2475
N10895 G1 X27.9572 Y16.3420
N10900 G1 X27.9627 Y16.3442
N10905 G1 X28.2078 Y16.4335
N10910 G1 X28.2132 Y16.4355
N10915 G1 X28.3392 Y16.4782
N10920 G1 X28.3433 Y16.4795
N10925 G1 X28.4722 Y16.5207
N10930 G1 X28.4770 Y16.5222
N10935 G1 X28.6100 Y16.5617
N10940 G1 X28.6150 Y16.5633
N10945 G1 X28.7525 Y16.6013
N10950 G1 X28.7580 Y16.6025
N10955 G1 X28.9005 Y16.6385
N10960 G1 X28.9060 Y16.6397
N10965 G1 X29.0540 Y16.6735
N10970 G1 X29.0598 Y16.6747
N10975 G1 X29.2132 Y16.7060
N10980 G1 X29.2192 Y16.7070
N10985 G1 X29.3783 Y16.7353
N10990 G1 X29.3840 Y16.7362
N10995 G1 X29.4990 Y16.7540
N11000 G1 X29.3840 Y16.7715
N11005 G1 X29.3783 Y16.7725
N11010 G1 X29.2192 Y16.8010
N11015 G1 X29.2132 Y16.8020
N11020 G1 X29.0598 Y16.8332
N11025 G1 X29.0540 Y16.8345
N11030 G1 X28.9060 Y16.8680
N11035 G1 X28.9005 Y16.8695
N11040 G1 X28.7580 Y16.9052
N11045 G1 X28.7525 Y16.9067
N11050 G1 X28.6150 Y16.9447
N11055 G1 X28.6100 Y16.9460
N11060 G1 X28.4770 Y16.9857
N11065 G1 X28.4722 Y16.9872
N11070 G1 X28.3433 Y17.0285
N11075 G1 X28.3392 Y17.0297
N11080 G1 X28.2132 Y17.0725
N11085 G1 X28.2078 Y17.0745
N11090 G1 X27.9627 Y17.1638
N11095 G1 X27.9572 Y17.1657
N11100 G1 X27.7162 Y17.2605
N11105 G1 X27.7117 Y17.2623
N11110 G1 X27.4695 Y17.3625
N11115 G1 X27.4665 Y17.3637
N11120 G1 X27.3438 Y17.4165
N11125 G1 X27.3420 Y17.4172
N11130 G1 X27.2172 Y17.4720
N11135 G1 X27.2155 Y17.4730
N11140 G1 X27.0885 Y17.5300
N11145 G1 X27.0865 Y17.5308
N11150 G1 X26.9570 Y17.5903
N11155 G1 X26.9550 Y17.5910
N11160 G1 X26.8225 Y17.6532
N11165 G1 X26.8203 Y17.6543
N11170 G1 X26.6848 Y17.7195
N11175 G1 X26.6827 Y17.7205
N11180 G1 X26.5437 Y17.7892
N11185 G1 X26.5410 Y17.7905
N11190 G1 X26.3990 Y17.8627
N11195 G1 X26.3965 Y17.8640
N11200 G1 X26.2508 Y17.9400
N11205 G1 X26.2480 Y17.9415
N11210 G1 X26.0993 Y18.0218
N11215 G1 X26.0960 Y18.0233
N11220 G1 X25.9443 Y18.1080
N11225 G1 X25.9413 Y18.1097
N11230 G1 X25.7862 Y18.1988
N11235 G1 X25.7828 Y18.2010
N11240 G1 X25.6255 Y18.2950
N11245 G1 X25.6220 Y18.2972
N11250 G1 X25.4625 Y18.3962
N11255 G1 X25.4585 Y18.3987
N11260 G1 X25.2975 Y18.5027
N11265 G1 X25.2937 Y18.5053
N11270 G1 X25.1313 Y18.6148
N11275 G1 X25.1270 Y18.6175
N11280 G1 X24.9638 Y18.7323
N11285 G1 X24.9595 Y18.7355
N11290 G1 X24.7963 Y18.8555
N11295 G1 X24.7918 Y18.8588
N11300 G1 X24.6288 Y18.9842
N11305 G1 X24.6242 Y18.9877
N11310 G1 X24.4623 Y19.1182
N11315 G1 X24.4578 Y19.1220
N11320 G1 X24.2972 Y19.2578
N11325 G1 X24.2928 Y19.2617
N11330 G1 X24.1343 Y19.4025
N11335 G1 X24.1298 Y19.4067
N11340 G1 X23.9740 Y19.5520
N11345 G1 X23.9695 Y19.5565
N11350 G1 X23.8165 Y19.7063
N11355 G1 X23.8122 Y19.7108
N11360 G1 X23.6630 Y19.8648
N11365 G1 X23.6588 Y19.8693
N11370 G1 X23.6535 Y19.8750
N11375 G1 Z-2.0000
N11380 G1 X23.5132 Y20.0270
N11385 G1 X23.5093 Y20.0315
N11390 G1 X23.3682 Y20.1923
N11395 G1 X23.3642 Y20.1970
N11400 G1 X23.2278 Y20.3605
N11405 G1 X23.2243 Y20.3650
N11410 G1 X23.0925 Y20.5302
N11415 G1 X23.0892 Y20.5345
N11420 G1 X23.0093 Y20.6397
N11425 G1 Z-3.5000 F1000
N11430 G1 X22.9625 Y20.7013 F2000
N11435 G1 X22.9595 Y20.7052
N11440 G1 X22.8375 Y20.8723
N11445 G1 X22.8347 Y20.8760
N11450 G1 X22.7180 Y21.0428
N11455 G1 X22.7155 Y21.0463
N11460 G1 X22.6035 Y21.2120
N11465 G1 X22.6013 Y21.2155
N11470 G1 X22.4943 Y21.3795
N11475 G1 X22.4922 Y21.3830
N11480 G1 X22.3903 Y21.5452
N11485 G1 X22.3882 Y21.5485
N11490 G1 X22.2915 Y21.7082
N11495 G1 X22.2892 Y21.7117
N11500 G1 X22.1977 Y21.8682
N11505 G1 X22.1958 Y21.8720
N11510 G1 X22.1095 Y22.0257
N11515 G1 X22.1073 Y22.0295
N11520 G1 X22.0263 Y22.1797
N11525 G1 X22.0242 Y22.1837
N11530 G1 X21.9485 Y22.3305
N11535 G1 X21.9462 Y22.3350
N11540 G1 X21.8758 Y22.4782
N11545 G1 X21.8735 Y22.4827
N11550 G1 X21.8083 Y22.6225
N11555 G1 X21.8060 Y22.6273
N11560 G1 X21.7460 Y22.7635
N11565 G1 X21.7437 Y22.7688
N11570 G1 X21.6887 Y22.9015
N11575 G1 X21.6865 Y22.9067
N11580 G1 X21.6363 Y23.0362
N11585 G1 X21.6343 Y23.0418
N11590 G1 X21.5885 Y23.1680
N11595 G1 X21.5867 Y23.1735
N11600 G1 X21.5455 Y23.2967
N11605 G1 X21.5435 Y23.3025
N11610 G1 X21.5063 Y23.4230
N11615 G1 X21.5048 Y23.4282
N11620 G1 X21.4710 Y23.5463
N11625 G1 X21.4698 Y23.5512
N11630 G1 X21.4393 Y23.6672
N11635 G1 X21.4383 Y23.6713
N11640 G1 X21.4103 Y23.7855
N11645 G1 X21.4095 Y23.7888
N11650 G1 X21.3835 Y23.9013
N11655 G1 X21.3828 Y23.9045
N11660 G1 X21.3352 Y24.1250
N11665 G1 X21.3350 Y24.1262
N11670 G1 X21.2900 Y24.3397
N11675 G1 X21.2445 Y24.5443
N11680 G1 X21.2213 Y24.6408
N11685 G1 X21.1973 Y24.7335
N11690 G1 X21.1725 Y24.8212
N11695 G1 X21.1475 Y24.9028
N11700 G1 X21.1220 Y24.9770
N11705 G1 X21.0970 Y25.0428
N11710 G1 X21.0725 Y25.0987
N11715 G1 X21.0493 Y25.1445
N11720 G1 X21.0272 Y25.1807
N11725 G1 X21.0070 Y25.2090
N11730 G1 X20.9862 Y25.2325
N11735 G1 X20.9615 Y25.2560
N11740 G1 X20.9292 Y25.2830
N11745 G1 X20.8878 Y25.3148
N11750 G1 X20.8365 Y25.3525
N11755 G1 X20.7778 Y25.3953
N11760 G1 X20.7772 Y25.3957
N11765 G1 X20.7117 Y25.4438
N11770 G1 X20.7110 Y25.4443
N11775 G1 X20.6403 Y25.4965
N11780 G1 X20.5663 Y25.5508
N11785 G1 X20.4910 Y25.6040
N11790 G1 X20.4178 Y25.6525
N11795 G1 X20.3478 Y25.6935
N11800 G1 X20.3188 Y25.7085
N11805 G1 X20.2910 Y25.7213
N11810 G1 X20.2682 Y25.7300
N11815 G1 X20.2505 Y25.7353
N11820 G1 X20.2473 Y25.7360
N11825 G1 X20.2437 Y25.7303
N11830 G1 X20.2342 Y25.7120
N11835 G1 X20.2243 Y25.6880
N11840 G1 X20.2138 Y25.6590
N11845 G1 X20.2040 Y25.6270
N11850 G1 X20.1842 Y25.5463
N11855 G1 X20.1675 Y25.4580
N11860 G1 X20.1522 Y25.3640
N11865 G1 X20.1382 Y25.2677
N11870 G1 X20.1247 Y25.1735
N11875 G1 X20.1242 Y25.1710
N11880 G1 X20.1105 Y25.0810
N11885 G1 X20.1095 Y25.0763
N11890 G1 X20.0948 Y24.9913
N11895 G1 X20.0935 Y24.9850
N11900 G1 X20.0775 Y24.9040
N11905 G1 X20.0760 Y24.8972
N11910 G1 X20.0580 Y24.8193
N11915 G1 X20.0557 Y24.8100
N11920 G1 X20.0143 Y24.6567
N11925 G1 X20.0125 Y24.6505
N11930 G1 X19.9887 Y24.5715
N11935 G1 X19.9885 Y24.5700
N11940 G1 X19.9630 Y24.4865
N11945 G1 X19.9360 Y24.3980
N11950 G1 X19.9078 Y24.3032
N11955 G1 X19.8777 Y24.2007
N11960 G1 X19.8465 Y24.0900
N11965 G1 X19.8137 Y23.9707
N11970 G1 X19.7797 Y23.8430
N11975 G1 X19.7443 Y23.7070
N11980 G1 X19.7075 Y23.5637
N11985 G1 X19.6698 Y23.4140
N11990 G1 X19.6307 Y23.2590
N11995 G1 X19.5910 Y23.0998
N12000 G1 X19.5502 Y22.9375
N12005 G1 X19.5500 Y22.9370
N12010 G1 X19.5165 Y22.8045
N12015 G1 Z-2.0000
N12020 G1 X19.4672 Y22.6092
N12025 G1 X19.4670 Y22.6080
N12030 G1 X19.3830 Y22.2835
N12035 G1 X19.3828 Y22.2823
N12040 G1 X19.3410 Y22.1238
N12045 G1 Y22.1230
N12050 G1 X19.2995 Y21.9680
N12055 G1 Y21.9672
N12060 G1 X19.2643 Y21.8367
N12065 G1 Z-3.5000 F1000
N12070 G1 X19.2587 Y21.8163 F2000
N12075 G1 Y21.8160
N12080 G1 X19.2192 Y21.6695
N12085 G1 X19.1807 Y21.5280
N12090 G1 X19.1440 Y21.3920
N12095 G1 X19.1090 Y21.2620
N12100 G1 X19.0760 Y21.1378
N12105 G1 X19.0450 Y21.0195
N12110 G1 X19.0160 Y20.9070
N12115 G1 X18.9895 Y20.8000
N12120 G1 X18.9647 Y20.6985
N12125 G1 X18.9420 Y20.6017
N12130 G1 X18.9208 Y20.5093
N12135 G1 X18.9007 Y20.4208
N12140 G1 X18.8818 Y20.3355
N12145 G1 X18.8815 Y20.3350
N12150 G1 X18.8630 Y20.2533
N12155 G1 X18.8627 Y20.2518
N12160 G1 X18.8442 Y20.1732
N12165 G1 X18.8435 Y20.1700
N12170 G1 X18.8065 Y20.0203
N12175 G1 X18.8053 Y20.0158
N12180 G1 X18.7295 Y19.7323
N12185 G1 X18.7138 Y19.6665
N12190 G1 X18.7003 Y19.6013
N12195 G1 X18.6900 Y19.5365
N12200 G1 X18.6830 Y19.4713
N12205 G1 X18.6800 Y19.4050
N12210 G1 X18.6815 Y19.3373
N12215 G1 X18.6878 Y19.2677
N12220 G1 X18.6992 Y19.1970
N12225 G1 X18.7157 Y19.1265
N12230 G1 X18.7370 Y19.0572
N12235 G1 X18.7628 Y18.9917
N12240 G1 X18.7918 Y18.9315
N12245 G1 X18.8230 Y18.8790
N12250 G1 X18.8550 Y18.8352
N12255 G1 X18.8885 Y18.7982
N12260 G1 X18.9005 Y18.7873
N12265 G1 X18.9110 Y18.7785
N12270 G1 X18.9405 Y18.7593
N12275 G1 X18.9653 Y18.7480
N12280 G1 X18.9907 Y18.7402
N12285 G1 X19.0195 Y18.7355
N12290 G1 X19.0525 Y18.7338
N12295 G1 X19.0895 Y18.7357
N12300 G1 X19.1295 Y18.7410
N12305 G1 X19.1713 Y18.7500
N12310 G1 X19.2127 Y18.7625
N12315 G1 X19.2538 Y18.7780
N12320 G1 X19.2940 Y18.7972
N12325 G1 X19.3335 Y18.8205
N12330 G1 X19.3738 Y18.8487
N12335 G1 X19.4148 Y18.8830
N12340 G1 X19.4570 Y18.9240
N12345 G1 X19.5008 Y18.9720
N12350 G1 X19.5458 Y19.0267
N12355 G1 X19.5910 Y19.0862
N12360 G1 X19.6860 Y19.2192
N12365 G1 X19.7327 Y19.2850
N12370 G1 X19.7360 Y19.2892
N12375 G1 X19.7820 Y19.3513
N12380 G1 X19.7888 Y19.3597
N12385 G1 X19.8343 Y19.4157
N12390 G1 X19.8463 Y19.4295
N12395 G1 X19.8917 Y19.4778
N12400 G1 X19.9118 Y19.4967
N12405 G1 X19.9458 Y19.5257
N12410 G1 Z-2.0000
N12415 G1 X19.9578 Y19.5360
N12420 G1 X19.9805 Y19.5530
N12425 G1 X20.0040 Y19.5688
N12430 G1 X20.0235 Y19.5805
N12435 G1 X20.0472 Y19.5935
N12440 G1 X20.0710 Y19.6050
N12445 G1 X20.0953 Y19.6150
N12450 G1 X20.1223 Y19.6245
N12455 G1 X20.1470 Y19.6315
N12460 G1 X20.1762 Y19.6380
N12465 G1 X20.2015 Y19.6420
N12470 G1 X20.2318 Y19.6450
N12475 G1 X20.2575 Y19.6460
N12480 G1 X20.2870 Y19.6453
N12485 G1 X20.3135 Y19.6430
N12490 G1 X20.3405 Y19.6393
N12495 G1 X20.3678 Y19.6340
N12500 G1 X20.3915 Y19.6283
N12505 G1 X20.4195 Y19.6200
N12510 G1 X20.4398 Y19.6130
N12515 G1 X20.4685 Y19.6017
N12520 G1 X20.4855 Y19.5942
N12525 G1 X20.5150 Y19.5800
N12530 G1 X20.5285 Y19.5730
N12535 G1 X20.5587 Y19.5560
N12540 G1 X20.5748 Y19.5463
N12545 G1 X20.6370 Y19.5048
N12550 G1 X20.6522 Y19.4940
N12555 G1 X20.7168 Y19.4438
N12560 G1 X20.7270 Y19.4352
N12565 G1 X20.7933 Y19.3780
N12570 G1 X20.8000 Y19.3720
N12575 G1 X20.8672 Y19.3092
N12580 G1 X20.8720 Y19.3047
N12585 G1 X20.9335 Y19.2443
N12590 G1 Z-3.5000 F1000
N12595 G1 X20.9395 Y19.2385 F2000
N12600 G1 X20.9445 Y19.2335
N12605 G1 X21.0753 Y19.0975
N12610 G1 X21.0798 Y19.0927
N12615 G1 X21.1410 Y19.0255
N12620 G1 X21.1450 Y19.0210
N12625 G1 X21.2018 Y18.9555
N12630 G1 X21.2075 Y18.9488
N12635 G1 X21.2587 Y18.8852
N12640 G1 X21.2670 Y18.8747
N12645 G1 X21.3117 Y18.8130
N12650 G1 X21.3223 Y18.7972
N12655 G1 X21.3592 Y18.7368
N12660 G1 X21.3717 Y18.7140
N12665 G1 X21.4005 Y18.6540
N12670 G1 X21.4070 Y18.6390
N12675 G1 X21.4127 Y18.6238
N12680 G1 X21.4322 Y18.5635
N12685 G1 X21.4375 Y18.5455
N12690 G1 X21.4413 Y18.5272
N12695 G1 X21.4515 Y18.4662
N12700 G1 X21.4540 Y18.4468
N12705 G1 X21.4550 Y18.4275
N12710 G1 X21.4555 Y18.3650
N12715 G1 X21.4552 Y18.3470
N12720 G1 X21.4533 Y18.3290
N12725 G1 X21.4447 Y18.2647
N12730 G1 X21.4387 Y18.2342
N12735 G1 X21.4213 Y18.1683
N12740 G1 X21.4138 Y18.1445
N12745 G1 X21.3885 Y18.0768
N12750 G1 X21.3807 Y18.0583
N12755 G1 X21.3485 Y17.9892
N12760 G1 X21.3415 Y17.9755
N12765 G1 X21.3035 Y17.9058
N12770 G1 X21.2972 Y17.8950
N12775 G1 X21.2545 Y17.8253
N12780 G1 X21.2490 Y17.8165
N12785 G1 X21.2028 Y17.7473
N12790 G1 X21.1977 Y17.7400
N12795 G1 X21.1485 Y17.6717
N12800 G1 X21.1438 Y17.6653
N12805 G1 X21.0922 Y17.5985
N12810 G1 X21.0873 Y17.5922
N12815 G1 X21.0338 Y17.5272
N12820 G1 X21.0285 Y17.5210
N12825 G1 X20.9728 Y17.4578
N12830 G1 X20.9668 Y17.4513
N12835 G1 X20.9088 Y17.3897
N12840 G1 X20.9022 Y17.3833
N12845 G1 X20.8418 Y17.3235
N12850 G1 X20.8345 Y17.3167
N12855 G1 X20.7707 Y17.2590
N12860 G1 X20.7632 Y17.2525
N12865 G1 X20.6960 Y17.1962
N12870 G1 X20.6885 Y17.1900
N12875 G1 X20.6175 Y17.1352
N12880 G1 X20.6103 Y17.1298
N12885 G1 X20.5358 Y17.0765
N12890 G1 X20.5285 Y17.0715
N12895 G1 X20.4507 Y17.0197
N12900 G1 X20.4443 Y17.0155
N12905 G1 X20.3637 Y16.9657
N12910 G1 X20.3575 Y16.9620
N12915 G1 X20.2757 Y16.9145
N12920 G1 X20.2700 Y16.9112
N12925 G1 X20.1880 Y16.8665
N12930 G1 X20.1825 Y16.8635
N12935 G1 X20.1017 Y16.8220
N12940 G1 X20.0963 Y16.8193
N12945 G1 X20.0182 Y16.7815
N12950 G1 X20.0125 Y16.7790
N12955 G1 X19.9575 Y16.7540
N12960 G1 X20.0125 Y16.7290
N12965 G1 X20.0182 Y16.7263
N12970 G1 X20.0963 Y16.6887
N12975 G1 X20.1017 Y16.6860
N12980 G1 X20.1825 Y16.6445
N12985 G1 X20.1880 Y16.6415
N12990 G1 X20.2700 Y16.5968
N12995 G1 X20.2757 Y16.5935
N13000 G1 X20.3577 Y16.5458
N13005 G1 X20.3637 Y16.5422
N13010 G1 X20.4443 Y16.4922
N13015 G1 X20.4507 Y16.4880
N13020 G1 X20.5285 Y16.4365
N13025 G1 X20.5358 Y16.4315
N13030 G1 X20.6103 Y16.3783
N13035 G1 X20.6175 Y16.3727
N13040 G1 X20.6885 Y16.3178
N13045 G1 X20.6960 Y16.3117
N13050 G1 X20.7632 Y16.2555
N13055 G1 X20.7707 Y16.2490
N13060 G1 X20.8345 Y16.1910
N13065 G1 X20.8418 Y16.1842
N13070 G1 X20.9022 Y16.1247
N13075 G1 X20.9088 Y16.1180
N13080 G1 X20.9668 Y16.0568
N13085 G1 X20.9728 Y16.0502
N13090 G1 X21.0282 Y15.9870
N13095 G1 X21.0338 Y15.9808
N13100 G1 X21.0873 Y15.9157
N13105 G1 X21.0922 Y15.9095
N13110 G1 X21.1438 Y15.8428
N13115 G1 X21.1485 Y15.8362
N13120 G1 X21.1977 Y15.7677
N13125 G1 X21.2028 Y15.7607
N13130 G1 X21.2490 Y15.6915
N13135 G1 X21.2545 Y15.6828
N13140 G1 X21.2972 Y15.6130
N13145 G1 X21.3035 Y15.6022
N13150 G1 X21.3415 Y15.5325
N13155 G1 X21.3485 Y15.5185
N13160 G1 X21.3807 Y15.4495
N13165 G1 X21.3885 Y15.4313
N13170 G1 X21.4138 Y15.3635
N13175 G1 X21.4213 Y15.3398
N13180 G1 X21.4387 Y15.2735
N13185 G1 X21.4447 Y15.2432
N13190 G1 X21.4533 Y15.1790
N13195 G1 X21.4552 Y15.1610
N13200 G1 X21.4555 Y15.1430
N13205 G1 X21.4550 Y15.0805
N13210 G1 X21.4540 Y15.0610
N13215 G1 X21.4515 Y15.0418
N13220 G1 X21.4413 Y14.9808
N13225 G1 X21.4375 Y14.9625
N13230 G1 X21.4322 Y14.9443
N13235 G1 X21.4127 Y14.8842
N13240 G1 X21.4070 Y14.8690
N13245 G1 X21.4005 Y14.8540
N13250 G1 X21.3717 Y14.7940
N13255 G1 X21.3592 Y14.7713
N13260 G1 X21.3223 Y14.7108
N13265 G1 X21.3117 Y14.6950
N13270 G1 X21.2670 Y14.6333
N13275 G1 X21.2587 Y14.6225
N13280 G1 X21.2075 Y14.5590
N13285 G1 X21.2018 Y14.5523
N13290 G1 X21.1450 Y14.4870
N13295 G1 X21.1410 Y14.4825
N13300 G1 X21.0798 Y14.4153
N13305 G1 X21.0753 Y14.4105
N13310 G1 X20.9445 Y14.2745
N13315 G1 X20.9395 Y14.2695
N13320 G1 X20.8720 Y14.2033
N13325 G1 X20.8678 Y14.1990
N13330 G1 Z-2.0000
N13335 G1 X20.8672 Y14.1988
N13340 G1 X20.8000 Y14.1360
N13345 G1 X20.7933 Y14.1300
N13350 G1 X20.7270 Y14.0725
N13355 G1 X20.7168 Y14.0642
N13360 G1 X20.6522 Y14.0140
N13365 G1 X20.6370 Y14.0032
N13370 G1 X20.5748 Y13.9618
N13375 G1 X20.5587 Y13.9520
N13380 G1 X20.5285 Y13.9350
N13385 G1 X20.5147 Y13.9277
N13390 G1 X20.4853 Y13.9138
N13395 G1 X20.4685 Y13.9062
N13400 G1 X20.4400 Y13.8950
N13405 G1 X20.4195 Y13.8880
N13410 G1 X20.3915 Y13.8797
N13415 G1 X20.3678 Y13.8737
N13420 G1 X20.3405 Y13.8685
N13425 G1 X20.3133 Y13.8648
N13430 G1 X20.2870 Y13.8628
N13435 G1 X20.2578 Y13.8620
N13440 G1 X20.2320 Y13.8630
N13445 G1 X20.2015 Y13.8660
N13450 G1 X20.1762 Y13.8700
N13455 G1 X20.1470 Y13.8765
N13460 G1 X20.1223 Y13.8835
N13465 G1 X20.0950 Y13.8930
N13470 G1 X20.0708 Y13.9032
N13475 G1 X20.0475 Y13.9142
N13480 G1 X20.0237 Y13.9273
N13485 G1 X20.0040 Y13.9392
N13490 G1 X19.9805 Y13.9548
N13495 G1 X19.9578 Y13.9720
N13500 G1 X19.9118 Y14.0113
N13505 G1 X19.8917 Y14.0303
N13510 G1 X19.8463 Y14.0785
N13515 G1 X19.8418 Y14.0835
N13520 G1 Z-3.5000 F1000
N13525 G1 X19.8343 Y14.0922 F2000
N13530 G1 X19.7888 Y14.1483
N13535 G1 X19.7820 Y14.1568
N13540 G1 X19.7360 Y14.2188
N13545 G1 X19.7327 Y14.2230
N13550 G1 X19.6860 Y14.2888
N13555 G1 X19.5910 Y14.4215
N13560 G1 X19.5458 Y14.4812
N13565 G1 X19.5008 Y14.5360
N13570 G1 X19.4570 Y14.5840
N13575 G1 X19.4148 Y14.6250
N13580 G1 X19.3738 Y14.6593
N13585 G1 X19.3335 Y14.6875
N13590 G1 X19.2937 Y14.7108
N13595 G1 X19.2538 Y14.7300
N13600 G1 X19.2130 Y14.7455
N13605 G1 X19.1713 Y14.7577
N13610 G1 X19.1295 Y14.7668
N13615 G1 X19.0895 Y14.7722
N13620 G1 X19.0525 Y14.7743
N13625 G1 X19.0195 Y14.7725
N13630 G1 X18.9907 Y14.7677
N13635 G1 X18.9653 Y14.7600
N13640 G1 X18.9405 Y14.7485
N13645 G1 X18.9110 Y14.7293
N13650 G1 X18.9005 Y14.7208
N13655 G1 X18.8885 Y14.7097
N13660 G1 X18.8550 Y14.6728
N13665 G1 X18.8230 Y14.6290
N13670 G1 X18.7918 Y14.5762
N13675 G1 X18.7628 Y14.5162
N13680 G1 X18.7370 Y14.4505
N13685 G1 X18.7157 Y14.3815
N13690 G1 X18.6992 Y14.3108
N13695 G1 X18.6878 Y14.2402
N13700 G1 X18.6815 Y14.1707
N13705 G1 X18.6800 Y14.1030
N13710 G1 X18.6830 Y14.0367
N13715 G1 X18.6900 Y13.9715
N13720 G1 X18.7003 Y13.9068
N13725 G1 X18.7138 Y13.8415
N13730 G1 X18.7295 Y13.7758
N13735 G1 X18.8053 Y13.4920
N13740 G1 X18.8065 Y13.4878
N13745 G1 X18.8435 Y13.3380
N13750 G1 X18.8442 Y13.3345
N13755 G1 X18.8627 Y13.2560
N13760 G1 X18.8630 Y13.2545
N13765 G1 X18.8815 Y13.1730
N13770 G1 X18.8818 Y13.1725
N13775 G1 X18.9007 Y13.0872
N13780 G1 X18.9208 Y12.9985
N13785 G1 X18.9420 Y12.9062
N13790 G1 X18.9647 Y12.8095
N13795 G1 X18.9895 Y12.7078
N13800 G1 X19.0160 Y12.6010
N13805 G1 X19.0450 Y12.4885
N13810 G1 X19.0760 Y12.3703
N13815 G1 X19.1090 Y12.2460
N13820 G1 X19.1440 Y12.1158
N13825 G1 X19.1807 Y11.9800
N13830 G1 X19.2192 Y11.8387
N13835 G1 X19.2512 Y11.7197
N13840 G1 Z-2.0000
N13845 G1 X19.2587 Y11.6920
N13850 G1 Y11.6915
N13855 G1 X19.2995 Y11.5405
N13860 G1 Y11.5400
N13865 G1 X19.3410 Y11.3850
N13870 G1 Y11.3842
N13875 G1 X19.3828 Y11.2255
N13880 G1 X19.3830 Y11.2245
N13885 G1 X19.4670 Y10.9000
N13890 G1 X19.4672 Y10.8987
N13895 G1 X19.5042 Y10.7523
N13900 G1 Z-3.5000 F1000
N13905 G1 X19.5500 Y10.5710 F2000
N13910 G1 X19.5502 Y10.5705
N13915 G1 X19.5907 Y10.4083
N13920 G1 X19.6307 Y10.2490
N13925 G1 X19.6698 Y10.0938
N13930 G1 X19.7075 Y9.9443
N13935 G1 X19.7443 Y9.8010
N13940 G1 X19.7797 Y9.6650
N13945 G1 X19.8137 Y9.5373
N13950 G1 X19.8465 Y9.4177
N13955 G1 X19.8777 Y9.3072
N13960 G1 X19.9078 Y9.2048
N13965 G1 X19.9360 Y9.1100
N13970 G1 X19.9630 Y9.0213
N13975 G1 X19.9885 Y8.9380
N13980 G1 X19.9887 Y8.9365
N13985 G1 X20.0125 Y8.8573
N13990 G1 X20.0143 Y8.8513
N13995 G1 X20.0557 Y8.6980
N14000 G1 X20.0580 Y8.6888
N14005 G1 X20.0760 Y8.6107
N14010 G1 X20.0772 Y8.6040
N14015 G1 X20.0935 Y8.5230
N14020 G1 X20.0948 Y8.5168
N14025 G1 X20.1097 Y8.4315
N14030 G1 X20.1105 Y8.4270
N14035 G1 X20.1242 Y8.3370
N14040 G1 X20.1247 Y8.3345
N14045 G1 X20.1382 Y8.2400
N14050 G1 X20.1522 Y8.1440
N14055 G1 X20.1675 Y8.0497
N14060 G1 X20.1842 Y7.9618
N14065 G1 X20.2040 Y7.8807
N14070 G1 X20.2138 Y7.8490
N14075 G1 X20.2243 Y7.8197
N14080 G1 X20.2342 Y7.7960
N14085 G1 X20.2435 Y7.7780
N14090 G1 X20.2473 Y7.7720
N14095 G1 X20.2500 Y7.7725
N14100 G1 X20.2682 Y7.7780
N14105 G1 X20.2915 Y7.7870
N14110 G1 X20.3188 Y7.7992
N14115 G1 X20.3475 Y7.8143
N14120 G1 X20.4180 Y7.8557
N14125 G1 X20.4910 Y7.9040
N14130 G1 X20.5663 Y7.9573
N14135 G1 X20.6403 Y8.0115
N14140 G1 X20.7112 Y8.0638
N14145 G1 X20.7115 Y8.0640
N14150 G1 X20.7770 Y8.1122
N14155 G1 X20.7778 Y8.1128
N14160 G1 X20.8367 Y8.1557
N14165 G1 X20.8878 Y8.1933
N14170 G1 X20.9292 Y8.2250
N14175 G1 X20.9615 Y8.2517
N14180 G1 X20.9862 Y8.2752
N14185 G1 X21.0070 Y8.2993
N14190 G1 X21.0275 Y8.3272
N14195 G1 X21.0493 Y8.3635
N14200 G1 X21.0725 Y8.4093
N14205 G1 X21.0970 Y8.4652
N14210 G1 X21.1220 Y8.5310
N14215 G1 X21.1475 Y8.6052
N14220 G1 X21.1725 Y8.6867
N14225 G1 X21.1973 Y8.7745
N14230 G1 X21.2213 Y8.8673
N14235 G1 X21.2445 Y8.9635
N14240 G1 X21.2900 Y9.1683
N14245 G1 X21.3350 Y9.3818
N14250 G1 X21.3352 Y9.3830
N14255 G1 X21.3828 Y9.6032
N14260 G1 X21.3835 Y9.6067
N14265 G1 X21.4095 Y9.7190
N14270 G1 X21.4103 Y9.7225
N14275 G1 X21.4383 Y9.8365
N14280 G1 X21.4393 Y9.8407
N14285 G1 X21.4698 Y9.9567
N14290 G1 X21.4710 Y9.9615
N14295 G1 X21.5048 Y10.0798
N14300 G1 X21.5063 Y10.0850
N14305 G1 X21.5435 Y10.2055
N14310 G1 X21.5455 Y10.2110
N14315 G1 X21.5867 Y10.3345
N14320 G1 X21.5885 Y10.3400
N14325 G1 X21.6343 Y10.4663
N14330 G1 X21.6363 Y10.4718
N14335 G1 X21.6865 Y10.6013
N14340 G1 X21.6887 Y10.6065
N14345 G1 X21.7437 Y10.7393
N14350 G1 X21.7460 Y10.7445
N14355 G1 X21.8060 Y10.8805
N14360 G1 X21.8083 Y10.8855
N14365 G1 X21.8735 Y11.0252
N14370 G1 X21.8758 Y11.0297
N14375 G1 X21.9462 Y11.1730
N14380 G1 X21.9485 Y11.1773
N14385 G1 X22.0242 Y11.3242
N14390 G1 X22.0263 Y11.3283
N14395 G1 X22.1073 Y11.4785
N14400 G1 X22.1095 Y11.4823
N14405 G1 X22.1397 Y11.5365
N14410 G0 Z10.0000
N14415 G0 X28.7280 Y11.1400
N14420 G0 Z5.0000
N14425 G1 Z0.4000 F1000
N14430 G1 Z-1.1670
N14435 G1 X28.7568 Y11.1555 F2000
N14440 G1 X28.8375 Y11.1992
N14445 G1 X28.9157 Y11.2415
N14450 G1 X28.9163 Y11.2417
N14455 G1 X29.0658 Y11.3220
N14460 G1 X29.0667 Y11.3227
N14465 G1 X29.3573 Y11.4770
N14470 G1 X29.5005 Y11.5550
N14475 G1 X29.6417 Y11.6370
N14480 G1 X29.7808 Y11.7248
N14485 G1 X29.9168 Y11.8193
N14490 G1 X30.0485 Y11.9210
N14495 G1 X30.1760 Y12.0288
N14500 G1 X30.2987 Y12.1402
N14505 G1 X30.4157 Y12.2530
N14510 G1 X30.5260 Y12.3640
N14515 G1 X30.6283 Y12.4715
N14520 G1 X30.7210 Y12.5755
N14525 G1 X30.8062 Y12.6798
N14530 G1 X30.8438 Y12.7302
N14535 G1 X30.8805 Y12.7833
N14540 G1 X30.9153 Y12.8380
N14545 G1 X30.9488 Y12.8953
N14550 G1 X30.9810 Y12.9558
N14555 G1 X31.0123 Y13.0195
N14560 G1 X31.0425 Y13.0865
N14565 G1 X31.0710 Y13.1547
N14570 G1 X31.1262 Y13.3040
N14575 G1 X31.1758 Y13.4567
N14580 G1 X31.2195 Y13.6095
N14585 G1 X31.2383 Y13.6828
N14590 G1 X31.2557 Y13.7547
N14595 G1 X31.2707 Y13.8232
N14600 G1 X31.2838 Y13.8893
N14605 G1 X31.2945 Y13.9512
N14610 G1 X31.3027 Y14.0095
N14615 G1 X31.3087 Y14.0638
N14620 G1 X31.3120 Y14.1140
N14625 G1 X31.3130 Y14.1615
N14630 G1 X31.3117 Y14.2052
N14635 G1 X31.3083 Y14.2465
N14640 G1 X31.3027 Y14.2855
N14645 G1 X31.2950 Y14.3227
N14650 G1 X31.2853 Y14.3595
N14655 G1 X31.2737 Y14.3950
N14660 G1 X31.2600 Y14.4290
N14665 G1 X31.2443 Y14.4630
N14670 G1 X31.2270 Y14.4955
N14675 G1 X31.2080 Y14.5262
N14680 G1 X31.1875 Y14.5555
N14685 G1 X31.1653 Y14.5835
N14690 G1 X31.1417 Y14.6095
N14695 G1 X31.1167 Y14.6337
N14700 G1 X31.0895 Y14.6565
N14705 G1 X31.0598 Y14.6777
N14710 G1 X31.0272 Y14.6980
N14715 G1 X30.9907 Y14.7170
N14720 G1 X30.9505 Y14.7350
N14725 G1 X30.9060 Y14.7513
N14730 G1 X30.8568 Y14.7662
N14735 G1 X30.8032 Y14.7795
N14740 G1 X30.7458 Y14.7907
N14745 G1 X30.6850 Y14.8003
N14750 G1 X30.6205 Y14.8072
N14755 G1 X30.5535 Y14.8123
N14760 G1 X30.4842 Y14.8150
N14765 G1 X30.4130 Y14.8155
N14770 G1 X30.3412 Y14.8140
N14775 G1 X30.1893 Y14.8045
N14780 G1 X30.0335 Y14.7878
N14785 G1 X29.8720 Y14.7640
N14790 G1 X29.7040 Y14.7340
N14795 G1 X29.5287 Y14.6982
N14800 G1 X29.3457 Y14.6572
N14805 G1 X29.1552 Y14.6113
N14810 G1 X28.9578 Y14.5597
N14815 G1 X28.7535 Y14.5023
N14820 G1 X28.5443 Y14.4383
N14825 G1 X28.3307 Y14.3673
N14830 G1 X28.1145 Y14.2890
N14835 G1 X27.8975 Y14.2030
N14840 G1 X27.6812 Y14.1098
N14845 G1 X27.4675 Y14.0098
N14850 G1 X27.2583 Y13.9040
N14855 G1 X27.0550 Y13.7933
N14860 G1 X26.8590 Y13.6788
N14865 G1 X26.6713 Y13.5610
N14870 G1 X26.4913 Y13.4405
N14875 G1 X26.3193 Y13.3180
N14880 G1 X26.1537 Y13.1930
N14885 G1 X25.9935 Y13.0655
N14890 G1 X25.8370 Y12.9350
N14895 G1 X25.6835 Y12.8010
N14900 G1 X25.5312 Y12.6628
N14905 G1 X25.3805 Y12.5198
N14910 G1 X25.2305 Y12.3715
N14915 G1 X25.0822 Y12.2170
N14920 G1 X24.9357 Y12.0560
N14925 G1 X24.7918 Y11.8880
N14930 G1 X24.6515 Y11.7133
N14935 G1 X24.5158 Y11.5330
N14940 G1 X24.3858 Y11.3480
N14945 G1 X24.2628 Y11.1610
N14950 G1 X24.1475 Y10.9733
N14955 G1 X24.0938 Y10.8818
N14960 G1 X24.0420 Y10.7905
N14965 G1 X23.9928 Y10.7007
N14970 G1 X23.9460 Y10.6128
N14975 G1 X23.9017 Y10.5270
N14980 G1 X23.8597 Y10.4437
N14985 G1 X23.8203 Y10.3628
N14990 G1 X23.7828 Y10.2848
N14995 G1 X23.7475 Y10.2097
N15000 G1 X23.7142 Y10.1378
N15005 G1 X23.6825 Y10.0690
N15010 G1 X23.6525 Y10.0035
N15015 G1 X23.6240 Y9.9413
N15020 G1 X23.6238 Y9.9405
N15025 G1 X23.5968 Y9.8820
N15030 G1 X23.5963 Y9.8810
N15035 G1 X23.5705 Y9.8257
N15040 G1 X23.5697 Y9.8245
N15045 G1 X23.5452 Y9.7725
N15050 G1 X23.5445 Y9.7713
N15055 G1 X23.5210 Y9.7218
N15060 G1 X23.5205 Y9.7210
N15065 G1 X23.4977 Y9.6740
N15070 G1 X23.4552 Y9.5868
N15075 G1 X23.4172 Y9.5062
N15080 G1 X23.3833 Y9.4288
N15085 G1 X23.3517 Y9.3495
N15090 G1 X23.3220 Y9.2670
N15095 G1 X23.2638 Y9.0895
N15100 G1 X23.2370 Y9.0043
N15105 G1 X23.2265 Y8.9708
N15110 G1 X23.2355 Y8.9748
N15115 G1 X23.3330 Y9.0205
N15120 G1 X23.3355 Y9.0215
N15125 G1 X23.4428 Y9.0702
N15130 G1 X23.4483 Y9.0727
N15135 G1 X23.5060 Y9.0973
N15140 G1 X23.5108 Y9.0992
N15145 G1 X23.5727 Y9.1240
N15150 G1 X23.5770 Y9.1258
N15155 G1 X23.6440 Y9.1512
N15160 G1 X23.6480 Y9.1527
N15165 G1 X23.7213 Y9.1790
N15170 G1 X23.7245 Y9.1802
N15175 G1 X23.8050 Y9.2080
N15180 G1 X23.8075 Y9.2088
N15185 G1 X23.8965 Y9.2385
N15190 G1 X23.8975 Y9.2387
N15195 G1 X23.9455 Y9.2545
N15200 G1 X23.9462 Y9.2547
N15205 G1 X23.9967 Y9.2713
N15210 G1 X23.9970
N15215 G1 X24.0500 Y9.2885
N15220 G1 X24.0502
N15225 G1 X24.1058 Y9.3065
N15230 G1 X24.1640 Y9.3253
N15235 G1 X24.2250 Y9.3450
N15240 G1 X24.2885 Y9.3655
N15245 G1 X24.3547 Y9.3870
N15250 G1 X24.4237 Y9.4093
N15255 G1 X24.4952 Y9.4328
N15260 G1 X24.5693 Y9.4570
N15265 G1 X24.6460 Y9.4823
N15270 G1 X24.7250 Y9.5085
N15275 G1 X24.8065 Y9.5358
N15280 G1 X24.9763 Y9.5928
N15285 G1 X25.1540 Y9.6535
N15290 G1 X25.3390 Y9.7175
N15295 G1 X25.5295 Y9.7845
N15300 G1 X25.7245 Y9.8540
N15305 G1 X26.1223 Y9.9992
N15310 G1 X26.5203 Y10.1497
N15315 G1 X26.7153 Y10.2253
N15320 G1 X26.9065 Y10.3010
N15325 G1 X27.0918 Y10.3758
N15330 G1 X27.2707 Y10.4495
N15335 G1 X27.4417 Y10.5218
N15340 G1 X27.6045 Y10.5920
N15345 G1 X27.7578 Y10.6600
N15350 G1 X27.9020 Y10.7257
N15355 G1 X28.0368 Y10.7888
N15360 G1 X28.1627 Y10.8490
N15365 G1 X28.2793 Y10.9062
N15370 G1 X28.3878 Y10.9610
N15375 G1 X28.4887 Y11.0130
N15380 G1 X28.5832 Y11.0627
N15385 G1 X28.6725 Y11.1103
N15390 G1 X28.7280 Y11.1400
N15395 G1 Z-2.3330 F1000
N15400 G1 X28.7568 Y11.1555 F2000
N15405 G1 X28.8375 Y11.1992
N15410 G1 X28.9157 Y11.2415
N15415 G1 X28.9163 Y11.2417
N15420 G1 X29.0658 Y11.3220
N15425 G1 X29.0667 Y11.3227
N15430 G1 X29.3573 Y11.4770
N15435 G1 X29.5005 Y11.5550
N15440 G1 X29.6417 Y11.6370
N15445 G1 X29.7782 Y11.7230
N15450 G1 Z-2.0000
N15455 G1 X29.7808 Y11.7248
N15460 G1 X29.9168 Y11.8193
N15465 G1 X30.0485 Y11.9210
N15470 G1 X30.1760 Y12.0288
N15475 G1 X30.2987 Y12.1402
N15480 G1 X30.4157 Y12.2530
N15485 G1 X30.5260 Y12.3640
N15490 G1 X30.5365 Y12.3752
N15495 G1 Z-2.3330 F1000
N15500 G1 X30.6283 Y12.4715 F2000
N15505 G1 X30.7210 Y12.5755
N15510 G1 X30.8062 Y12.6798
N15515 G1 X30.8438 Y12.7302
N15520 G1 X30.8805 Y12.7833
N15525 G1 X30.9153 Y12.8380
N15530 G1 X30.9488 Y12.8953
N15535 G1 X30.9810 Y12.9558
N15540 G1 X31.0123 Y13.0195
N15545 G1 X31.0425 Y13.0865
N15550 G1 X31.0710 Y13.1547
N15555 G1 X31.1262 Y13.3040
N15560 G1 X31.1758 Y13.4567
N15565 G1 X31.2195 Y13.6095
N15570 G1 X31.2383 Y13.6828
N15575 G1 X31.2557 Y13.7547
N15580 G1 X31.2707 Y13.8232
N15585 G1 X31.2838 Y13.8893
N15590 G1 X31.2945 Y13.9512
N15595 G1 X31.3027 Y14.0095
N15600 G1 X31.3087 Y14.0638
N15605 G1 X31.3120 Y14.1140
N15610 G1 X31.3130 Y14.1615
N15615 G1 X31.3117 Y14.2052
N15620 G1 X31.3083 Y14.2465
N15625 G1 X31.3027 Y14.2855
N15630 G1 X31.2950 Y14.3227
N15635 G1 X31.2853 Y14.3595
N15640 G1 X31.2737 Y14.3950
N15645 G1 X31.2600 Y14.4290
N15650 G1 X31.2443 Y14.4630
N15655 G1 X31.2270 Y14.4955
N15660 G1 X31.2080 Y14.5262
N15665 G1 X31.1875 Y14.5555
N15670 G1 X31.1653 Y14.5835
N15675 G1 X31.1417 Y14.6095
N15680 G1 X31.1167 Y14.6337
N15685 G1 X31.0895 Y14.6565
N15690 G1 X31.0598 Y14.6777
N15695 G1 X31.0272 Y14.6980
N15700 G1 X30.9907 Y14.7170
N15705 G1 X30.9505 Y14.7350
N15710 G1 X30.9060 Y14.7513
N15715 G1 X30.8568 Y14.7662
N15720 G1 X30.8032 Y14.7795
N15725 G1 X30.7458 Y14.7907
N15730 G1 X30.6850 Y14.8003
N15735 G1 X30.6205 Y14.8072
N15740 G1 X30.5535 Y14.8123
N15745 G1 X30.4842 Y14.8150
N15750 G1 X30.4130 Y14.8155
N15755 G1 X30.3412 Y14.8140
N15760 G1 X30.1893 Y14.8045
N15765 G1 X30.0335 Y14.7878
N15770 G1 X29.8720 Y14.7640
N15775 G1 X29.7040 Y14.7340
N15780 G1 X29.5287 Y14.6982
N15785 G1 X29.3457 Y14.6572
N15790 G1 X29.1552 Y14.6113
N15795 G1 X28.9578 Y14.5597
N15800 G1 X28.7535 Y14.5023
N15805 G1 X28.5443 Y14.4383
N15810 G1 X28.3307 Y14.3673
N15815 G1 X28.1145 Y14.2890
N15820 G1 X27.8975 Y14.2030
N15825 G1 X27.6812 Y14.1098
N15830 G1 X27.4675 Y14.0098
N15835 G1 X27.2583 Y13.9040
N15840 G1 X27.2095 Y13.8775
N15845 G1 Z-2.0000
N15850 G1 X27.0550 Y13.7933
N15855 G1 X26.8590 Y13.6788
N15860 G1 X26.6713 Y13.5610
N15865 G1 X26.4913 Y13.4405
N15870 G1 X26.3615 Y13.3480
N15875 G1 Z-2.3330 F1000
N15880 G1 X26.3193 Y13.3180 F2000
N15885 G1 X26.1537 Y13.1930
N15890 G1 X25.9935 Y13.0655
N15895 G1 X25.8370 Y12.9350
N15900 G1 X25.6835 Y12.8010
N15905 G1 X25.5312 Y12.6628
N15910 G1 X25.3805 Y12.5198
N15915 G1 X25.2305 Y12.3715
N15920 G1 X25.0822 Y12.2170
N15925 G1 X24.9357 Y12.0560
N15930 G1 X24.7918 Y11.8880
N15935 G1 X24.6515 Y11.7133
N15940 G1 X24.5158 Y11.5330
N15945 G1 X24.3858 Y11.3480
N15950 G1 X24.2628 Y11.1610
N15955 G1 X24.1475 Y10.9733
N15960 G1 X24.0938 Y10.8818
N15965 G1 X24.0420 Y10.7905
N15970 G1 X23.9928 Y10.7007
N15975 G1 X23.9460 Y10.6128
N15980 G1 X23.9017 Y10.5270
N15985 G1 X23.8597 Y10.4437
N15990 G1 X23.8203 Y10.3628
N15995 G1 X23.7828 Y10.2848
N16000 G1 X23.7475 Y10.2097
N16005 G1 X23.7142 Y10.1378
N16010 G1 X23.6825 Y10.0690
N16015 G1 X23.6525 Y10.0035
N16020 G1 X23.6240 Y9.9413
N16025 G1 X23.6238 Y9.9405
N16030 G1 X23.5968 Y9.8820
N16035 G1 X23.5963 Y9.8810
N16040 G1 X23.5705 Y9.8257
N16045 G1 X23.5697 Y9.8245
N16050 G1 X23.5452 Y9.7725
N16055 G1 X23.5445 Y9.7713
N16060 G1 X23.5210 Y9.7218
N16065 G1 X23.5205 Y9.7210
N16070 G1 X23.4977 Y9.6740
N16075 G1 X23.4552 Y9.5868
N16080 G1 X23.4172 Y9.5062
N16085 G1 X23.3833 Y9.4288
N16090 G1 X23.3517 Y9.3495
N16095 G1 X23.3220 Y9.2670
N16100 G1 X23.2638 Y9.0895
N16105 G1 X23.2370 Y9.0043
N16110 G1 X23.2265 Y8.9708
N16115 G1 X23.2355 Y8.9748
N16120 G1 X23.3330 Y9.0205
N16125 G1 X23.3355 Y9.0215
N16130 G1 X23.4428 Y9.0702
N16135 G1 X23.4483 Y9.0727
N16140 G1 X23.5060 Y9.0973
N16145 G1 X23.5108 Y9.0992
N16150 G1 X23.5727 Y9.1240
N16155 G1 X23.5770 Y9.1258
N16160 G1 X23.6440 Y9.1512
N16165 G1 X23.6480 Y9.1527
N16170 G1 X23.7213 Y9.1790
N16175 G1 X23.7245 Y9.1802
N16180 G1 X23.8050 Y9.2080
N16185 G1 X23.8075 Y9.2088
N16190 G1 X23.8965 Y9.2385
N16195 G1 X23.8975 Y9.2387
N16200 G1 X23.9455 Y9.2545
N16205 G1 X23.9462 Y9.2547
N16210 G1 X23.9967 Y9.2713
N16215 G1 X23.9970
N16220 G1 X24.0500 Y9.2885
N16225 G1 X24.0502
N16230 G1 X24.0867 Y9.3005
N16235 G1 Z-2.0000
N16240 G1 X24.1058 Y9.3065
N16245 G1 X24.1640 Y9.3253
N16250 G1 X24.2250 Y9.3450
N16255 G1 X24.2885 Y9.3655
N16260 G1 X24.3547 Y9.3870
N16265 G1 X24.4237 Y9.4093
N16270 G1 X24.4952 Y9.4328
N16275 G1 X24.5693 Y9.4570
N16280 G1 X24.6460 Y9.4823
N16285 G1 X24.7250 Y9.5085
N16290 G1 X24.8065 Y9.5358
N16295 G1 X24.9763 Y9.5928
N16300 G1 X25.0365 Y9.6135
N16305 G1 Z-2.3330 F1000
N16310 G1 X25.1540 Y9.6535 F2000
N16315 G1 X25.3390 Y9.7175
N16320 G1 X25.5295 Y9.7845
N16325 G1 X25.7245 Y9.8540
N16330 G1 X26.1223 Y9.9992
N16335 G1 X26.5203 Y10.1497
N16340 G1 X26.7153 Y10.2253
N16345 G1 X26.9065 Y10.3010
N16350 G1 X27.0918 Y10.3758
N16355 G1 X27.2707 Y10.4495
N16360 G1 X27.4417 Y10.5218
N16365 G1 X27.6045 Y10.5920
N16370 G1 X27.7578 Y10.6600
N16375 G1 X27.9020 Y10.7257
N16380 G1 X28.0368 Y10.7888
N16385 G1 X28.1627 Y10.8490
N16390 G1 X28.2793 Y10.9062
N16395 G1 X28.3878 Y10.9610
N16400 G1 X28.4887 Y11.0130
N16405 G1 X28.5832 Y11.0627
N16410 G1 X28.6725 Y11.1103
N16415 G1 X28.7280 Y11.1400
N16420 G1 Z-3.5000 F1000
N16425 G1 X28.7568 Y11.1555 F2000
N16430 G1 X28.8375 Y11.1992
N16435 G1 X28.9157 Y11.2415
N16440 G1 X28.9163 Y11.2417
N16445 G1 X29.0658 Y11.3220
N16450 G1 X29.0667 Y11.3227
N16455 G1 X29.3573 Y11.4770
N16460 G1 X29.5005 Y11.5550
N16465 G1 X29.6417 Y11.6370
N16470 G1 X29.7782 Y11.7230
N16475 G1 Z-2.0000
N16480 G1 X29.7808 Y11.7248
N16485 G1 X29.9168 Y11.8193
N16490 G1 X30.0485 Y11.9210
N16495 G1 X30.1760 Y12.0288
N16500 G1 X30.2987 Y12.1402
N16505 G1 X30.4157 Y12.2530
N16510 G1 X30.5260 Y12.3640
N16515 G1 X30.5365 Y12.3752
N16520 G1 Z-3.5000 F1000
N16525 G1 X30.6283 Y12.4715 F2000
N16530 G1 X30.7210 Y12.5755
N16535 G1 X30.8062 Y12.6798
N16540 G1 X30.8438 Y12.7302
N16545 G1 X30.8805 Y12.7833
N16550 G1 X30.9153 Y12.8380
N16555 G1 X30.9488 Y12.8953
N16560 G1 X30.9810 Y12.9558
N16565 G1 X31.0123 Y13.0195
N16570 G1 X31.0425 Y13.0865
N16575 G1 X31.0710 Y13.1547
N16580 G1 X31.1262 Y13.3040
N16585 G1 X31.1758 Y13.4567
N16590 G1 X31.2195 Y13.6095
N16595 G1 X31.2383 Y13.6828
N16600 G1 X31.2557 Y13.7547
N16605 G1 X31.2707 Y13.8232
N16610 G1 X31.2838 Y13.8893
N16615 G1 X31.2945 Y13.9512
N16620 G1 X31.3027 Y14.0095
N16625 G1 X31.3087 Y14.0638
N16630 G1 X31.3120 Y14.1140
N16635 G1 X31.3130 Y14.1615
N16640 G1 X31.3117 Y14.2052
N16645 G1 X31.3083 Y14.2465
N16650 G1 X31.3027 Y14.2855
N16655 G1 X31.2950 Y14.3227
N16660 G1 X31.2853 Y14.3595
N16665 G1 X31.2737 Y14.3950
N16670 G1 X31.2600 Y14.4290
N16675 G1 X31.2443 Y14.4630
N16680 G1 X31.2270 Y14.4955
N16685 G1 X31.2080 Y14.5262
N16690 G1 X31.1875 Y14.5555
N16695 G1 X31.1653 Y14.5835
N16700 G1 X31.1417 Y14.6095
N16705 G1 X31.1167 Y14.6337
N16710 G1 X31.0895 Y14.6565
N16715 G1 X31.0598 Y14.6777
N16720 G1 X31.0272 Y14.6980
N16725 G1 X30.9907 Y14.7170
N16730 G1 X30.9505 Y14.7350
N16735 G1 X30.9060 Y14.7513
N16740 G1 X30.8568 Y14.7662
N16745 G1 X30.8032 Y14.7795
N16750 G1 X30.7458 Y14.7907
N16755 G1 X30.6850 Y14.8003
N16760 G1 X30.6205 Y14.8072
N16765 G1 X30.5535 Y14.8123
N16770 G1 X30.4842 Y14.8150
N16775 G1 X30.4130 Y14.8155
N16780 G1 X30.3412 Y14.8140
N16785 G1 X30.1893 Y14.8045
N16790 G1 X30.0335 Y14.7878
N16795 G1 X29.8720 Y14.7640
N16800 G1 X29.7040 Y14.7340
N16805 G1 X29.5287 Y14.6982
N16810 G1 X29.3457 Y14.6572
N16815 G1 X29.1552 Y14.6113
N16820 G1 X28.9578 Y14.5597
N16825 G1 X28.7535 Y14.5023
N16830 G1 X28.5443 Y14.4383
N16835 G1 X28.3307 Y14.3673
N16840 G1 X28.1145 Y14.2890
N16845 G1 X27.8975 Y14.2030
N16850 G1 X27.6812 Y14.1098
N16855 G1 X27.4675 Y14.0098
N16860 G1 X27.2583 Y13.9040
N16865 G1 X27.2095 Y13.8775
N16870 G1 Z-2.0000
N16875 G1 X27.0550 Y13.7933
N16880 G1 X26.8590 Y13.6788
N16885 G1 X26.6713 Y13.5610
N16890 G1 X26.4913 Y13.4405
N16895 G1 X26.3615 Y13.3480
N16900 G1 Z-3.5000 F1000
N16905 G1 X26.3193 Y13.3180 F2000
N16910 G1 X26.1537 Y13.1930
N16915 G1 X25.9935 Y13.0655
N16920 G1 X25.8370 Y12.9350
N16925 G1 X25.6835 Y12.8010
N16930 G1 X25.5312 Y12.6628
N16935 G1 X25.3805 Y12.5198
N16940 G1 X25.2305 Y12.3715
N16945 G1 X25.0822 Y12.2170
N16950 G1 X24.9357 Y12.0560
N16955 G1 X24.7918 Y11.8880
N16960 G1 X24.6515 Y11.7133
N16965 G1 X24.5158 Y11.5330
N16970 G1 X24.3858 Y11.3480
N16975 G1 X24.2628 Y11.1610
N16980 G1 X24.1475 Y10.9733
N16985 G1 X24.0938 Y10.8818
N16990 G1 X24.0420 Y10.7905
N16995 G1 X23.9928 Y10.7007
N17000 G1 X23.9460 Y10.6128
N17005 G1 X23.9017 Y10.5270
N17010 G1 X23.8597 Y10.4437
N17015 G1 X23.8203 Y10.3628
N17020 G1 X23.7828 Y10.2848
N17025 G1 X23.7475 Y10.2097
N17030 G1 X23.7142 Y10.1378
N17035 G1 X23.6825 Y10.0690
N17040 G1 X23.6525 Y10.0035
N17045 G1 X23.6240 Y9.9413
N17050 G1 X23.6238 Y9.9405
N17055 G1 X23.5968 Y9.8820
N17060 G1 X23.5963 Y9.8810
N17065 G1 X23.5705 Y9.8257
N17070 G1 X23.5697 Y9.8245
N17075 G1 X23.5452 Y9.7725
N17080 G1 X23.5445 Y9.7713
N17085 G1 X23.5210 Y9.7218
N17090 G1 X23.5205 Y9.7210
N17095 G1 X23.4977 Y9.6740
N17100 G1 X23.4552 Y9.5868
N17105 G1 X23.4172 Y9.5062
N17110 G1 X23.3833 Y9.4288
N17115 G1 X23.3517 Y9.3495
N17120 G1 X23.3220 Y9.2670
N17125 G1 X23.2638 Y9.0895
N17130 G1 X23.2370 Y9.0043
N17135 G1 X23.2265 Y8.9708
N17140 G1 X23.2355 Y8.9748
N17145 G1 X23.3330 Y9.0205
N17150 G1 X23.3355 Y9.0215
N17155 G1 X23.4428 Y9.0702
N17160 G1 X23.4483 Y9.0727
N17165 G1 X23.5060 Y9.0973
N17170 G1 X23.5108 Y9.0992
N17175 G1 X23.5727 Y9.1240
N17180 G1 X23.5770 Y9.1258
N17185 G1 X23.6440 Y9.1512
N17190 G1 X23.6480 Y9.1527
N17195 G1 X23.7213 Y9.1790
N17200 G1 X23.7245 Y9.1802
N17205 G1 X23.8050 Y9.2080
N17210 G1 X23.8075 Y9.2088
N17215 G1 X23.8965 Y9.2385
N17220 G1 X23.8975 Y9.2387
N17225 G1 X23.9455 Y9.2545
N17230 G1 X23.9462 Y9.2547
N17235 G1 X23.9967 Y9.2713
N17240 G1 X23.9970
N17245 G1 X24.0500 Y9.2885
N17250 G1 X24.0502
N17255 G1 X24.0867 Y9.3005
N17260 G1 Z-2.0000
N17265 G1 X24.1058 Y9.3065
N17270 G1 X24.1640 Y9.3253
N17275 G1 X24.2250 Y9.3450
N17280 G1 X24.2885 Y9.3655
N17285 G1 X24.3547 Y9.3870
N17290 G1 X24.4237 Y9.4093
N17295 G1 X24.4952 Y9.4328
N17300 G1 X24.5693 Y9.4570
N17305 G1 X24.6460 Y9.4823
N17310 G1 X24.7250 Y9.5085
N17315 G1 X24.8065 Y9.5358
N17320 G1 X24.9763 Y9.5928
N17325 G1 X25.0365 Y9.6135
N17330 G1 Z-3.5000 F1000
N17335 G1 X25.1540 Y9.6535 F2000
N17340 G1 X25.3390 Y9.7175
N17345 G1 X25.5295 Y9.7845
N17350 G1 X25.7245 Y9.8540
N17355 G1 X26.1223 Y9.9992
N17360 G1 X26.5203 Y10.1497
N17365 G1 X26.7153 Y10.2253
N17370 G1 X26.9065 Y10.3010
N17375 G1 X27.0918 Y10.3758
N17380 G1 X27.2707 Y10.4495
N17385 G1 X27.4417 Y10.5218
N17390 G1 X27.6045 Y10.5920
N17395 G1 X27.7578 Y10.6600
N17400 G1 X27.9020 Y10.7257
N17405 G1 X28.0368 Y10.7888
N17410 G1 X28.1627 Y10.8490
N17415 G1 X28.2793 Y10.9062
N17420 G1 X28.3878 Y10.9610
N17425 G1 X28.4887 Y11.0130
N17430 G1 X28.5832 Y11.0627
N17435 G1 X28.6725 Y11.1103
N17440 G1 X28.7280 Y11.1400
N17445 G0 Z10.0000
N17450 G0 X28.7095 Y2.2612
N17455 G0 Z5.0000
N17460 G1 Z0.4000 F1000
N17465 G1 Z-1.1670
N17470 G1 X28.8302 Y2.3117 F2000
N17475 G1 X29.0015 Y2.3925
N17480 G1 X29.1715 Y2.4820
N17485 G1 X29.3405 Y2.5795
N17490 G1 X29.5072 Y2.6840
N17495 G1 X29.6713 Y2.7945
N17500 G1 X29.8307 Y2.9097
N17505 G1 X29.9855 Y3.0290
N17510 G1 X30.1335 Y3.1510
N17515 G1 X30.2740 Y3.2760
N17520 G1 X30.4065 Y3.4045
N17525 G1 X30.4680 Y3.4685
N17530 G1 X30.5278 Y3.5337
N17535 G1 X30.5845 Y3.5995
N17540 G1 X30.6390 Y3.6660
N17545 G1 X30.6902 Y3.7330
N17550 G1 X30.7385 Y3.8007
N17555 G1 X30.7840 Y3.8693
N17560 G1 X30.8265 Y3.9388
N17565 G1 X30.8663 Y4.0090
N17570 G1 X30.9025 Y4.0797
N17575 G1 X30.9357 Y4.1515
N17580 G1 X30.9660 Y4.2245
N17585 G1 X30.9932 Y4.2988
N17590 G1 X31.0177 Y4.3742
N17595 G1 X31.0390 Y4.4510
N17600 G1 X31.0570 Y4.5287
N17605 G1 X31.0723 Y4.6082
N17610 G1 X31.0843 Y4.6890
N17615 G1 X31.0935 Y4.7713
N17620 G1 X31.0995 Y4.8548
N17625 G1 X31.1028 Y4.9395
N17630 G1 X31.1030 Y5.0260
N17635 G1 X31.1008 Y5.1130
N17640 G1 X31.0955 Y5.2008
N17645 G1 X31.0875 Y5.2895
N17650 G1 X31.0772 Y5.3773
N17655 G1 X31.0495 Y5.5580
N17660 G1 X31.0145 Y5.7350
N17665 G1 X30.9735 Y5.9078
N17670 G1 X30.9522 Y5.9897
N17675 G1 X30.9300 Y6.0705
N17680 G1 X30.9078 Y6.1478
N17685 G1 X30.8855 Y6.2218
N17690 G1 X30.8637 Y6.2925
N17695 G1 X30.8425 Y6.3585
N17700 G1 X30.8220 Y6.4207
N17705 G1 X30.8020 Y6.4787
N17710 G1 X30.7828 Y6.5328
N17715 G1 X30.7645 Y6.5827
N17720 G1 X30.7473 Y6.6285
N17725 G1 X30.7310 Y6.6697
N17730 G1 X30.7150 Y6.7088
N17735 G1 X30.7000 Y6.7440
N17740 G1 X30.6865 Y6.7750
N17745 G1 X30.6730 Y6.8037
N17750 G1 X30.6470 Y6.8580
N17755 G1 X30.6225 Y6.9070
N17760 G1 X30.5987 Y6.9540
N17765 G1 X30.5948 Y6.9625
N17770 G1 X30.5738 Y7.0085
N17775 G1 X30.5665 Y7.0260
N17780 G1 X30.5490 Y7.0735
N17785 G1 X30.5413 Y7.0985
N17790 G1 X30.5282 Y7.1498
N17795 G1 X30.5225 Y7.1795
N17800 G1 X30.5153 Y7.2363
N17805 G1 X30.5132 Y7.2660
N17810 G1 X30.5128 Y7.3293
N17815 G1 X30.5138 Y7.3528
N17820 G1 X30.5197 Y7.4225
N17825 G1 X30.5220 Y7.4410
N17830 G1 X30.5343 Y7.5170
N17835 G1 X30.5368 Y7.5300
N17840 G1 X30.5542 Y7.6108
N17845 G1 X30.5565 Y7.6210
N17850 G1 X30.5785 Y7.7055
N17855 G1 X30.5802 Y7.7120
N17860 G1 X30.6053 Y7.7985
N17865 G1 X30.6070 Y7.8040
N17870 G1 X30.6612 Y7.9765
N17875 G1 X30.6623 Y7.9793
N17880 G1 X30.6895 Y8.0625
N17885 G1 Y8.0630
N17890 G1 X30.7157 Y8.1427
N17895 G1 X30.7405 Y8.2182
N17900 G1 X30.7638 Y8.2895
N17905 G1 X30.7640 Y8.2905
N17910 G1 X30.7862 Y8.3585
N17915 G1 X30.7868 Y8.3600
N17920 G1 X30.8083 Y8.4243
N17925 G1 X30.8090 Y8.4262
N17930 G1 X30.8300 Y8.4872
N17935 G1 X30.8315 Y8.4915
N17940 G1 X30.8528 Y8.5497
N17945 G1 X30.8553 Y8.5567
N17950 G1 X30.8775 Y8.6122
N17955 G1 X30.8813 Y8.6210
N17960 G1 X30.9050 Y8.6745
N17965 G1 X30.9105 Y8.6862
N17970 G1 X30.9365 Y8.7375
N17975 G1 X30.9430 Y8.7495
N17980 G1 X30.9713 Y8.7985
N17985 G1 X30.9805 Y8.8133
N17990 G1 X31.0115 Y8.8590
N17995 G1 X31.0240 Y8.8760
N18000 G1 X31.0580 Y8.9183
N18005 G1 X31.0738 Y8.9360
N18010 G1 X31.1105 Y8.9738
N18015 G1 X31.1315 Y8.9930
N18020 G1 X31.1710 Y9.0252
N18025 G1 X31.1845 Y9.0352
N18030 G1 X31.1985 Y9.0448
N18035 G1 X31.2407 Y9.0705
N18040 G1 X31.2570 Y9.0798
N18045 G1 X31.2740 Y9.0875
N18050 G1 X31.3188 Y9.1065
N18055 G1 X31.3375 Y9.1135
N18060 G1 X31.3565 Y9.1190
N18065 G1 X31.4032 Y9.1303
N18070 G1 X31.4230 Y9.1345
N18075 G1 X31.4430 Y9.1367
N18080 G1 X31.4917 Y9.1405
N18085 G1 X31.5108 Y9.1415
N18090 G1 X31.5297 Y9.1408
N18095 G1 X31.5798 Y9.1370
N18100 G1 X31.5963 Y9.1352
N18105 G1 X31.6127 Y9.1325
N18110 G1 X31.6642 Y9.1218
N18115 G1 X31.6920 Y9.1143
N18120 G1 X31.7443 Y9.0968
N18125 G1 X31.7667 Y9.0880
N18130 G1 X31.8195 Y9.0645
N18135 G1 X31.8375 Y9.0557
N18140 G1 X31.8908 Y9.0267
