
This G-code is the result of a post-processor modification by chiefenne.
The original post-processor (version 45917) was modified to include additional features.
The postprocessor is intended for use with the KinetiC-NC control software from CNC-STEP.
For more information, please visit the CNC-STEP website at https://www.cnc-step.com/

The following modifications have been made to the original post-processor:
 - Intial section which supports a specific safe path to the workpiece origin (G54)
 - Jump labels between sections (e.g., 2D adaptive clearing, pockets, etc.)
   Allows to execute individual sections separately
 - Repeat / Next with counter for each operation
   Allows to redo sections multiple times
 - Allow ':' as a permitted character in comments
 - Swap spindle speed and direction, M3 S12000 instead of S12000 M3

%
(LOEWE Anagram Charm)
(Anagram Charm)
(Machine:)
(  vendor: CNC STEP)
(  model: HIGH-Z S-720T)
(  description: Generic 3-axis)

(Tools used in this program:)
(T2 D=2 CR=0 - ZMIN=-3.5 - Schaftfrser)

(Safe path to workpiece origin - typically G54)
G54
#100=#900 (read x-offset which was set in G54)
#101=0   (safe y for going to workpiece)
#102=0   (safe z for going to workpiece)
PRINT "x-offset = ";#100;"mm"
PRINT "y-offset = ";#101;"mm"
PRINT "z-offset = ";#102;"mm"
ASKBOOL "Continue with offsets?" I=2
IF #0=0 THEN
  ASKFLT "Enter x-offset" I=0.0 J=720.0
  #100=#0
  PRINT "x-offset = ";#100;"mm"
ENDIF

N10 G90 G94
N15 G17
N20 G21

G53
G0 Z=#102
G0 Y=#101
G0 X=#100

(Modify SKIP label to jump to the respective section)
(To activate, remove the brackets around SKIP and JUMP labels)
(Skip label is without : and JUMP label is with :)
(SKIP Q0002)
(Q0001:)

(2D-Kontur1)
N25 T2 M66
(Schaftfraeser 2mm Holz, GFK, CFK)
N30 M3 S24000
N35 G17 G90 G94
N40 G54
N45 G0 X27.6520 Y25.7396
N50 G0 G43 Z20.0000 H2
(Edit repeat count according to needs)
REPEAT=1
N55 G0 Z5.0000
N60 G1 Z0.4000 F1000
N65 G1 Z-1.1670
N70 G1 X27.7488 Y25.8380 F2000
N75 G1 X27.7592 Y25.8488
N80 G1 X27.8568 Y25.9408
N85 G1 X27.8640 Y25.9476
N90 G1 X27.9612 Y26.0352
N95 G1 X27.9688 Y26.0420
N100 G1 X28.0656 Y26.1248
N105 G1 X28.0736 Y26.1316
N110 G1 X28.1696 Y26.2096
N115 G1 X28.1824 Y26.2192
N120 G1 X28.3752 Y26.3636
N125 G1 X28.3920 Y26.3756
N130 G1 X28.5944 Y26.5112
N135 G1 X28.6080 Y26.5200
N140 G1 X28.7160 Y26.5864
N145 G1 X28.7264 Y26.5924
N150 G1 X28.8404 Y26.6576
N155 G1 X28.8520 Y26.6644
N160 G1 X28.9724 Y26.7280
N165 G1 X28.9864 Y26.7348
N170 G1 X29.1128 Y26.7956
N175 G1 X29.1284 Y26.8028
N180 G1 X29.1368 Y26.8064
N185 G1 X29.1284 Y26.8100
N190 G1 X29.1128 Y26.8168
N195 G1 X28.9860 Y26.8780
N200 G1 X28.9724 Y26.8848
N205 G1 X28.8524 Y26.9484
N210 G1 X28.8404 Y26.9548
N215 G1 X28.7264 Y27.0204
N220 G1 X28.7160 Y27.0264
N225 G1 X28.6080 Y27.0928
N230 G1 X28.5944 Y27.1016
N235 G1 X28.3920 Y27.2372
N240 G1 X28.3752 Y27.2492
N245 G1 X28.1824 Y27.3932
N250 G1 X28.1696 Y27.4032
N255 G1 X28.0736 Y27.4812
N260 G1 X28.0656 Y27.4880
N265 G1 X27.9688 Y27.5708
N270 G1 X27.9612 Y27.5776
N275 G1 X27.8640 Y27.6652
N280 G1 X27.8564 Y27.6720
N285 G1 X27.7592 Y27.7640
N290 G1 X27.7488 Y27.7744
N295 G1 X27.5572 Y27.9696
N300 G1 X27.5428 Y27.9852
N305 G1 X27.3620 Y28.1908
N310 G1 X27.3504 Y28.2044
N315 G1 X27.2660 Y28.3096
N320 G1 X27.2576 Y28.3200
N325 G1 X27.1780 Y28.4264
N330 G1 X27.1696 Y28.4376
N335 G1 X27.0944 Y28.5456
N340 G1 X27.0864 Y28.5576
N345 G1 X27.0156 Y28.6672
N350 G1 X27.0080 Y28.6796
N355 G1 X26.9416 Y28.7912
N360 G1 X26.9344 Y28.8036
N365 G1 X26.8720 Y28.9180
N370 G1 X26.8652 Y28.9304
N375 G1 X26.8060 Y29.0480
N380 G1 X26.8004 Y29.0596
N385 G1 X26.7440 Y29.1812
N390 G1 X26.7392 Y29.1920
N395 G1 X26.7332 Y29.2064
N400 G1 X26.3936
N405 G1 X26.3876 Y29.1920
N410 G1 X26.3824 Y29.1812
N415 G1 X26.3260 Y29.0596
N420 G1 X26.3204 Y29.0480
N425 G1 X26.2612 Y28.9304
N430 G1 X26.2548 Y28.9180
N435 G1 X26.1920 Y28.8036
N440 G1 X26.1852 Y28.7912
N445 G1 X26.1188 Y28.6796
N450 G1 X26.1108 Y28.6672
N455 G1 X26.0404 Y28.5576
N460 G1 X26.0320 Y28.5456
N465 G1 X25.9568 Y28.4376
N470 G1 X25.9488 Y28.4264
N475 G1 X25.8688 Y28.3200
N480 G1 X25.8608 Y28.3096
N485 G1 X25.7764 Y28.2044
N490 G1 X25.7648 Y28.1908
N495 G1 X25.5836 Y27.9856
N500 G1 X25.5692 Y27.9696
N505 G1 X25.3780 Y27.7744
N510 G1 X25.3672 Y27.7640
N515 G1 X25.2700 Y27.6720
N520 G1 X25.2628 Y27.6652
N525 G1 X25.1656 Y27.5776
N530 G1 X25.1580 Y27.5708
N535 G1 X25.0612 Y27.4880
N540 G1 X25.0528 Y27.4812
N545 G1 X24.9568 Y27.4032
N550 G1 X24.9444 Y27.3932
N555 G1 X24.7516 Y27.2492
N560 G1 X24.7348 Y27.2372
N565 G1 X24.5320 Y27.1016
N570 G1 X24.5188 Y27.0928
N575 G1 X24.4108 Y27.0264
N580 G1 X24.4004 Y27.0204
N585 G1 X24.2864 Y26.9548
N590 G1 X24.2744 Y26.9484
N595 G1 X24.1544 Y26.8848
N600 G1 X24.1404 Y26.8780
N605 G1 X24.0140 Y26.8168
N610 G1 X23.9980 Y26.8100
N615 G1 X23.9900 Y26.8064
N620 G1 X23.9980 Y26.8028
N625 G1 X24.0136 Y26.7956
N630 G1 X24.1404 Y26.7348
N635 G1 X24.1544 Y26.7280
N640 G1 X24.2744 Y26.6644
N645 G1 X24.2864 Y26.6576
N650 G1 X24.4004 Y26.5924
N655 G1 X24.4108 Y26.5864
N660 G1 X24.5188 Y26.5200
N665 G1 X24.5320 Y26.5112
N670 G1 X24.7348 Y26.3756
N675 G1 X24.7516 Y26.3636
N680 G1 X24.9444 Y26.2192
N685 G1 X24.9568 Y26.2096
N690 G1 X25.0528 Y26.1316
N695 G1 X25.0612 Y26.1248
N700 G1 X25.1580 Y26.0420
N705 G1 X25.1656 Y26.0352
N710 G1 X25.2628 Y25.9476
N715 G1 X25.2700 Y25.9408
N720 G1 X25.3672 Y25.8488
N725 G1 X25.3780 Y25.8380
N730 G1 X25.5692 Y25.6428
N735 G1 X25.5836 Y25.6272
N740 G1 X25.7648 Y25.4220
N745 G1 X25.7764 Y25.4080
N750 G1 X25.8608 Y25.3032
N755 G1 X25.8688 Y25.2928
N760 G1 X25.9488 Y25.1864
N765 G1 X25.9568 Y25.1748
N770 G1 X26.0324 Y25.0672
N775 G1 X26.0404 Y25.0552
N780 G1 X26.1108 Y24.9456
N785 G1 X26.1188 Y24.9332
N790 G1 X26.1852 Y24.8216
N795 G1 X26.1920 Y24.8092
N800 G1 X26.2548 Y24.6948
N805 G1 X26.2612 Y24.6824
N810 G1 X26.3204 Y24.5648
N815 G1 X26.3260 Y24.5532
N820 G1 X26.3824 Y24.4316
N825 G1 X26.3872 Y24.4204
N830 G1 X26.3936 Y24.4064
N835 G1 X26.5632
N840 G1 X26.7332
N845 G1 X26.7392 Y24.4208
N850 G1 X26.7440 Y24.4316
N855 G1 X26.8004 Y24.5532
N860 G1 X26.8060 Y24.5648
N865 G1 X26.8652 Y24.6824
N870 G1 X26.8720 Y24.6948
N875 G1 X26.9344 Y24.8092
N880 G1 X26.9416 Y24.8216
N885 G1 X27.0080 Y24.9332
N890 G1 X27.0156 Y24.9456
N895 G1 X27.0864 Y25.0552
N900 G1 X27.0944 Y25.0672
N905 G1 X27.1696 Y25.1748
N910 G1 X27.1780 Y25.1864
N915 G1 X27.2580 Y25.2928
N920 G1 X27.2660 Y25.3032
N925 G1 X27.3504 Y25.4080
N930 G1 X27.3620 Y25.4220
N935 G1 X27.5428 Y25.6272
N940 G1 X27.5572 Y25.6428
N945 G1 X27.6520 Y25.7396
N950 G1 Z-2.3330 F1000
N955 G1 X27.7488 Y25.8380 F2000
N960 G1 X27.7592 Y25.8488
N965 G1 X27.8568 Y25.9408
N970 G1 X27.8640 Y25.9476
N975 G1 X27.9612 Y26.0352
N980 G1 X27.9688 Y26.0420
N985 G1 X28.0656 Y26.1248
N990 G1 X28.0736 Y26.1316
N995 G1 X28.1696 Y26.2096
N1000 G1 X28.1824 Y26.2192
N1005 G1 X28.3752 Y26.3636
N1010 G1 X28.3920 Y26.3756
N1015 G1 X28.5944 Y26.5112
N1020 G1 X28.6080 Y26.5200
N1025 G1 X28.7160 Y26.5864
N1030 G1 X28.7264 Y26.5924
N1035 G1 X28.8404 Y26.6576
N1040 G1 X28.8520 Y26.6644
N1045 G1 X28.9724 Y26.7280
N1050 G1 X28.9864 Y26.7348
N1055 G1 X29.1128 Y26.7956
N1060 G1 X29.1284 Y26.8028
N1065 G1 X29.1368 Y26.8064
N1070 G1 X29.1284 Y26.8100
N1075 G1 X29.1128 Y26.8168
N1080 G1 X28.9860 Y26.8780
N1085 G1 X28.9724 Y26.8848
N1090 G1 X28.8524 Y26.9484
N1095 G1 X28.8404 Y26.9548
N1100 G1 X28.7264 Y27.0204
N1105 G1 X28.7160 Y27.0264
N1110 G1 X28.6080 Y27.0928
N1115 G1 X28.5944 Y27.1016
N1120 G1 X28.3920 Y27.2372
N1125 G1 X28.3752 Y27.2492
N1130 G1 X28.1824 Y27.3932
N1135 G1 X28.1696 Y27.4032
N1140 G1 X28.0736 Y27.4812
N1145 G1 X28.0656 Y27.4880
N1150 G1 X27.9688 Y27.5708
N1155 G1 X27.9612 Y27.5776
N1160 G1 X27.8640 Y27.6652
N1165 G1 X27.8564 Y27.6720
N1170 G1 X27.7592 Y27.7640
N1175 G1 X27.7488 Y27.7744
N1180 G1 X27.5572 Y27.9696
N1185 G1 X27.5428 Y27.9852
N1190 G1 X27.3620 Y28.1908
N1195 G1 X27.3504 Y28.2044
N1200 G1 X27.2660 Y28.3096
N1205 G1 X27.2576 Y28.3200
N1210 G1 X27.1780 Y28.4264
N1215 G1 X27.1696 Y28.4376
N1220 G1 X27.0944 Y28.5456
N1225 G1 X27.0864 Y28.5576
N1230 G1 X27.0156 Y28.6672
N1235 G1 X27.0080 Y28.6796
N1240 G1 X26.9416 Y28.7912
N1245 G1 X26.9344 Y28.8036
N1250 G1 X26.8720 Y28.9180
N1255 G1 X26.8652 Y28.9304
N1260 G1 X26.8060 Y29.0480
N1265 G1 X26.8004 Y29.0596
N1270 G1 X26.7440 Y29.1812
N1275 G1 X26.7392 Y29.1920
N1280 G1 X26.7332 Y29.2064
N1285 G1 X26.3936
N1290 G1 X26.3876 Y29.1920
N1295 G1 X26.3824 Y29.1812
N1300 G1 X26.3260 Y29.0596
N1305 G1 X26.3204 Y29.0480
N1310 G1 X26.2612 Y28.9304
N1315 G1 X26.2548 Y28.9180
N1320 G1 X26.1920 Y28.8036
N1325 G1 X26.1852 Y28.7912
N1330 G1 X26.1188 Y28.6796
N1335 G1 X26.1108 Y28.6672
N1340 G1 X26.0404 Y28.5576
N1345 G1 X26.0320 Y28.5456
N1350 G1 X25.9568 Y28.4376
N1355 G1 X25.9488 Y28.4264
N1360 G1 X25.8688 Y28.3200
N1365 G1 X25.8608 Y28.3096
N1370 G1 X25.7764 Y28.2044
N1375 G1 X25.7648 Y28.1908
N1380 G1 X25.5836 Y27.9856
N1385 G1 X25.5692 Y27.9696
N1390 G1 X25.3780 Y27.7744
N1395 G1 X25.3672 Y27.7640
N1400 G1 X25.2700 Y27.6720
N1405 G1 X25.2628 Y27.6652
N1410 G1 X25.1656 Y27.5776
N1415 G1 X25.1580 Y27.5708
N1420 G1 X25.0612 Y27.4880
N1425 G1 X25.0528 Y27.4812
N1430 G1 X24.9568 Y27.4032
N1435 G1 X24.9444 Y27.3932
N1440 G1 X24.7516 Y27.2492
N1445 G1 X24.7348 Y27.2372
N1450 G1 X24.5320 Y27.1016
N1455 G1 X24.5188 Y27.0928
N1460 G1 X24.4108 Y27.0264
N1465 G1 X24.4004 Y27.0204
N1470 G1 X24.2864 Y26.9548
N1475 G1 X24.2744 Y26.9484
N1480 G1 X24.1544 Y26.8848
N1485 G1 X24.1404 Y26.8780
N1490 G1 X24.0140 Y26.8168
N1495 G1 X23.9980 Y26.8100
N1500 G1 X23.9900 Y26.8064
N1505 G1 X23.9980 Y26.8028
N1510 G1 X24.0136 Y26.7956
N1515 G1 X24.1404 Y26.7348
N1520 G1 X24.1544 Y26.7280
N1525 G1 X24.2744 Y26.6644
N1530 G1 X24.2864 Y26.6576
N1535 G1 X24.4004 Y26.5924
N1540 G1 X24.4108 Y26.5864
N1545 G1 X24.5188 Y26.5200
N1550 G1 X24.5320 Y26.5112
N1555 G1 X24.7348 Y26.3756
N1560 G1 X24.7516 Y26.3636
N1565 G1 X24.9444 Y26.2192
N1570 G1 X24.9568 Y26.2096
N1575 G1 X25.0528 Y26.1316
N1580 G1 X25.0612 Y26.1248
N1585 G1 X25.1580 Y26.0420
N1590 G1 X25.1656 Y26.0352
N1595 G1 X25.2628 Y25.9476
N1600 G1 X25.2700 Y25.9408
N1605 G1 X25.3672 Y25.8488
N1610 G1 X25.3780 Y25.8380
N1615 G1 X25.5692 Y25.6428
N1620 G1 X25.5836 Y25.6272
N1625 G1 X25.7648 Y25.4220
N1630 G1 X25.7764 Y25.4080
N1635 G1 X25.8608 Y25.3032
N1640 G1 X25.8688 Y25.2928
N1645 G1 X25.9488 Y25.1864
N1650 G1 X25.9568 Y25.1748
N1655 G1 X26.0324 Y25.0672
N1660 G1 X26.0404 Y25.0552
N1665 G1 X26.1108 Y24.9456
N1670 G1 X26.1188 Y24.9332
N1675 G1 X26.1852 Y24.8216
N1680 G1 X26.1920 Y24.8092
N1685 G1 X26.2548 Y24.6948
N1690 G1 X26.2612 Y24.6824
N1695 G1 X26.3204 Y24.5648
N1700 G1 X26.3260 Y24.5532
N1705 G1 X26.3824 Y24.4316
N1710 G1 X26.3872 Y24.4204
N1715 G1 X26.3936 Y24.4064
N1720 G1 X26.5632
N1725 G1 X26.7332
N1730 G1 X26.7392 Y24.4208
N1735 G1 X26.7440 Y24.4316
N1740 G1 X26.8004 Y24.5532
N1745 G1 X26.8060 Y24.5648
N1750 G1 X26.8652 Y24.6824
N1755 G1 X26.8720 Y24.6948
N1760 G1 X26.9344 Y24.8092
N1765 G1 X26.9416 Y24.8216
N1770 G1 X27.0080 Y24.9332
N1775 G1 X27.0156 Y24.9456
N1780 G1 X27.0864 Y25.0552
N1785 G1 X27.0944 Y25.0672
N1790 G1 X27.1696 Y25.1748
N1795 G1 X27.1780 Y25.1864
N1800 G1 X27.2580 Y25.2928
N1805 G1 X27.2660 Y25.3032
N1810 G1 X27.3504 Y25.4080
N1815 G1 X27.3620 Y25.4220
N1820 G1 X27.5428 Y25.6272
N1825 G1 X27.5572 Y25.6428
N1830 G1 X27.6520 Y25.7396
N1835 G1 Z-3.5000 F1000
N1840 G1 X27.7488 Y25.8380 F2000
N1845 G1 X27.7592 Y25.8488
N1850 G1 X27.8568 Y25.9408
N1855 G1 X27.8640 Y25.9476
N1860 G1 X27.9612 Y26.0352
N1865 G1 X27.9688 Y26.0420
N1870 G1 X28.0656 Y26.1248
N1875 G1 X28.0736 Y26.1316
N1880 G1 X28.1696 Y26.2096
N1885 G1 X28.1824 Y26.2192
N1890 G1 X28.3752 Y26.3636
N1895 G1 X28.3920 Y26.3756
N1900 G1 X28.5944 Y26.5112
N1905 G1 X28.6080 Y26.5200
N1910 G1 X28.7160 Y26.5864
N1915 G1 X28.7264 Y26.5924
N1920 G1 X28.8404 Y26.6576
N1925 G1 X28.8520 Y26.6644
N1930 G1 X28.9724 Y26.7280
N1935 G1 X28.9864 Y26.7348
N1940 G1 X29.1128 Y26.7956
N1945 G1 X29.1284 Y26.8028
N1950 G1 X29.1368 Y26.8064
N1955 G1 X29.1284 Y26.8100
N1960 G1 X29.1128 Y26.8168
N1965 G1 X28.9860 Y26.8780
N1970 G1 X28.9724 Y26.8848
N1975 G1 X28.8524 Y26.9484
N1980 G1 X28.8404 Y26.9548
N1985 G1 X28.7264 Y27.0204
N1990 G1 X28.7160 Y27.0264
N1995 G1 X28.6080 Y27.0928
N2000 G1 X28.5944 Y27.1016
N2005 G1 X28.3920 Y27.2372
N2010 G1 X28.3752 Y27.2492
N2015 G1 X28.1824 Y27.3932
N2020 G1 X28.1696 Y27.4032
N2025 G1 X28.0736 Y27.4812
N2030 G1 X28.0656 Y27.4880
N2035 G1 X27.9688 Y27.5708
N2040 G1 X27.9612 Y27.5776
N2045 G1 X27.8640 Y27.6652
N2050 G1 X27.8564 Y27.6720
N2055 G1 X27.7592 Y27.7640
N2060 G1 X27.7488 Y27.7744
N2065 G1 X27.5572 Y27.9696
N2070 G1 X27.5428 Y27.9852
N2075 G1 X27.3620 Y28.1908
N2080 G1 X27.3504 Y28.2044
N2085 G1 X27.2660 Y28.3096
N2090 G1 X27.2576 Y28.3200
N2095 G1 X27.1780 Y28.4264
N2100 G1 X27.1696 Y28.4376
N2105 G1 X27.0944 Y28.5456
N2110 G1 X27.0864 Y28.5576
N2115 G1 X27.0156 Y28.6672
N2120 G1 X27.0080 Y28.6796
N2125 G1 X26.9416 Y28.7912
N2130 G1 X26.9344 Y28.8036
N2135 G1 X26.8720 Y28.9180
N2140 G1 X26.8652 Y28.9304
N2145 G1 X26.8060 Y29.0480
N2150 G1 X26.8004 Y29.0596
N2155 G1 X26.7440 Y29.1812
N2160 G1 X26.7392 Y29.1920
N2165 G1 X26.7332 Y29.2064
N2170 G1 X26.3936
N2175 G1 X26.3876 Y29.1920
N2180 G1 X26.3824 Y29.1812
N2185 G1 X26.3260 Y29.0596
N2190 G1 X26.3204 Y29.0480
N2195 G1 X26.2612 Y28.9304
N2200 G1 X26.2548 Y28.9180
N2205 G1 X26.1920 Y28.8036
N2210 G1 X26.1852 Y28.7912
N2215 G1 X26.1188 Y28.6796
N2220 G1 X26.1108 Y28.6672
N2225 G1 X26.0404 Y28.5576
N2230 G1 X26.0320 Y28.5456
N2235 G1 X25.9568 Y28.4376
N2240 G1 X25.9488 Y28.4264
N2245 G1 X25.8688 Y28.3200
N2250 G1 X25.8608 Y28.3096
N2255 G1 X25.7764 Y28.2044
N2260 G1 X25.7648 Y28.1908
N2265 G1 X25.5836 Y27.9856
N2270 G1 X25.5692 Y27.9696
N2275 G1 X25.3780 Y27.7744
N2280 G1 X25.3672 Y27.7640
N2285 G1 X25.2700 Y27.6720
N2290 G1 X25.2628 Y27.6652
N2295 G1 X25.1656 Y27.5776
N2300 G1 X25.1580 Y27.5708
N2305 G1 X25.0612 Y27.4880
N2310 G1 X25.0528 Y27.4812
N2315 G1 X24.9568 Y27.4032
N2320 G1 X24.9444 Y27.3932
N2325 G1 X24.7516 Y27.2492
N2330 G1 X24.7348 Y27.2372
N2335 G1 X24.5320 Y27.1016
N2340 G1 X24.5188 Y27.0928
N2345 G1 X24.4108 Y27.0264
N2350 G1 X24.4004 Y27.0204
N2355 G1 X24.2864 Y26.9548
N2360 G1 X24.2744 Y26.9484
N2365 G1 X24.1544 Y26.8848
N2370 G1 X24.1404 Y26.8780
N2375 G1 X24.0140 Y26.8168
N2380 G1 X23.9980 Y26.8100
N2385 G1 X23.9900 Y26.8064
N2390 G1 X23.9980 Y26.8028
N2395 G1 X24.0136 Y26.7956
N2400 G1 X24.1404 Y26.7348
N2405 G1 X24.1544 Y26.7280
N2410 G1 X24.2744 Y26.6644
N2415 G1 X24.2864 Y26.6576
N2420 G1 X24.4004 Y26.5924
N2425 G1 X24.4108 Y26.5864
N2430 G1 X24.5188 Y26.5200
N2435 G1 X24.5320 Y26.5112
N2440 G1 X24.7348 Y26.3756
N2445 G1 X24.7516 Y26.3636
N2450 G1 X24.9444 Y26.2192
N2455 G1 X24.9568 Y26.2096
N2460 G1 X25.0528 Y26.1316
N2465 G1 X25.0612 Y26.1248
N2470 G1 X25.1580 Y26.0420
N2475 G1 X25.1656 Y26.0352
N2480 G1 X25.2628 Y25.9476
N2485 G1 X25.2700 Y25.9408
N2490 G1 X25.3672 Y25.8488
N2495 G1 X25.3780 Y25.8380
N2500 G1 X25.5692 Y25.6428
N2505 G1 X25.5836 Y25.6272
N2510 G1 X25.7648 Y25.4220
N2515 G1 X25.7764 Y25.4080
N2520 G1 X25.8608 Y25.3032
N2525 G1 X25.8688 Y25.2928
N2530 G1 X25.9488 Y25.1864
N2535 G1 X25.9568 Y25.1748
N2540 G1 X26.0324 Y25.0672
N2545 G1 X26.0404 Y25.0552
N2550 G1 X26.1108 Y24.9456
N2555 G1 X26.1188 Y24.9332
N2560 G1 X26.1852 Y24.8216
N2565 G1 X26.1920 Y24.8092
N2570 G1 X26.2548 Y24.6948
N2575 G1 X26.2612 Y24.6824
N2580 G1 X26.3204 Y24.5648
N2585 G1 X26.3260 Y24.5532
N2590 G1 X26.3824 Y24.4316
N2595 G1 X26.3872 Y24.4204
N2600 G1 X26.3936 Y24.4064
N2605 G1 X26.5632
N2610 G1 X26.7332
N2615 G1 X26.7392 Y24.4208
N2620 G1 X26.7440 Y24.4316
N2625 G1 X26.8004 Y24.5532
N2630 G1 X26.8060 Y24.5648
N2635 G1 X26.8652 Y24.6824
N2640 G1 X26.8720 Y24.6948
N2645 G1 X26.9344 Y24.8092
N2650 G1 X26.9416 Y24.8216
N2655 G1 X27.0080 Y24.9332
N2660 G1 X27.0156 Y24.9456
N2665 G1 X27.0864 Y25.0552
N2670 G1 X27.0944 Y25.0672
N2675 G1 X27.1696 Y25.1748
N2680 G1 X27.1780 Y25.1864
N2685 G1 X27.2580 Y25.2928
N2690 G1 X27.2660 Y25.3032
N2695 G1 X27.3504 Y25.4080
N2700 G1 X27.3620 Y25.4220
N2705 G1 X27.5428 Y25.6272
N2710 G1 X27.5572 Y25.6428
N2715 G1 X27.6520 Y25.7396
N2720 G0 Z10.0000
N2725 G0 X35.4236 Y18.4584
N2730 G0 Z5.0000
N2735 G1 Z0.4000 F1000
N2740 G1 Z-1.1670
N2745 G1 X35.5132 Y18.6176 F2000
N2750 G1 X35.5164 Y18.6232
N2755 G1 X35.6628 Y18.8740
N2760 G1 X35.6664 Y18.8796
N2765 G1 X35.8212 Y19.1348
N2770 G1 X35.8244 Y19.1404
N2775 G1 X35.9876 Y19.3996
N2780 G1 X35.9908 Y19.4052
N2785 G1 X36.1620 Y19.6680
N2790 G1 X36.1656 Y19.6736
N2795 G1 X36.3448 Y19.9384
N2800 G1 X36.3488 Y19.9444
N2805 G1 X36.5356 Y20.2112
N2810 G1 X36.5400 Y20.2172
N2815 G1 X36.7352 Y20.4844
N2820 G1 X36.7400 Y20.4908
N2825 G1 X36.9428 Y20.7572
N2830 G1 X36.9480 Y20.7644
N2835 G1 X37.1588 Y21.0288
N2840 G1 X37.1644 Y21.0360
N2845 G1 X37.3828 Y21.2976
N2850 G1 X37.3892 Y21.3048
N2855 G1 X37.6148 Y21.5620
N2860 G1 X37.6212 Y21.5696
N2865 G1 X37.8536 Y21.8220
N2870 G1 X37.8608 Y21.8292
N2875 G1 X38.0996 Y22.0756
N2880 G1 X38.1064 Y22.0828
N2885 G1 X38.3512 Y22.3224
N2890 G1 X38.3584 Y22.3292
N2895 G1 X38.6076 Y22.5620
N2900 G1 X38.6148 Y22.5688
N2905 G1 X38.8684 Y22.7940
N2910 G1 X38.8756 Y22.8000
N2915 G1 X39.1324 Y23.0176
N2920 G1 X39.1396 Y23.0236
N2925 G1 X39.3992 Y23.2324
N2930 G1 X39.4060 Y23.2380
N2935 G1 X39.6668 Y23.4388
N2940 G1 X39.6740 Y23.4440
N2945 G1 X39.9352 Y23.6360
N2950 G1 X39.9420 Y23.6408
N2955 G1 X40.2032 Y23.8244
N2960 G1 X40.2100 Y23.8292
N2965 G1 X40.4700 Y24.0040
N2970 G1 X40.4760 Y24.0080
N2975 G1 X40.7336 Y24.1748
N2980 G1 X40.7400 Y24.1788
N2985 G1 X40.9952 Y24.3372
N2990 G1 X41.0008 Y24.3408
N2995 G1 X41.2524 Y24.4912
N3000 G1 X41.2580 Y24.4944
N3005 G1 X41.5060 Y24.6372
N3010 G1 X41.5108 Y24.6400
N3015 G1 X41.7536 Y24.7752
N3020 G1 X41.7584 Y24.7780
N3025 G1 X41.9964 Y24.9064
N3030 G1 X42.0016 Y24.9088
N3035 G1 X42.2348 Y25.0304
N3040 G1 X42.2384 Y25.0324
N3045 G1 X42.4656 Y25.1480
N3050 G1 X42.4700 Y25.1500
N3055 G1 X42.6924 Y25.2596
N3060 G1 X42.6956 Y25.2612
N3065 G1 X42.9124 Y25.3656
N3070 G1 X42.9160 Y25.3676
N3075 G1 X43.1280 Y25.4668
N3080 G1 X43.1312 Y25.4684
N3085 G1 X43.3384 Y25.5636
N3090 G1 X43.3416 Y25.5648
N3095 G1 X43.5448 Y25.6560
N3100 G1 X43.5476 Y25.6572
N3105 G1 X43.7472 Y25.7448
N3110 G1 X43.7500 Y25.7460
N3115 G1 X43.9464 Y25.8304
N3120 G1 X43.9512 Y25.8328
N3125 G1 X44.3388 Y25.9932
N3130 G1 X44.3460 Y25.9960
N3135 G1 X44.7316 Y26.1472
N3140 G1 X44.7404 Y26.1508
N3145 G1 X45.1324 Y26.2936
N3150 G1 X45.1412 Y26.2968
N3155 G1 X45.3428 Y26.3652
N3160 G1 X45.3492 Y26.3672
N3165 G1 X45.5556 Y26.4332
N3170 G1 X45.5632 Y26.4356
N3175 G1 X45.7760 Y26.4988
N3180 G1 X45.7840 Y26.5012
N3185 G1 X46.0040 Y26.5620
N3190 G1 X46.0128 Y26.5640
N3195 G1 X46.2408 Y26.6216
N3200 G1 X46.2496 Y26.6236
N3205 G1 X46.4864 Y26.6776
N3210 G1 X46.4956 Y26.6796
N3215 G1 X46.7412 Y26.7296
N3220 G1 X46.7508 Y26.7312
N3225 G1 X47.0052 Y26.7764
N3230 G1 X47.0144 Y26.7780
N3235 G1 X47.1984 Y26.8064
N3240 G1 X47.0144 Y26.8344
N3245 G1 X47.0052 Y26.8360
N3250 G1 X46.7508 Y26.8816
N3255 G1 X46.7412 Y26.8832
N3260 G1 X46.4956 Y26.9332
N3265 G1 X46.4864 Y26.9352
N3270 G1 X46.2496 Y26.9888
N3275 G1 X46.2408 Y26.9912
N3280 G1 X46.0128 Y27.0484
N3285 G1 X46.0040 Y27.0508
N3290 G1 X45.7840 Y27.1116
N3295 G1 X45.7760 Y27.1136
N3300 G1 X45.5632 Y27.1772
N3305 G1 X45.5556 Y27.1796
N3310 G1 X45.3492 Y27.2456
N3315 G1 X45.3428 Y27.2476
N3320 G1 X45.1412 Y27.3160
N3325 G1 X45.1324 Y27.3192
N3330 G1 X44.7404 Y27.4620
N3335 G1 X44.7316 Y27.4652
N3340 G1 X44.3460 Y27.6168
N3345 G1 X44.3388 Y27.6196
N3350 G1 X43.9512 Y27.7800
N3355 G1 X43.9464 Y27.7820
N3360 G1 X43.7500 Y27.8664
N3365 G1 X43.7472 Y27.8676
N3370 G1 X43.5476 Y27.9552
N3375 G1 X43.5448 Y27.9568
N3380 G1 X43.3416 Y28.0480
N3385 G1 X43.3384 Y28.0492
N3390 G1 X43.1312 Y28.1444
N3395 G1 X43.1280 Y28.1456
N3400 G1 X42.9160 Y28.2452
N3405 G1 X42.9124 Y28.2468
N3410 G1 X42.6956 Y28.3512
N3415 G1 X42.6924 Y28.3528
N3420 G1 X42.4700 Y28.4628
N3425 G1 X42.4656 Y28.4648
N3430 G1 X42.2384 Y28.5804
N3435 G1 X42.2344 Y28.5824
N3440 G1 X42.0012 Y28.7040
N3445 G1 X41.9968 Y28.7064
N3450 G1 X41.7588 Y28.8348
N3455 G1 X41.7536 Y28.8372
N3460 G1 X41.5108 Y28.9728
N3465 G1 X41.5060 Y28.9756
N3470 G1 X41.2580 Y29.1180
N3475 G1 X41.2524 Y29.1216
N3480 G1 X41.0008 Y29.2720
N3485 G1 X40.9952 Y29.2756
N3490 G1 X40.7400 Y29.4340
N3495 G1 X40.7336 Y29.4380
N3500 G1 X40.4760 Y29.6044
N3505 G1 X40.4700 Y29.6084
N3510 G1 X40.2100 Y29.7836
N3515 G1 X40.2032 Y29.7880
N3520 G1 X39.9420 Y29.9716
N3525 G1 X39.9352 Y29.9768
N3530 G1 X39.6740 Y30.1688
N3535 G1 X39.6668 Y30.1740
N3540 G1 X39.4060 Y30.3748
N3545 G1 X39.3988 Y30.3804
N3550 G1 X39.1396 Y30.5892
N3555 G1 X39.1324 Y30.5952
N3560 G1 X38.8756 Y30.8124
N3565 G1 X38.8684 Y30.8188
N3570 G1 X38.6148 Y31.0440
N3575 G1 X38.6076 Y31.0508
N3580 G1 X38.3584 Y31.2832
N3585 G1 X38.3512 Y31.2904
N3590 G1 X38.1064 Y31.5300
N3595 G1 X38.0996 Y31.5372
N3600 G1 X37.8608 Y31.7836
N3605 G1 X37.8540 Y31.7908
N3610 G1 X37.6212 Y32.0432
N3615 G1 X37.6148 Y32.0504
N3620 G1 X37.3892 Y32.3076
N3625 G1 X37.3828 Y32.3152
N3630 G1 X37.1644 Y32.5768
N3635 G1 X37.1588 Y32.5840
N3640 G1 X36.9480 Y32.8484
N3645 G1 X36.9428 Y32.8552
N3650 G1 X36.7400 Y33.1220
N3655 G1 X36.7352 Y33.1284
N3660 G1 X36.5400 Y33.3956
N3665 G1 X36.5356 Y33.4016
N3670 G1 X36.3488 Y33.6684
N3675 G1 X36.3448 Y33.6740
N3680 G1 X36.1656 Y33.9392
N3685 G1 X36.1620 Y33.9448
N3690 G1 X35.9908 Y34.2072
N3695 G1 X35.9876 Y34.2128
N3700 G1 X35.8244 Y34.4724
N3705 G1 X35.8212 Y34.4776
N3710 G1 X35.6664 Y34.7332
N3715 G1 X35.6628 Y34.7388
N3720 G1 X35.5164 Y34.9892
N3725 G1 X35.5132 Y34.9952
N3730 G1 X35.3752 Y35.2412
N3735 G1 X35.3716 Y35.2472
N3740 G1 X35.2420 Y35.4876
N3745 G1 X35.2388 Y35.4940
N3750 G1 X35.1176 Y35.7288
N3755 G1 X35.1140 Y35.7360
N3760 G1 X35.0012 Y35.9652
N3765 G1 X34.9976 Y35.9724
N3770 G1 X34.8932 Y36.1960
N3775 G1 X34.8896 Y36.2036
N3780 G1 X34.7936 Y36.4216
N3785 G1 X34.7900 Y36.4300
N3790 G1 X34.7020 Y36.6424
N3795 G1 X34.6984 Y36.6508
N3800 G1 X34.6180 Y36.8580
N3805 G1 X34.6148 Y36.8668
N3810 G1 X34.5416 Y37.0688
N3815 G1 X34.5388 Y37.0776
N3820 G1 X34.4728 Y37.2748
N3825 G1 X34.4696 Y37.2840
N3830 G1 X34.4100 Y37.4768
N3835 G1 X34.4076 Y37.4852
N3840 G1 X34.3536 Y37.6740
N3845 G1 X34.3516 Y37.6820
N3850 G1 X34.3028 Y37.8676
N3855 G1 X34.3012 Y37.8740
N3860 G1 X34.2564 Y38.0568
N3865 G1 X34.2552 Y38.0620
N3870 G1 X34.2136 Y38.2420
N3875 G1 X34.2124 Y38.2472
N3880 G1 X34.1364 Y38.6000
N3885 G1 X34.1360 Y38.6020
N3890 G1 X34.0640 Y38.9436
N3895 G1 X33.9912 Y39.2708
N3900 G1 X33.9540 Y39.4252
N3905 G1 X33.9156 Y39.5736
N3910 G1 X33.8760 Y39.7140
N3915 G1 X33.8360 Y39.8444
N3920 G1 X33.7952 Y39.9632
N3925 G1 X33.7552 Y40.0684
N3930 G1 X33.7160 Y40.1580
N3935 G1 X33.6788 Y40.2312
N3940 G1 X33.6436 Y40.2892
N3945 G1 X33.6112 Y40.3344
N3950 G1 X33.5780 Y40.3720
N3955 G1 X33.5384 Y40.4096
N3960 G1 X33.4868 Y40.4528
N3965 G1 X33.4204 Y40.5036
N3970 G1 X33.3384 Y40.5640
N3975 G1 X33.2444 Y40.6324
N3980 G1 X33.2436 Y40.6332
N3985 G1 X33.1388 Y40.7100
N3990 G1 X33.1376 Y40.7108
N3995 G1 X33.0244 Y40.7944
N4000 G1 X32.9060 Y40.8812
N4005 G1 X32.7856 Y40.9664
N4010 G1 X32.6684 Y41.0440
N4015 G1 X32.5564 Y41.1096
N4020 G1 X32.5100 Y41.1336
N4025 G1 X32.4656 Y41.1540
N4030 G1 X32.4292 Y41.1680
N4035 G1 X32.4008 Y41.1764
N4040 G1 X32.3956 Y41.1776
N4045 G1 X32.3900 Y41.1684
N4050 G1 X32.3748 Y41.1392
N4055 G1 X32.3588 Y41.1008
N4060 G1 X32.3420 Y41.0544
N4065 G1 X32.3264 Y41.0032
N4070 G1 X32.2948 Y40.8740
N4075 G1 X32.2680 Y40.7328
N4080 G1 X32.2436 Y40.5824
N4085 G1 X32.2212 Y40.4284
N4090 G1 X32.1996 Y40.2776
N4095 G1 X32.1988 Y40.2736
N4100 G1 X32.1768 Y40.1296
N4105 G1 X32.1752 Y40.1220
N4110 G1 X32.1516 Y39.9860
N4115 G1 X32.1496 Y39.9760
N4120 G1 X32.1240 Y39.8464
N4125 G1 X32.1216 Y39.8356
N4130 G1 X32.0928 Y39.7108
N4135 G1 X32.0892 Y39.6960
N4140 G1 X32.0228 Y39.4508
N4145 G1 X32.0200 Y39.4408
N4150 G1 X31.9820 Y39.3144
N4155 G1 X31.9816 Y39.3120
N4160 G1 X31.9408 Y39.1784
N4165 G1 X31.8976 Y39.0368
N4170 G1 X31.8524 Y38.8852
N4175 G1 X31.8044 Y38.7212
N4180 G1 X31.7544 Y38.5440
N4185 G1 X31.7020 Y38.3532
N4190 G1 X31.6476 Y38.1488
N4195 G1 X31.5908 Y37.9312
N4200 G1 X31.5320 Y37.7020
N4205 G1 X31.4716 Y37.4624
N4210 G1 X31.4092 Y37.2144
N4215 G1 X31.3456 Y36.9596
N4220 G1 X31.2804 Y36.7000
N4225 G1 X31.2800 Y36.6992
N4230 G1 X31.1476 Y36.1748
N4235 G1 X31.1472 Y36.1728
N4240 G1 X31.0128 Y35.6536
N4245 G1 X31.0124 Y35.6516
N4250 G1 X30.9456 Y35.3980
N4255 G1 Y35.3968
N4260 G1 X30.8792 Y35.1488
N4265 G1 Y35.1476
N4270 G1 X30.8140 Y34.9060
N4275 G1 Y34.9056
N4280 G1 X30.7508 Y34.6712
N4285 G1 X30.6892 Y34.4448
N4290 G1 X30.6304 Y34.2272
N4295 G1 X30.5744 Y34.0192
N4300 G1 X30.5216 Y33.8204
N4305 G1 X30.4720 Y33.6312
N4310 G1 X30.4256 Y33.4512
N4315 G1 X30.3832 Y33.2800
N4320 G1 X30.3436 Y33.1176
N4325 G1 X30.3072 Y32.9628
N4330 G1 X30.2732 Y32.8148
N4335 G1 X30.2412 Y32.6732
N4340 G1 X30.2108 Y32.5368
N4345 G1 X30.2104 Y32.5360
N4350 G1 X30.1808 Y32.4052
N4355 G1 X30.1804 Y32.4028
N4360 G1 X30.1508 Y32.2772
N4365 G1 X30.1496 Y32.2720
N4370 G1 X30.0904 Y32.0324
N4375 G1 X30.0884 Y32.0252
N4380 G1 X29.9672 Y31.5716
N4385 G1 X29.9420 Y31.4664
N4390 G1 X29.9204 Y31.3620
N4395 G1 X29.9040 Y31.2584
N4400 G1 X29.8928 Y31.1540
N4405 G1 X29.8880 Y31.0480
N4410 G1 X29.8904 Y30.9396
N4415 G1 X29.9004 Y30.8284
N4420 G1 X29.9188 Y30.7152
N4425 G1 X29.9452 Y30.6024
N4430 G1 X29.9792 Y30.4916
N4435 G1 X30.0204 Y30.3868
N4440 G1 X30.0668 Y30.2904
N4445 G1 X30.1168 Y30.2064
N4450 G1 X30.1680 Y30.1364
N4455 G1 X30.2216 Y30.0772
N4460 G1 X30.2408 Y30.0596
N4465 G1 X30.2576 Y30.0456
N4470 G1 X30.3048 Y30.0148
N4475 G1 X30.3444 Y29.9968
N4480 G1 X30.3852 Y29.9844
N4485 G1 X30.4312 Y29.9768
N4490 G1 X30.4840 Y29.9740
N4495 G1 X30.5432 Y29.9772
N4500 G1 X30.6072 Y29.9856
N4505 G1 X30.6740 Y30.0000
N4510 G1 X30.7404 Y30.0200
N4515 G1 X30.8060 Y30.0448
N4520 G1 X30.8704 Y30.0756
N4525 G1 X30.9336 Y30.1128
N4530 G1 X30.9980 Y30.1580
N4535 G1 X31.0636 Y30.2128
N4540 G1 X31.1312 Y30.2784
N4545 G1 X31.2012 Y30.3552
N4550 G1 X31.2732 Y30.4428
N4555 G1 X31.3456 Y30.5380
N4560 G1 X31.4976 Y30.7508
N4565 G1 X31.5724 Y30.8560
N4570 G1 X31.5776 Y30.8628
N4575 G1 X31.6512 Y30.9620
N4580 G1 X31.6620 Y30.9756
N4585 G1 X31.7348 Y31.0652
N4590 G1 X31.7540 Y31.0872
N4595 G1 X31.8268 Y31.1644
N4600 G1 X31.8588 Y31.1948
N4605 G1 X31.9324 Y31.2576
N4610 G1 X31.9688 Y31.2848
N4615 G1 X32.0064 Y31.3100
N4620 G1 X32.0376 Y31.3288
N4625 G1 X32.0756 Y31.3496
N4630 G1 X32.1136 Y31.3680
N4635 G1 X32.1524 Y31.3840
N4640 G1 X32.1956 Y31.3992
N4645 G1 X32.2352 Y31.4104
N4650 G1 X32.2820 Y31.4208
N4655 G1 X32.3224 Y31.4272
N4660 G1 X32.3708 Y31.4320
N4665 G1 X32.4120 Y31.4336
N4670 G1 X32.4592 Y31.4324
N4675 G1 X32.5016 Y31.4288
N4680 G1 X32.5448 Y31.4228
N4685 G1 X32.5884 Y31.4144
N4690 G1 X32.6264 Y31.4052
N4695 G1 X32.6712 Y31.3920
N4700 G1 X32.7036 Y31.3808
N4705 G1 X32.7496 Y31.3628
N4710 G1 X32.7768 Y31.3508
N4715 G1 X32.8240 Y31.3280
N4720 G1 X32.8456 Y31.3168
N4725 G1 X32.8940 Y31.2896
N4730 G1 X32.9196 Y31.2740
N4735 G1 X33.0192 Y31.2076
N4740 G1 X33.0436 Y31.1904
N4745 G1 X33.1468 Y31.1100
N4750 G1 X33.1632 Y31.0964
N4755 G1 X33.2692 Y31.0048
N4760 G1 X33.2800 Y30.9952
N4765 G1 X33.3876 Y30.8948
N4770 G1 X33.3952 Y30.8876
N4775 G1 X33.5032 Y30.7816
N4780 G1 X33.5112 Y30.7736
N4785 G1 X33.7204 Y30.5560
N4790 G1 X33.7276 Y30.5484
N4795 G1 X33.8256 Y30.4408
N4800 G1 X33.8320 Y30.4336
N4805 G1 X33.9228 Y30.3288
N4810 G1 X33.9320 Y30.3180
N4815 G1 X34.0140 Y30.2164
N4820 G1 X34.0272 Y30.1996
N4825 G1 X34.0988 Y30.1008
N4830 G1 X34.1156 Y30.0756
N4835 G1 X34.1748 Y29.9788
N4840 G1 X34.1948 Y29.9424
N4845 G1 X34.2408 Y29.8464
N4850 G1 X34.2512 Y29.8224
N4855 G1 X34.2604 Y29.7980
N4860 G1 X34.2916 Y29.7016
N4865 G1 X34.3000 Y29.6728
N4870 G1 X34.3060 Y29.6436
N4875 G1 X34.3224 Y29.5460
N4880 G1 X34.3264 Y29.5148
N4885 G1 X34.3280 Y29.4840
N4890 G1 X34.3288 Y29.3840
N4895 G1 X34.3284 Y29.3552
N4900 G1 X34.3252 Y29.3264
N4905 G1 X34.3116 Y29.2236
N4910 G1 X34.3020 Y29.1748
N4915 G1 X34.2740 Y29.0692
N4920 G1 X34.2620 Y29.0312
N4925 G1 X34.2216 Y28.9228
N4930 G1 X34.2092 Y28.8932
N4935 G1 X34.1576 Y28.7828
N4940 G1 X34.1464 Y28.7608
N4945 G1 X34.0856 Y28.6492
N4950 G1 X34.0756 Y28.6320
N4955 G1 X34.0072 Y28.5204
N4960 G1 X33.9984 Y28.5064
N4965 G1 X33.9244 Y28.3956
N4970 G1 X33.9164 Y28.3840
N4975 G1 X33.8376 Y28.2748
N4980 G1 X33.8300 Y28.2644
N4985 G1 X33.7476 Y28.1576
N4990 G1 X33.7396 Y28.1476
N4995 G1 X33.6540 Y28.0436
N5000 G1 X33.6456 Y28.0336
N5005 G1 X33.5564 Y27.9324
N5010 G1 X33.5468 Y27.9220
N5015 G1 X33.4540 Y27.8236
N5020 G1 X33.4436 Y27.8132
N5025 G1 X33.3468 Y27.7176
N5030 G1 X33.3352 Y27.7068
N5035 G1 X33.2332 Y27.6144
N5040 G1 X33.2212 Y27.6040
N5045 G1 X33.1136 Y27.5140
N5050 G1 X33.1016 Y27.5040
N5055 G1 X32.9880 Y27.4164
N5060 G1 X32.9764 Y27.4076
N5065 G1 X32.8572 Y27.3224
N5070 G1 X32.8456 Y27.3144
N5075 G1 X32.7212 Y27.2316
N5080 G1 X32.7108 Y27.2248
N5085 G1 X32.5820 Y27.1452
N5090 G1 X32.5720 Y27.1392
N5095 G1 X32.4412 Y27.0632
N5100 G1 X32.4320 Y27.0580
N5105 G1 X32.3008 Y26.9864
N5110 G1 X32.2920 Y26.9816
N5115 G1 X32.1628 Y26.9152
N5120 G1 X32.1540 Y26.9108
N5125 G1 X32.0292 Y26.8504
N5130 G1 X32.0200 Y26.8464
N5135 G1 X31.9320 Y26.8064
N5140 G1 X32.0200 Y26.7664
N5145 G1 X32.0292 Y26.7620
N5150 G1 X32.1540 Y26.7020
N5155 G1 X32.1628 Y26.6976
N5160 G1 X32.2920 Y26.6312
N5165 G1 X32.3008 Y26.6264
N5170 G1 X32.4320 Y26.5548
N5175 G1 X32.4412 Y26.5496
N5180 G1 X32.5724 Y26.4732
N5185 G1 X32.5820 Y26.4676
N5190 G1 X32.7108 Y26.3876
N5195 G1 X32.7212 Y26.3808
N5200 G1 X32.8456 Y26.2984
N5205 G1 X32.8572 Y26.2904
N5210 G1 X32.9764 Y26.2052
N5215 G1 X32.9880 Y26.1964
N5220 G1 X33.1016 Y26.1084
N5225 G1 X33.1136 Y26.0988
N5230 G1 X33.2212 Y26.0088
N5235 G1 X33.2332 Y25.9984
N5240 G1 X33.3352 Y25.9056
N5245 G1 X33.3468 Y25.8948
N5250 G1 X33.4436 Y25.7996
N5255 G1 X33.4540 Y25.7888
N5260 G1 X33.5468 Y25.6908
N5265 G1 X33.5564 Y25.6804
N5270 G1 X33.6452 Y25.5792
N5275 G1 X33.6540 Y25.5692
N5280 G1 X33.7396 Y25.4652
N5285 G1 X33.7476 Y25.4552
N5290 G1 X33.8300 Y25.3484
N5295 G1 X33.8376 Y25.3380
N5300 G1 X33.9164 Y25.2284
N5305 G1 X33.9244 Y25.2172
N5310 G1 X33.9984 Y25.1064
N5315 G1 X34.0072 Y25.0924
N5320 G1 X34.0756 Y24.9808
N5325 G1 X34.0856 Y24.9636
N5330 G1 X34.1464 Y24.8520
N5335 G1 X34.1576 Y24.8296
N5340 G1 X34.2092 Y24.7192
N5345 G1 X34.2216 Y24.6900
N5350 G1 X34.2620 Y24.5816
N5355 G1 X34.2740 Y24.5436
N5360 G1 X34.3020 Y24.4376
N5365 G1 X34.3116 Y24.3892
N5370 G1 X34.3252 Y24.2864
N5375 G1 X34.3284 Y24.2576
N5380 G1 X34.3288 Y24.2288
N5385 G1 X34.3280 Y24.1288
N5390 G1 X34.3264 Y24.0976
N5395 G1 X34.3224 Y24.0668
N5400 G1 X34.3060 Y23.9692
N5405 G1 X34.3000 Y23.9400
N5410 G1 X34.2916 Y23.9108
N5415 G1 X34.2604 Y23.8148
N5420 G1 X34.2512 Y23.7904
N5425 G1 X34.2408 Y23.7664
N5430 G1 X34.1948 Y23.6704
N5435 G1 X34.1748 Y23.6340
N5440 G1 X34.1156 Y23.5372
N5445 G1 X34.0988 Y23.5120
N5450 G1 X34.0272 Y23.4132
N5455 G1 X34.0140 Y23.3960
N5460 G1 X33.9320 Y23.2944
N5465 G1 X33.9228 Y23.2836
N5470 G1 X33.8320 Y23.1792
N5475 G1 X33.8256 Y23.1720
N5480 G1 X33.7276 Y23.0644
N5485 G1 X33.7204 Y23.0568
N5490 G1 X33.5112 Y22.8392
N5495 G1 X33.5032 Y22.8312
N5500 G1 X33.3952 Y22.7252
N5505 G1 X33.3876 Y22.7180
N5510 G1 X33.2800 Y22.6176
N5515 G1 X33.2692 Y22.6080
N5520 G1 X33.1632 Y22.5160
N5525 G1 X33.1468 Y22.5028
N5530 G1 X33.0436 Y22.4224
N5535 G1 X33.0192 Y22.4052
N5540 G1 X32.9196 Y22.3388
N5545 G1 X32.8940 Y22.3232
N5550 G1 X32.8456 Y22.2960
N5555 G1 X32.8236 Y22.2844
N5560 G1 X32.7764 Y22.2620
N5565 G1 X32.7496 Y22.2500
N5570 G1 X32.7040 Y22.2320
N5575 G1 X32.6712 Y22.2208
N5580 G1 X32.6264 Y22.2076
N5585 G1 X32.5884 Y22.1980
N5590 G1 X32.5448 Y22.1896
N5595 G1 X32.5012 Y22.1836
N5600 G1 X32.4592 Y22.1804
N5605 G1 X32.4124 Y22.1792
N5610 G1 X32.3712 Y22.1808
N5615 G1 X32.3224 Y22.1856
N5620 G1 X32.2820 Y22.1920
N5625 G1 X32.2352 Y22.2024
N5630 G1 X32.1956 Y22.2136
N5635 G1 X32.1520 Y22.2288
N5640 G1 X32.1132 Y22.2452
N5645 G1 X32.0760 Y22.2628
N5650 G1 X32.0380 Y22.2836
N5655 G1 X32.0064 Y22.3028
N5660 G1 X31.9688 Y22.3276
N5665 G1 X31.9324 Y22.3552
N5670 G1 X31.8588 Y22.4180
N5675 G1 X31.8268 Y22.4484
N5680 G1 X31.7540 Y22.5256
N5685 G1 X31.7348 Y22.5476
N5690 G1 X31.6620 Y22.6372
N5695 G1 X31.6512 Y22.6508
N5700 G1 X31.5776 Y22.7500
N5705 G1 X31.5724 Y22.7568
N5710 G1 X31.4976 Y22.8620
N5715 G1 X31.3456 Y23.0744
N5720 G1 X31.2732 Y23.1700
N5725 G1 X31.2012 Y23.2576
N5730 G1 X31.1312 Y23.3344
N5735 G1 X31.0636 Y23.4000
N5740 G1 X30.9980 Y23.4548
N5745 G1 X30.9336 Y23.5000
N5750 G1 X30.8700 Y23.5372
N5755 G1 X30.8060 Y23.5680
N5760 G1 X30.7408 Y23.5928
N5765 G1 X30.6740 Y23.6124
N5770 G1 X30.6072 Y23.6268
N5775 G1 X30.5432 Y23.6356
N5780 G1 X30.4840 Y23.6388
N5785 G1 X30.4312 Y23.6360
N5790 G1 X30.3852 Y23.6284
N5795 G1 X30.3444 Y23.6160
N5800 G1 X30.3048 Y23.5976
N5805 G1 X30.2576 Y23.5668
N5810 G1 X30.2408 Y23.5532
N5815 G1 X30.2216 Y23.5356
N5820 G1 X30.1680 Y23.4764
N5825 G1 X30.1168 Y23.4064
N5830 G1 X30.0668 Y23.3220
N5835 G1 X30.0204 Y23.2260
N5840 G1 X29.9792 Y23.1208
N5845 G1 X29.9452 Y23.0104
N5850 G1 X29.9188 Y22.8972
N5855 G1 X29.9004 Y22.7844
N5860 G1 X29.8904 Y22.6732
N5865 G1 X29.8880 Y22.5648
N5870 G1 X29.8928 Y22.4588
N5875 G1 X29.9040 Y22.3544
N5880 G1 X29.9204 Y22.2508
N5885 G1 X29.9420 Y22.1464
N5890 G1 X29.9672 Y22.0412
N5895 G1 X30.0884 Y21.5872
N5900 G1 X30.0904 Y21.5804
N5905 G1 X30.1496 Y21.3408
N5910 G1 X30.1508 Y21.3352
N5915 G1 X30.1804 Y21.2096
N5920 G1 X30.1808 Y21.2072
N5925 G1 X30.2104 Y21.0768
N5930 G1 X30.2108 Y21.0760
N5935 G1 X30.2412 Y20.9396
N5940 G1 X30.2732 Y20.7976
N5945 G1 X30.3072 Y20.6500
N5950 G1 X30.3436 Y20.4952
N5955 G1 X30.3832 Y20.3324
N5960 G1 X30.4256 Y20.1616
N5965 G1 X30.4720 Y19.9816
N5970 G1 X30.5216 Y19.7924
N5975 G1 X30.5744 Y19.5936
N5980 G1 X30.6304 Y19.3852
N5985 G1 X30.6892 Y19.1680
N5990 G1 X30.7508 Y18.9420
N5995 G1 X30.8140 Y18.7072
N6000 G1 Y18.7064
N6005 G1 X30.8792 Y18.4648
N6010 G1 Y18.4640
N6015 G1 X30.9456 Y18.2160
N6020 G1 Y18.2148
N6025 G1 X31.0124 Y17.9608
N6030 G1 X31.0128 Y17.9592
N6035 G1 X31.1472 Y17.4400
N6040 G1 X31.1476 Y17.4380
N6045 G1 X31.2800 Y16.9136
N6050 G1 X31.2804 Y16.9128
N6055 G1 X31.3452 Y16.6532
N6060 G1 X31.4092 Y16.3984
N6065 G1 X31.4716 Y16.1500
N6070 G1 X31.5320 Y15.9108
N6075 G1 X31.5908 Y15.6816
N6080 G1 X31.6476 Y15.4640
N6085 G1 X31.7020 Y15.2596
N6090 G1 X31.7544 Y15.0684
N6095 G1 X31.8044 Y14.8916
N6100 G1 X31.8524 Y14.7276
N6105 G1 X31.8976 Y14.5760
N6110 G1 X31.9408 Y14.4340
N6115 G1 X31.9816 Y14.3008
N6120 G1 X31.9820 Y14.2984
N6125 G1 X32.0200 Y14.1716
N6130 G1 X32.0228 Y14.1620
N6135 G1 X32.0892 Y13.9168
N6140 G1 X32.0928 Y13.9020
N6145 G1 X32.1216 Y13.7772
N6150 G1 X32.1236 Y13.7664
N6155 G1 X32.1496 Y13.6368
N6160 G1 X32.1516 Y13.6268
N6165 G1 X32.1756 Y13.4904
N6170 G1 X32.1768 Y13.4832
N6175 G1 X32.1988 Y13.3392
N6180 G1 X32.1996 Y13.3352
N6185 G1 X32.2212 Y13.1840
N6190 G1 X32.2436 Y13.0304
N6195 G1 X32.2680 Y12.8796
N6200 G1 X32.2948 Y12.7388
N6205 G1 X32.3264 Y12.6092
N6210 G1 X32.3420 Y12.5584
N6215 G1 X32.3588 Y12.5116
N6220 G1 X32.3748 Y12.4736
N6225 G1 X32.3896 Y12.4448
N6230 G1 X32.3956 Y12.4352
N6235 G1 X32.4000 Y12.4360
N6240 G1 X32.4292 Y12.4448
N6245 G1 X32.4664 Y12.4592
N6250 G1 X32.5100 Y12.4788
N6255 G1 X32.5560 Y12.5028
N6260 G1 X32.6688 Y12.5692
N6265 G1 X32.7856 Y12.6464
N6270 G1 X32.9060 Y12.7316
N6275 G1 X33.0244 Y12.8184
N6280 G1 X33.1380 Y12.9020
N6285 G1 X33.1384 Y12.9024
N6290 G1 X33.2432 Y12.9796
N6295 G1 X33.2444 Y12.9804
N6300 G1 X33.3388 Y13.0492
N6305 G1 X33.4204 Y13.1092
N6310 G1 X33.4868 Y13.1600
N6315 G1 X33.5384 Y13.2028
N6320 G1 X33.5780 Y13.2404
N6325 G1 X33.6112 Y13.2788
N6330 G1 X33.6440 Y13.3236
N6335 G1 X33.6788 Y13.3816
N6340 G1 X33.7160 Y13.4548
N6345 G1 X33.7552 Y13.5444
N6350 G1 X33.7952 Y13.6496
N6355 G1 X33.8360 Y13.7684
N6360 G1 X33.8760 Y13.8988
N6365 G1 X33.9156 Y14.0392
N6370 G1 X33.9540 Y14.1876
N6375 G1 X33.9912 Y14.3416
N6380 G1 X34.0640 Y14.6692
N6385 G1 X34.1360 Y15.0108
N6390 G1 X34.1364 Y15.0128
N6395 G1 X34.2124 Y15.3652
N6400 G1 X34.2136 Y15.3708
N6405 G1 X34.2552 Y15.5504
N6410 G1 X34.2564 Y15.5560
N6415 G1 X34.3012 Y15.7384
N6420 G1 X34.3028 Y15.7452
N6425 G1 X34.3516 Y15.9308
N6430 G1 X34.3536 Y15.9384
N6435 G1 X34.4076 Y16.1276
N6440 G1 X34.4100 Y16.1360
N6445 G1 X34.4696 Y16.3288
N6450 G1 X34.4728 Y16.3376
N6455 G1 X34.5388 Y16.5352
N6460 G1 X34.5416 Y16.5440
N6465 G1 X34.6148 Y16.7460
N6470 G1 X34.6180 Y16.7548
N6475 G1 X34.6984 Y16.9620
N6480 G1 X34.7020 Y16.9704
N6485 G1 X34.7900 Y17.1828
N6490 G1 X34.7936 Y17.1912
N6495 G1 X34.8896 Y17.4088
N6500 G1 X34.8932 Y17.4168
N6505 G1 X34.9976 Y17.6404
N6510 G1 X35.0012 Y17.6476
N6515 G1 X35.1140 Y17.8768
N6520 G1 X35.1176 Y17.8836
N6525 G1 X35.2388 Y18.1188
N6530 G1 X35.2420 Y18.1252
N6535 G1 X35.3716 Y18.3656
N6540 G1 X35.3752 Y18.3716
N6545 G1 X35.4236 Y18.4584
N6550 G1 Z-2.3330 F1000
N6555 G1 X35.5132 Y18.6176 F2000
N6560 G1 X35.5164 Y18.6232
N6565 G1 X35.6628 Y18.8740
N6570 G1 X35.6664 Y18.8796
N6575 G1 X35.8212 Y19.1348
N6580 G1 X35.8244 Y19.1404
N6585 G1 X35.9876 Y19.3996
N6590 G1 X35.9908 Y19.4052
N6595 G1 X36.1620 Y19.6680
N6600 G1 X36.1656 Y19.6736
N6605 G1 X36.3448 Y19.9384
N6610 G1 X36.3488 Y19.9444
N6615 G1 X36.5356 Y20.2112
N6620 G1 X36.5400 Y20.2172
N6625 G1 X36.7352 Y20.4844
N6630 G1 X36.7400 Y20.4908
N6635 G1 X36.9428 Y20.7572
N6640 G1 X36.9480 Y20.7644
N6645 G1 X37.1588 Y21.0288
N6650 G1 X37.1644 Y21.0360
N6655 G1 X37.3828 Y21.2976
N6660 G1 X37.3892 Y21.3048
N6665 G1 X37.6148 Y21.5620
N6670 G1 X37.6212 Y21.5696
N6675 G1 X37.8536 Y21.8220
N6680 G1 X37.8608 Y21.8292
N6685 G1 X38.0240 Y21.9976
N6690 G1 Z-2.0000
N6695 G1 X38.0996 Y22.0756
N6700 G1 X38.1064 Y22.0828
N6705 G1 X38.3512 Y22.3224
N6710 G1 X38.3584 Y22.3292
N6715 G1 X38.6076 Y22.5620
N6720 G1 X38.6148 Y22.5688
N6725 G1 X38.8684 Y22.7940
N6730 G1 X38.8756 Y22.8000
N6735 G1 X39.1324 Y23.0176
N6740 G1 X39.1396 Y23.0236
N6745 G1 X39.2056 Y23.0764
N6750 G1 Z-2.3330 F1000
N6755 G1 X39.3992 Y23.2324 F2000
N6760 G1 X39.4060 Y23.2380
N6765 G1 X39.6668 Y23.4388
N6770 G1 X39.6740 Y23.4440
N6775 G1 X39.9352 Y23.6360
N6780 G1 X39.9420 Y23.6408
N6785 G1 X40.2032 Y23.8244
N6790 G1 X40.2100 Y23.8292
N6795 G1 X40.4700 Y24.0040
N6800 G1 X40.4760 Y24.0080
N6805 G1 X40.7336 Y24.1748
N6810 G1 X40.7400 Y24.1788
N6815 G1 X40.9952 Y24.3372
N6820 G1 X41.0008 Y24.3408
N6825 G1 X41.2524 Y24.4912
N6830 G1 X41.2580 Y24.4944
N6835 G1 X41.5060 Y24.6372
N6840 G1 X41.5108 Y24.6400
N6845 G1 X41.7536 Y24.7752
N6850 G1 X41.7584 Y24.7780
N6855 G1 X41.9964 Y24.9064
N6860 G1 X42.0016 Y24.9088
N6865 G1 X42.2348 Y25.0304
N6870 G1 X42.2384 Y25.0324
N6875 G1 X42.4656 Y25.1480
N6880 G1 X42.4700 Y25.1500
N6885 G1 X42.6924 Y25.2596
N6890 G1 X42.6956 Y25.2612
N6895 G1 X42.9124 Y25.3656
N6900 G1 X42.9160 Y25.3676
N6905 G1 X43.1280 Y25.4668
N6910 G1 X43.1312 Y25.4684
N6915 G1 X43.3384 Y25.5636
N6920 G1 X43.3416 Y25.5648
N6925 G1 X43.5448 Y25.6560
N6930 G1 X43.5476 Y25.6572
N6935 G1 X43.7472 Y25.7448
N6940 G1 X43.7500 Y25.7460
N6945 G1 X43.9464 Y25.8304
N6950 G1 X43.9512 Y25.8328
N6955 G1 X44.3388 Y25.9932
N6960 G1 X44.3460 Y25.9960
N6965 G1 X44.7316 Y26.1472
N6970 G1 X44.7404 Y26.1508
N6975 G1 X45.1324 Y26.2936
N6980 G1 X45.1412 Y26.2968
N6985 G1 X45.3428 Y26.3652
N6990 G1 X45.3492 Y26.3672
N6995 G1 X45.5556 Y26.4332
N7000 G1 X45.5632 Y26.4356
N7005 G1 X45.7760 Y26.4988
N7010 G1 X45.7840 Y26.5012
N7015 G1 X46.0040 Y26.5620
N7020 G1 X46.0128 Y26.5640
N7025 G1 X46.2408 Y26.6216
N7030 G1 X46.2496 Y26.6236
N7035 G1 X46.4864 Y26.6776
N7040 G1 X46.4956 Y26.6796
N7045 G1 X46.7412 Y26.7296
N7050 G1 X46.7508 Y26.7312
N7055 G1 X47.0052 Y26.7764
N7060 G1 X47.0144 Y26.7780
N7065 G1 X47.1984 Y26.8064
N7070 G1 X47.0144 Y26.8344
N7075 G1 X47.0052 Y26.8360
N7080 G1 X46.7508 Y26.8816
N7085 G1 X46.7412 Y26.8832
N7090 G1 X46.4956 Y26.9332
N7095 G1 X46.4864 Y26.9352
N7100 G1 X46.2496 Y26.9888
N7105 G1 X46.2408 Y26.9912
N7110 G1 X46.0128 Y27.0484
N7115 G1 X46.0040 Y27.0508
N7120 G1 X45.7840 Y27.1116
N7125 G1 X45.7760 Y27.1136
N7130 G1 X45.5632 Y27.1772
N7135 G1 X45.5556 Y27.1796
N7140 G1 X45.3492 Y27.2456
N7145 G1 X45.3428 Y27.2476
N7150 G1 X45.1412 Y27.3160
N7155 G1 X45.1324 Y27.3192
N7160 G1 X44.7404 Y27.4620
N7165 G1 X44.7316 Y27.4652
N7170 G1 X44.3460 Y27.6168
N7175 G1 X44.3388 Y27.6196
N7180 G1 X43.9512 Y27.7800
N7185 G1 X43.9464 Y27.7820
N7190 G1 X43.7500 Y27.8664
N7195 G1 X43.7472 Y27.8676
N7200 G1 X43.5476 Y27.9552
N7205 G1 X43.5448 Y27.9568
N7210 G1 X43.3416 Y28.0480
N7215 G1 X43.3384 Y28.0492
N7220 G1 X43.1312 Y28.1444
N7225 G1 X43.1280 Y28.1456
N7230 G1 X42.9160 Y28.2452
N7235 G1 X42.9124 Y28.2468
N7240 G1 X42.6956 Y28.3512
N7245 G1 X42.6924 Y28.3528
N7250 G1 X42.4700 Y28.4628
N7255 G1 X42.4656 Y28.4648
N7260 G1 X42.2384 Y28.5804
N7265 G1 X42.2344 Y28.5824
N7270 G1 X42.0012 Y28.7040
N7275 G1 X41.9968 Y28.7064
N7280 G1 X41.7588 Y28.8348
N7285 G1 X41.7536 Y28.8372
N7290 G1 X41.5108 Y28.9728
N7295 G1 X41.5060 Y28.9756
N7300 G1 X41.2580 Y29.1180
N7305 G1 X41.2524 Y29.1216
N7310 G1 X41.0008 Y29.2720
N7315 G1 X40.9952 Y29.2756
N7320 G1 X40.7400 Y29.4340
N7325 G1 X40.7336 Y29.4380
N7330 G1 X40.4760 Y29.6044
N7335 G1 X40.4700 Y29.6084
N7340 G1 X40.2100 Y29.7836
N7345 G1 X40.2032 Y29.7880
N7350 G1 X39.9420 Y29.9716
N7355 G1 X39.9352 Y29.9768
N7360 G1 X39.6740 Y30.1688
N7365 G1 X39.6668 Y30.1740
N7370 G1 X39.4060 Y30.3748
N7375 G1 X39.3988 Y30.3804
N7380 G1 X39.1396 Y30.5892
N7385 G1 X39.1324 Y30.5952
N7390 G1 X38.8756 Y30.8124
N7395 G1 X38.8684 Y30.8188
N7400 G1 X38.6148 Y31.0440
N7405 G1 X38.6076 Y31.0508
N7410 G1 X38.3584 Y31.2832
N7415 G1 X38.3512 Y31.2904
N7420 G1 X38.1064 Y31.5300
N7425 G1 X38.0996 Y31.5372
N7430 G1 X37.8608 Y31.7836
N7435 G1 X37.8540 Y31.7908
N7440 G1 X37.8456 Y31.8000
N7445 G1 Z-2.0000
N7450 G1 X37.6212 Y32.0432
N7455 G1 X37.6148 Y32.0504
N7460 G1 X37.3892 Y32.3076
N7465 G1 X37.3828 Y32.3152
N7470 G1 X37.1644 Y32.5768
N7475 G1 X37.1588 Y32.5840
N7480 G1 X36.9480 Y32.8484
N7485 G1 X36.9428 Y32.8552
N7490 G1 X36.8148 Y33.0236
N7495 G1 Z-2.3330 F1000
N7500 G1 X36.7400 Y33.1220 F2000
N7505 G1 X36.7352 Y33.1284
N7510 G1 X36.5400 Y33.3956
N7515 G1 X36.5356 Y33.4016
N7520 G1 X36.3488 Y33.6684
N7525 G1 X36.3448 Y33.6740
N7530 G1 X36.1656 Y33.9392
N7535 G1 X36.1620 Y33.9448
N7540 G1 X35.9908 Y34.2072
N7545 G1 X35.9876 Y34.2128
N7550 G1 X35.8244 Y34.4724
N7555 G1 X35.8212 Y34.4776
N7560 G1 X35.6664 Y34.7332
N7565 G1 X35.6628 Y34.7388
N7570 G1 X35.5164 Y34.9892
N7575 G1 X35.5132 Y34.9952
N7580 G1 X35.3752 Y35.2412
N7585 G1 X35.3716 Y35.2472
N7590 G1 X35.2420 Y35.4876
N7595 G1 X35.2388 Y35.4940
N7600 G1 X35.1176 Y35.7288
N7605 G1 X35.1140 Y35.7360
N7610 G1 X35.0012 Y35.9652
N7615 G1 X34.9976 Y35.9724
N7620 G1 X34.8932 Y36.1960
N7625 G1 X34.8896 Y36.2036
N7630 G1 X34.7936 Y36.4216
N7635 G1 X34.7900 Y36.4300
N7640 G1 X34.7020 Y36.6424
N7645 G1 X34.6984 Y36.6508
N7650 G1 X34.6180 Y36.8580
N7655 G1 X34.6148 Y36.8668
N7660 G1 X34.5416 Y37.0688
N7665 G1 X34.5388 Y37.0776
N7670 G1 X34.4728 Y37.2748
N7675 G1 X34.4696 Y37.2840
N7680 G1 X34.4100 Y37.4768
N7685 G1 X34.4076 Y37.4852
N7690 G1 X34.3536 Y37.6740
N7695 G1 X34.3516 Y37.6820
N7700 G1 X34.3028 Y37.8676
N7705 G1 X34.3012 Y37.8740
N7710 G1 X34.2564 Y38.0568
N7715 G1 X34.2552 Y38.0620
N7720 G1 X34.2136 Y38.2420
N7725 G1 X34.2124 Y38.2472
N7730 G1 X34.1364 Y38.6000
N7735 G1 X34.1360 Y38.6020
N7740 G1 X34.0640 Y38.9436
N7745 G1 X33.9912 Y39.2708
N7750 G1 X33.9540 Y39.4252
N7755 G1 X33.9156 Y39.5736
N7760 G1 X33.8760 Y39.7140
N7765 G1 X33.8360 Y39.8444
N7770 G1 X33.7952 Y39.9632
N7775 G1 X33.7552 Y40.0684
N7780 G1 X33.7160 Y40.1580
N7785 G1 X33.6788 Y40.2312
N7790 G1 X33.6436 Y40.2892
N7795 G1 X33.6112 Y40.3344
N7800 G1 X33.5780 Y40.3720
N7805 G1 X33.5384 Y40.4096
N7810 G1 X33.4868 Y40.4528
N7815 G1 X33.4204 Y40.5036
N7820 G1 X33.3384 Y40.5640
N7825 G1 X33.2444 Y40.6324
N7830 G1 X33.2436 Y40.6332
N7835 G1 X33.1388 Y40.7100
N7840 G1 X33.1376 Y40.7108
N7845 G1 X33.0244 Y40.7944
N7850 G1 X32.9060 Y40.8812
N7855 G1 X32.7856 Y40.9664
N7860 G1 X32.6684 Y41.0440
N7865 G1 X32.5564 Y41.1096
N7870 G1 X32.5100 Y41.1336
N7875 G1 X32.4656 Y41.1540
N7880 G1 X32.4292 Y41.1680
N7885 G1 X32.4008 Y41.1764
N7890 G1 X32.3956 Y41.1776
N7895 G1 X32.3900 Y41.1684
N7900 G1 X32.3748 Y41.1392
N7905 G1 X32.3588 Y41.1008
N7910 G1 X32.3420 Y41.0544
N7915 G1 X32.3264 Y41.0032
N7920 G1 X32.2948 Y40.8740
N7925 G1 X32.2680 Y40.7328
N7930 G1 X32.2436 Y40.5824
N7935 G1 X32.2212 Y40.4284
N7940 G1 X32.1996 Y40.2776
N7945 G1 X32.1988 Y40.2736
N7950 G1 X32.1768 Y40.1296
N7955 G1 X32.1752 Y40.1220
N7960 G1 X32.1516 Y39.9860
N7965 G1 X32.1496 Y39.9760
N7970 G1 X32.1240 Y39.8464
N7975 G1 X32.1216 Y39.8356
N7980 G1 X32.0928 Y39.7108
N7985 G1 X32.0892 Y39.6960
N7990 G1 X32.0228 Y39.4508
N7995 G1 X32.0200 Y39.4408
N8000 G1 X31.9820 Y39.3144
N8005 G1 X31.9816 Y39.3120
N8010 G1 X31.9408 Y39.1784
N8015 G1 X31.8976 Y39.0368
N8020 G1 X31.8524 Y38.8852
N8025 G1 X31.8044 Y38.7212
N8030 G1 X31.7544 Y38.5440
N8035 G1 X31.7020 Y38.3532
N8040 G1 X31.6476 Y38.1488
N8045 G1 X31.5908 Y37.9312
N8050 G1 X31.5320 Y37.7020
N8055 G1 X31.4716 Y37.4624
N8060 G1 X31.4092 Y37.2144
N8065 G1 X31.3456 Y36.9596
N8070 G1 X31.2804 Y36.7000
N8075 G1 X31.2800 Y36.6992
N8080 G1 X31.2264 Y36.4872
N8085 G1 Z-2.0000
N8090 G1 X31.1476 Y36.1748
N8095 G1 X31.1472 Y36.1728
N8100 G1 X31.0128 Y35.6536
N8105 G1 X31.0124 Y35.6516
N8110 G1 X30.9456 Y35.3980
N8115 G1 Y35.3968
N8120 G1 X30.8792 Y35.1488
N8125 G1 Y35.1476
N8130 G1 X30.8228 Y34.9388
N8135 G1 Z-2.3330 F1000
N8140 G1 X30.8140 Y34.9060 F2000
N8145 G1 Y34.9056
N8150 G1 X30.7508 Y34.6712
N8155 G1 X30.6892 Y34.4448
N8160 G1 X30.6304 Y34.2272
N8165 G1 X30.5744 Y34.0192
N8170 G1 X30.5216 Y33.8204
N8175 G1 X30.4720 Y33.6312
N8180 G1 X30.4256 Y33.4512
N8185 G1 X30.3832 Y33.2800
N8190 G1 X30.3436 Y33.1176
N8195 G1 X30.3072 Y32.9628
N8200 G1 X30.2732 Y32.8148
N8205 G1 X30.2412 Y32.6732
N8210 G1 X30.2108 Y32.5368
N8215 G1 X30.2104 Y32.5360
N8220 G1 X30.1808 Y32.4052
N8225 G1 X30.1804 Y32.4028
N8230 G1 X30.1508 Y32.2772
N8235 G1 X30.1496 Y32.2720
N8240 G1 X30.0904 Y32.0324
N8245 G1 X30.0884 Y32.0252
N8250 G1 X29.9672 Y31.5716
N8255 G1 X29.9420 Y31.4664
N8260 G1 X29.9204 Y31.3620
N8265 G1 X29.9040 Y31.2584
N8270 G1 X29.8928 Y31.1540
N8275 G1 X29.8880 Y31.0480
N8280 G1 X29.8904 Y30.9396
N8285 G1 X29.9004 Y30.8284
N8290 G1 X29.9188 Y30.7152
N8295 G1 X29.9452 Y30.6024
N8300 G1 X29.9792 Y30.4916
N8305 G1 X30.0204 Y30.3868
N8310 G1 X30.0668 Y30.2904
N8315 G1 X30.1168 Y30.2064
N8320 G1 X30.1680 Y30.1364
N8325 G1 X30.2216 Y30.0772
N8330 G1 X30.2408 Y30.0596
N8335 G1 X30.2576 Y30.0456
N8340 G1 X30.3048 Y30.0148
N8345 G1 X30.3444 Y29.9968
N8350 G1 X30.3852 Y29.9844
N8355 G1 X30.4312 Y29.9768
N8360 G1 X30.4840 Y29.9740
N8365 G1 X30.5432 Y29.9772
N8370 G1 X30.6072 Y29.9856
N8375 G1 X30.6740 Y30.0000
N8380 G1 X30.7404 Y30.0200
N8385 G1 X30.8060 Y30.0448
N8390 G1 X30.8704 Y30.0756
N8395 G1 X30.9336 Y30.1128
N8400 G1 X30.9980 Y30.1580
N8405 G1 X31.0636 Y30.2128
N8410 G1 X31.1312 Y30.2784
N8415 G1 X31.2012 Y30.3552
N8420 G1 X31.2732 Y30.4428
N8425 G1 X31.3456 Y30.5380
N8430 G1 X31.4976 Y30.7508
N8435 G1 X31.5724 Y30.8560
N8440 G1 X31.5776 Y30.8628
N8445 G1 X31.6512 Y30.9620
N8450 G1 X31.6620 Y30.9756
N8455 G1 X31.7348 Y31.0652
N8460 G1 X31.7540 Y31.0872
N8465 G1 X31.8268 Y31.1644
N8470 G1 X31.8588 Y31.1948
N8475 G1 X31.9132 Y31.2412
N8480 G1 Z-2.0000
N8485 G1 X31.9324 Y31.2576
N8490 G1 X31.9688 Y31.2848
N8495 G1 X32.0064 Y31.3100
N8500 G1 X32.0376 Y31.3288
N8505 G1 X32.0756 Y31.3496
N8510 G1 X32.1136 Y31.3680
N8515 G1 X32.1524 Y31.3840
N8520 G1 X32.1956 Y31.3992
N8525 G1 X32.2352 Y31.4104
N8530 G1 X32.2820 Y31.4208
N8535 G1 X32.3224 Y31.4272
N8540 G1 X32.3708 Y31.4320
N8545 G1 X32.4120 Y31.4336
N8550 G1 X32.4592 Y31.4324
N8555 G1 X32.5016 Y31.4288
N8560 G1 X32.5448 Y31.4228
N8565 G1 X32.5884 Y31.4144
N8570 G1 X32.6264 Y31.4052
N8575 G1 X32.6712 Y31.3920
N8580 G1 X32.7036 Y31.3808
N8585 G1 X32.7496 Y31.3628
N8590 G1 X32.7768 Y31.3508
N8595 G1 X32.8240 Y31.3280
N8600 G1 X32.8456 Y31.3168
N8605 G1 X32.8940 Y31.2896
N8610 G1 X32.9196 Y31.2740
N8615 G1 X33.0192 Y31.2076
N8620 G1 X33.0436 Y31.1904
N8625 G1 X33.1468 Y31.1100
N8630 G1 X33.1632 Y31.0964
N8635 G1 X33.2692 Y31.0048
N8640 G1 X33.2800 Y30.9952
N8645 G1 X33.3876 Y30.8948
N8650 G1 X33.3952 Y30.8876
N8655 G1 X33.4936 Y30.7908
N8660 G1 Z-2.3330 F1000
N8665 G1 X33.5032 Y30.7816 F2000
N8670 G1 X33.5112 Y30.7736
N8675 G1 X33.7204 Y30.5560
N8680 G1 X33.7276 Y30.5484
N8685 G1 X33.8256 Y30.4408
N8690 G1 X33.8320 Y30.4336
N8695 G1 X33.9228 Y30.3288
N8700 G1 X33.9320 Y30.3180
N8705 G1 X34.0140 Y30.2164
N8710 G1 X34.0272 Y30.1996
N8715 G1 X34.0988 Y30.1008
N8720 G1 X34.1156 Y30.0756
N8725 G1 X34.1748 Y29.9788
N8730 G1 X34.1948 Y29.9424
N8735 G1 X34.2408 Y29.8464
N8740 G1 X34.2512 Y29.8224
N8745 G1 X34.2604 Y29.7980
N8750 G1 X34.2916 Y29.7016
N8755 G1 X34.3000 Y29.6728
N8760 G1 X34.3060 Y29.6436
N8765 G1 X34.3224 Y29.5460
N8770 G1 X34.3264 Y29.5148
N8775 G1 X34.3280 Y29.4840
N8780 G1 X34.3288 Y29.3840
N8785 G1 X34.3284 Y29.3552
N8790 G1 X34.3252 Y29.3264
N8795 G1 X34.3116 Y29.2236
N8800 G1 X34.3020 Y29.1748
N8805 G1 X34.2740 Y29.0692
N8810 G1 X34.2620 Y29.0312
N8815 G1 X34.2216 Y28.9228
N8820 G1 X34.2092 Y28.8932
N8825 G1 X34.1576 Y28.7828
N8830 G1 X34.1464 Y28.7608
N8835 G1 X34.0856 Y28.6492
N8840 G1 X34.0756 Y28.6320
N8845 G1 X34.0072 Y28.5204
N8850 G1 X33.9984 Y28.5064
N8855 G1 X33.9244 Y28.3956
N8860 G1 X33.9164 Y28.3840
N8865 G1 X33.8376 Y28.2748
N8870 G1 X33.8300 Y28.2644
N8875 G1 X33.7476 Y28.1576
N8880 G1 X33.7396 Y28.1476
N8885 G1 X33.6540 Y28.0436
N8890 G1 X33.6456 Y28.0336
N8895 G1 X33.5564 Y27.9324
N8900 G1 X33.5468 Y27.9220
N8905 G1 X33.4540 Y27.8236
N8910 G1 X33.4436 Y27.8132
N8915 G1 X33.3468 Y27.7176
N8920 G1 X33.3352 Y27.7068
N8925 G1 X33.2332 Y27.6144
N8930 G1 X33.2212 Y27.6040
N8935 G1 X33.1136 Y27.5140
N8940 G1 X33.1016 Y27.5040
N8945 G1 X32.9880 Y27.4164
N8950 G1 X32.9764 Y27.4076
N8955 G1 X32.8572 Y27.3224
N8960 G1 X32.8456 Y27.3144
N8965 G1 X32.7212 Y27.2316
N8970 G1 X32.7108 Y27.2248
N8975 G1 X32.5820 Y27.1452
N8980 G1 X32.5720 Y27.1392
N8985 G1 X32.4412 Y27.0632
N8990 G1 X32.4320 Y27.0580
N8995 G1 X32.3008 Y26.9864
N9000 G1 X32.2920 Y26.9816
N9005 G1 X32.1628 Y26.9152
N9010 G1 X32.1540 Y26.9108
N9015 G1 X32.0292 Y26.8504
N9020 G1 X32.0200 Y26.8464
N9025 G1 X31.9320 Y26.8064
N9030 G1 X32.0200 Y26.7664
N9035 G1 X32.0292 Y26.7620
N9040 G1 X32.1540 Y26.7020
N9045 G1 X32.1628 Y26.6976
N9050 G1 X32.2920 Y26.6312
N9055 G1 X32.3008 Y26.6264
N9060 G1 X32.4320 Y26.5548
N9065 G1 X32.4412 Y26.5496
N9070 G1 X32.5724 Y26.4732
N9075 G1 X32.5820 Y26.4676
N9080 G1 X32.7108 Y26.3876
N9085 G1 X32.7212 Y26.3808
N9090 G1 X32.8456 Y26.2984
N9095 G1 X32.8572 Y26.2904
N9100 G1 X32.9764 Y26.2052
N9105 G1 X32.9880 Y26.1964
N9110 G1 X33.1016 Y26.1084
N9115 G1 X33.1136 Y26.0988
N9120 G1 X33.2212 Y26.0088
N9125 G1 X33.2332 Y25.9984
N9130 G1 X33.3352 Y25.9056
N9135 G1 X33.3468 Y25.8948
N9140 G1 X33.4436 Y25.7996
N9145 G1 X33.4540 Y25.7888
N9150 G1 X33.5468 Y25.6908
N9155 G1 X33.5564 Y25.6804
N9160 G1 X33.6452 Y25.5792
N9165 G1 X33.6540 Y25.5692
N9170 G1 X33.7396 Y25.4652
N9175 G1 X33.7476 Y25.4552
N9180 G1 X33.8300 Y25.3484
N9185 G1 X33.8376 Y25.3380
N9190 G1 X33.9164 Y25.2284
N9195 G1 X33.9244 Y25.2172
N9200 G1 X33.9984 Y25.1064
N9205 G1 X34.0072 Y25.0924
N9210 G1 X34.0756 Y24.9808
N9215 G1 X34.0856 Y24.9636
N9220 G1 X34.1464 Y24.8520
N9225 G1 X34.1576 Y24.8296
N9230 G1 X34.2092 Y24.7192
N9235 G1 X34.2216 Y24.6900
N9240 G1 X34.2620 Y24.5816
N9245 G1 X34.2740 Y24.5436
N9250 G1 X34.3020 Y24.4376
N9255 G1 X34.3116 Y24.3892
N9260 G1 X34.3252 Y24.2864
N9265 G1 X34.3284 Y24.2576
N9270 G1 X34.3288 Y24.2288
N9275 G1 X34.3280 Y24.1288
N9280 G1 X34.3264 Y24.0976
N9285 G1 X34.3224 Y24.0668
N9290 G1 X34.3060 Y23.9692
N9295 G1 X34.3000 Y23.9400
N9300 G1 X34.2916 Y23.9108
N9305 G1 X34.2604 Y23.8148
N9310 G1 X34.2512 Y23.7904
N9315 G1 X34.2408 Y23.7664
N9320 G1 X34.1948 Y23.6704
N9325 G1 X34.1748 Y23.6340
N9330 G1 X34.1156 Y23.5372
N9335 G1 X34.0988 Y23.5120
N9340 G1 X34.0272 Y23.4132
N9345 G1 X34.0140 Y23.3960
N9350 G1 X33.9320 Y23.2944
N9355 G1 X33.9228 Y23.2836
N9360 G1 X33.8320 Y23.1792
N9365 G1 X33.8256 Y23.1720
N9370 G1 X33.7276 Y23.0644
N9375 G1 X33.7204 Y23.0568
N9380 G1 X33.5112 Y22.8392
N9385 G1 X33.5032 Y22.8312
N9390 G1 X33.3952 Y22.7252
N9395 G1 X33.3884 Y22.7184
N9400 G1 Z-2.0000
N9405 G1 X33.3876 Y22.7180
N9410 G1 X33.2800 Y22.6176
N9415 G1 X33.2692 Y22.6080
N9420 G1 X33.1632 Y22.5160
N9425 G1 X33.1468 Y22.5028
N9430 G1 X33.0436 Y22.4224
N9435 G1 X33.0192 Y22.4052
N9440 G1 X32.9196 Y22.3388
N9445 G1 X32.8940 Y22.3232
N9450 G1 X32.8456 Y22.2960
N9455 G1 X32.8236 Y22.2844
N9460 G1 X32.7764 Y22.2620
N9465 G1 X32.7496 Y22.2500
N9470 G1 X32.7040 Y22.2320
N9475 G1 X32.6712 Y22.2208
N9480 G1 X32.6264 Y22.2076
N9485 G1 X32.5884 Y22.1980
N9490 G1 X32.5448 Y22.1896
N9495 G1 X32.5012 Y22.1836
N9500 G1 X32.4592 Y22.1804
N9505 G1 X32.4124 Y22.1792
N9510 G1 X32.3712 Y22.1808
N9515 G1 X32.3224 Y22.1856
N9520 G1 X32.2820 Y22.1920
N9525 G1 X32.2352 Y22.2024
N9530 G1 X32.1956 Y22.2136
N9535 G1 X32.1520 Y22.2288
N9540 G1 X32.1132 Y22.2452
N9545 G1 X32.0760 Y22.2628
N9550 G1 X32.0380 Y22.2836
N9555 G1 X32.0064 Y22.3028
N9560 G1 X31.9688 Y22.3276
N9565 G1 X31.9324 Y22.3552
N9570 G1 X31.8588 Y22.4180
N9575 G1 X31.8268 Y22.4484
N9580 G1 X31.7540 Y22.5256
N9585 G1 X31.7468 Y22.5336
N9590 G1 Z-2.3330 F1000
N9595 G1 X31.7348 Y22.5476 F2000
N9600 G1 X31.6620 Y22.6372
N9605 G1 X31.6512 Y22.6508
N9610 G1 X31.5776 Y22.7500
N9615 G1 X31.5724 Y22.7568
N9620 G1 X31.4976 Y22.8620
N9625 G1 X31.3456 Y23.0744
N9630 G1 X31.2732 Y23.1700
N9635 G1 X31.2012 Y23.2576
N9640 G1 X31.1312 Y23.3344
N9645 G1 X31.0636 Y23.4000
N9650 G1 X30.9980 Y23.4548
N9655 G1 X30.9336 Y23.5000
N9660 G1 X30.8700 Y23.5372
N9665 G1 X30.8060 Y23.5680
N9670 G1 X30.7408 Y23.5928
N9675 G1 X30.6740 Y23.6124
N9680 G1 X30.6072 Y23.6268
N9685 G1 X30.5432 Y23.6356
N9690 G1 X30.4840 Y23.6388
N9695 G1 X30.4312 Y23.6360
N9700 G1 X30.3852 Y23.6284
N9705 G1 X30.3444 Y23.6160
N9710 G1 X30.3048 Y23.5976
N9715 G1 X30.2576 Y23.5668
N9720 G1 X30.2408 Y23.5532
N9725 G1 X30.2216 Y23.5356
N9730 G1 X30.1680 Y23.4764
N9735 G1 X30.1168 Y23.4064
N9740 G1 X30.0668 Y23.3220
N9745 G1 X30.0204 Y23.2260
N9750 G1 X29.9792 Y23.1208
N9755 G1 X29.9452 Y23.0104
N9760 G1 X29.9188 Y22.8972
N9765 G1 X29.9004 Y22.7844
N9770 G1 X29.8904 Y22.6732
N9775 G1 X29.8880 Y22.5648
N9780 G1 X29.8928 Y22.4588
N9785 G1 X29.9040 Y22.3544
N9790 G1 X29.9204 Y22.2508
N9795 G1 X29.9420 Y22.1464
N9800 G1 X29.9672 Y22.0412
N9805 G1 X30.0884 Y21.5872
N9810 G1 X30.0904 Y21.5804
N9815 G1 X30.1496 Y21.3408
N9820 G1 X30.1508 Y21.3352
N9825 G1 X30.1804 Y21.2096
N9830 G1 X30.1808 Y21.2072
N9835 G1 X30.2104 Y21.0768
N9840 G1 X30.2108 Y21.0760
N9845 G1 X30.2412 Y20.9396
N9850 G1 X30.2732 Y20.7976
N9855 G1 X30.3072 Y20.6500
N9860 G1 X30.3436 Y20.4952
N9865 G1 X30.3832 Y20.3324
N9870 G1 X30.4256 Y20.1616
N9875 G1 X30.4720 Y19.9816
N9880 G1 X30.5216 Y19.7924
N9885 G1 X30.5744 Y19.5936
N9890 G1 X30.6304 Y19.3852
N9895 G1 X30.6892 Y19.1680
N9900 G1 X30.7508 Y18.9420
N9905 G1 X30.8020 Y18.7516
N9910 G1 Z-2.0000
N9915 G1 X30.8140 Y18.7072
N9920 G1 Y18.7064
N9925 G1 X30.8792 Y18.4648
N9930 G1 Y18.4640
N9935 G1 X30.9456 Y18.2160
N9940 G1 Y18.2148
N9945 G1 X31.0124 Y17.9608
N9950 G1 X31.0128 Y17.9592
N9955 G1 X31.1472 Y17.4400
N9960 G1 X31.1476 Y17.4380
N9965 G1 X31.2068 Y17.2036
N9970 G1 Z-2.3330 F1000
N9975 G1 X31.2800 Y16.9136 F2000
N9980 G1 X31.2804 Y16.9128
N9985 G1 X31.3452 Y16.6532
N9990 G1 X31.4092 Y16.3984
N9995 G1 X31.4716 Y16.1500
N10000 G1 X31.5320 Y15.9108
N10005 G1 X31.5908 Y15.6816
N10010 G1 X31.6476 Y15.4640
N10015 G1 X31.7020 Y15.2596
N10020 G1 X31.7544 Y15.0684
N10025 G1 X31.8044 Y14.8916
N10030 G1 X31.8524 Y14.7276
N10035 G1 X31.8976 Y14.5760
N10040 G1 X31.9408 Y14.4340
N10045 G1 X31.9816 Y14.3008
N10050 G1 X31.9820 Y14.2984
N10055 G1 X32.0200 Y14.1716
N10060 G1 X32.0228 Y14.1620
N10065 G1 X32.0892 Y13.9168
N10070 G1 X32.0928 Y13.9020
N10075 G1 X32.1216 Y13.7772
N10080 G1 X32.1236 Y13.7664
N10085 G1 X32.1496 Y13.6368
N10090 G1 X32.1516 Y13.6268
N10095 G1 X32.1756 Y13.4904
N10100 G1 X32.1768 Y13.4832
N10105 G1 X32.1988 Y13.3392
N10110 G1 X32.1996 Y13.3352
N10115 G1 X32.2212 Y13.1840
N10120 G1 X32.2436 Y13.0304
N10125 G1 X32.2680 Y12.8796
N10130 G1 X32.2948 Y12.7388
N10135 G1 X32.3264 Y12.6092
N10140 G1 X32.3420 Y12.5584
N10145 G1 X32.3588 Y12.5116
N10150 G1 X32.3748 Y12.4736
N10155 G1 X32.3896 Y12.4448
N10160 G1 X32.3956 Y12.4352
N10165 G1 X32.4000 Y12.4360
N10170 G1 X32.4292 Y12.4448
N10175 G1 X32.4664 Y12.4592
N10180 G1 X32.5100 Y12.4788
N10185 G1 X32.5560 Y12.5028
N10190 G1 X32.6688 Y12.5692
N10195 G1 X32.7856 Y12.6464
N10200 G1 X32.9060 Y12.7316
N10205 G1 X33.0244 Y12.8184
N10210 G1 X33.1380 Y12.9020
N10215 G1 X33.1384 Y12.9024
N10220 G1 X33.2432 Y12.9796
N10225 G1 X33.2444 Y12.9804
N10230 G1 X33.3388 Y13.0492
N10235 G1 X33.4204 Y13.1092
N10240 G1 X33.4868 Y13.1600
N10245 G1 X33.5384 Y13.2028
N10250 G1 X33.5780 Y13.2404
N10255 G1 X33.6112 Y13.2788
N10260 G1 X33.6440 Y13.3236
N10265 G1 X33.6788 Y13.3816
N10270 G1 X33.7160 Y13.4548
N10275 G1 X33.7552 Y13.5444
N10280 G1 X33.7952 Y13.6496
N10285 G1 X33.8360 Y13.7684
N10290 G1 X33.8760 Y13.8988
N10295 G1 X33.9156 Y14.0392
N10300 G1 X33.9540 Y14.1876
N10305 G1 X33.9912 Y14.3416
N10310 G1 X34.0640 Y14.6692
N10315 G1 X34.1360 Y15.0108
N10320 G1 X34.1364 Y15.0128
N10325 G1 X34.2124 Y15.3652
N10330 G1 X34.2136 Y15.3708
N10335 G1 X34.2552 Y15.5504
N10340 G1 X34.2564 Y15.5560
N10345 G1 X34.3012 Y15.7384
N10350 G1 X34.3028 Y15.7452
N10355 G1 X34.3516 Y15.9308
N10360 G1 X34.3536 Y15.9384
N10365 G1 X34.4076 Y16.1276
N10370 G1 X34.4100 Y16.1360
N10375 G1 X34.4696 Y16.3288
N10380 G1 X34.4728 Y16.3376
N10385 G1 X34.5388 Y16.5352
N10390 G1 X34.5416 Y16.5440
N10395 G1 X34.6148 Y16.7460
N10400 G1 X34.6180 Y16.7548
N10405 G1 X34.6984 Y16.9620
N10410 G1 X34.7020 Y16.9704
N10415 G1 X34.7900 Y17.1828
N10420 G1 X34.7936 Y17.1912
N10425 G1 X34.8896 Y17.4088
N10430 G1 X34.8932 Y17.4168
N10435 G1 X34.9976 Y17.6404
N10440 G1 X35.0012 Y17.6476
N10445 G1 X35.1140 Y17.8768
N10450 G1 X35.1176 Y17.8836
N10455 G1 X35.2388 Y18.1188
N10460 G1 X35.2420 Y18.1252
N10465 G1 X35.3716 Y18.3656
N10470 G1 X35.3752 Y18.3716
N10475 G1 X35.4236 Y18.4584
N10480 G1 Z-3.5000 F1000
N10485 G1 X35.5132 Y18.6176 F2000
N10490 G1 X35.5164 Y18.6232
N10495 G1 X35.6628 Y18.8740
N10500 G1 X35.6664 Y18.8796
N10505 G1 X35.8212 Y19.1348
N10510 G1 X35.8244 Y19.1404
N10515 G1 X35.9876 Y19.3996
N10520 G1 X35.9908 Y19.4052
N10525 G1 X36.1620 Y19.6680
N10530 G1 X36.1656 Y19.6736
N10535 G1 X36.3448 Y19.9384
N10540 G1 X36.3488 Y19.9444
N10545 G1 X36.5356 Y20.2112
N10550 G1 X36.5400 Y20.2172
N10555 G1 X36.7352 Y20.4844
N10560 G1 X36.7400 Y20.4908
N10565 G1 X36.9428 Y20.7572
N10570 G1 X36.9480 Y20.7644
N10575 G1 X37.1588 Y21.0288
N10580 G1 X37.1644 Y21.0360
N10585 G1 X37.3828 Y21.2976
N10590 G1 X37.3892 Y21.3048
N10595 G1 X37.6148 Y21.5620
N10600 G1 X37.6212 Y21.5696
N10605 G1 X37.8536 Y21.8220
N10610 G1 X37.8608 Y21.8292
N10615 G1 X38.0240 Y21.9976
N10620 G1 Z-2.0000
N10625 G1 X38.0996 Y22.0756
N10630 G1 X38.1064 Y22.0828
N10635 G1 X38.3512 Y22.3224
N10640 G1 X38.3584 Y22.3292
N10645 G1 X38.6076 Y22.5620
N10650 G1 X38.6148 Y22.5688
N10655 G1 X38.8684 Y22.7940
N10660 G1 X38.8756 Y22.8000
N10665 G1 X39.1324 Y23.0176
N10670 G1 X39.1396 Y23.0236
N10675 G1 X39.2056 Y23.0764
N10680 G1 Z-3.5000 F1000
N10685 G1 X39.3992 Y23.2324 F2000
N10690 G1 X39.4060 Y23.2380
N10695 G1 X39.6668 Y23.4388
N10700 G1 X39.6740 Y23.4440
N10705 G1 X39.9352 Y23.6360
N10710 G1 X39.9420 Y23.6408
N10715 G1 X40.2032 Y23.8244
N10720 G1 X40.2100 Y23.8292
N10725 G1 X40.4700 Y24.0040
N10730 G1 X40.4760 Y24.0080
N10735 G1 X40.7336 Y24.1748
N10740 G1 X40.7400 Y24.1788
N10745 G1 X40.9952 Y24.3372
N10750 G1 X41.0008 Y24.3408
N10755 G1 X41.2524 Y24.4912
N10760 G1 X41.2580 Y24.4944
N10765 G1 X41.5060 Y24.6372
N10770 G1 X41.5108 Y24.6400
N10775 G1 X41.7536 Y24.7752
N10780 G1 X41.7584 Y24.7780
N10785 G1 X41.9964 Y24.9064
N10790 G1 X42.0016 Y24.9088
N10795 G1 X42.2348 Y25.0304
N10800 G1 X42.2384 Y25.0324
N10805 G1 X42.4656 Y25.1480
N10810 G1 X42.4700 Y25.1500
N10815 G1 X42.6924 Y25.2596
N10820 G1 X42.6956 Y25.2612
N10825 G1 X42.9124 Y25.3656
N10830 G1 X42.9160 Y25.3676
N10835 G1 X43.1280 Y25.4668
N10840 G1 X43.1312 Y25.4684
N10845 G1 X43.3384 Y25.5636
N10850 G1 X43.3416 Y25.5648
N10855 G1 X43.5448 Y25.6560
N10860 G1 X43.5476 Y25.6572
N10865 G1 X43.7472 Y25.7448
N10870 G1 X43.7500 Y25.7460
N10875 G1 X43.9464 Y25.8304
N10880 G1 X43.9512 Y25.8328
N10885 G1 X44.3388 Y25.9932
N10890 G1 X44.3460 Y25.9960
N10895 G1 X44.7316 Y26.1472
N10900 G1 X44.7404 Y26.1508
N10905 G1 X45.1324 Y26.2936
N10910 G1 X45.1412 Y26.2968
N10915 G1 X45.3428 Y26.3652
N10920 G1 X45.3492 Y26.3672
N10925 G1 X45.5556 Y26.4332
N10930 G1 X45.5632 Y26.4356
N10935 G1 X45.7760 Y26.4988
N10940 G1 X45.7840 Y26.5012
N10945 G1 X46.0040 Y26.5620
N10950 G1 X46.0128 Y26.5640
N10955 G1 X46.2408 Y26.6216
N10960 G1 X46.2496 Y26.6236
N10965 G1 X46.4864 Y26.6776
N10970 G1 X46.4956 Y26.6796
N10975 G1 X46.7412 Y26.7296
N10980 G1 X46.7508 Y26.7312
N10985 G1 X47.0052 Y26.7764
N10990 G1 X47.0144 Y26.7780
N10995 G1 X47.1984 Y26.8064
N11000 G1 X47.0144 Y26.8344
N11005 G1 X47.0052 Y26.8360
N11010 G1 X46.7508 Y26.8816
N11015 G1 X46.7412 Y26.8832
N11020 G1 X46.4956 Y26.9332
N11025 G1 X46.4864 Y26.9352
N11030 G1 X46.2496 Y26.9888
N11035 G1 X46.2408 Y26.9912
N11040 G1 X46.0128 Y27.0484
N11045 G1 X46.0040 Y27.0508
N11050 G1 X45.7840 Y27.1116
N11055 G1 X45.7760 Y27.1136
N11060 G1 X45.5632 Y27.1772
N11065 G1 X45.5556 Y27.1796
N11070 G1 X45.3492 Y27.2456
N11075 G1 X45.3428 Y27.2476
N11080 G1 X45.1412 Y27.3160
N11085 G1 X45.1324 Y27.3192
N11090 G1 X44.7404 Y27.4620
N11095 G1 X44.7316 Y27.4652
N11100 G1 X44.3460 Y27.6168
N11105 G1 X44.3388 Y27.6196
N11110 G1 X43.9512 Y27.7800
N11115 G1 X43.9464 Y27.7820
N11120 G1 X43.7500 Y27.8664
N11125 G1 X43.7472 Y27.8676
N11130 G1 X43.5476 Y27.9552
N11135 G1 X43.5448 Y27.9568
N11140 G1 X43.3416 Y28.0480
N11145 G1 X43.3384 Y28.0492
N11150 G1 X43.1312 Y28.1444
N11155 G1 X43.1280 Y28.1456
N11160 G1 X42.9160 Y28.2452
N11165 G1 X42.9124 Y28.2468
N11170 G1 X42.6956 Y28.3512
N11175 G1 X42.6924 Y28.3528
N11180 G1 X42.4700 Y28.4628
N11185 G1 X42.4656 Y28.4648
N11190 G1 X42.2384 Y28.5804
N11195 G1 X42.2344 Y28.5824
N11200 G1 X42.0012 Y28.7040
N11205 G1 X41.9968 Y28.7064
N11210 G1 X41.7588 Y28.8348
N11215 G1 X41.7536 Y28.8372
N11220 G1 X41.5108 Y28.9728
N11225 G1 X41.5060 Y28.9756
N11230 G1 X41.2580 Y29.1180
N11235 G1 X41.2524 Y29.1216
N11240 G1 X41.0008 Y29.2720
N11245 G1 X40.9952 Y29.2756
N11250 G1 X40.7400 Y29.4340
N11255 G1 X40.7336 Y29.4380
N11260 G1 X40.4760 Y29.6044
N11265 G1 X40.4700 Y29.6084
N11270 G1 X40.2100 Y29.7836
N11275 G1 X40.2032 Y29.7880
N11280 G1 X39.9420 Y29.9716
N11285 G1 X39.9352 Y29.9768
N11290 G1 X39.6740 Y30.1688
N11295 G1 X39.6668 Y30.1740
N11300 G1 X39.4060 Y30.3748
N11305 G1 X39.3988 Y30.3804
N11310 G1 X39.1396 Y30.5892
N11315 G1 X39.1324 Y30.5952
N11320 G1 X38.8756 Y30.8124
N11325 G1 X38.8684 Y30.8188
N11330 G1 X38.6148 Y31.0440
N11335 G1 X38.6076 Y31.0508
N11340 G1 X38.3584 Y31.2832
N11345 G1 X38.3512 Y31.2904
N11350 G1 X38.1064 Y31.5300
N11355 G1 X38.0996 Y31.5372
N11360 G1 X37.8608 Y31.7836
N11365 G1 X37.8540 Y31.7908
N11370 G1 X37.8456 Y31.8000
N11375 G1 Z-2.0000
N11380 G1 X37.6212 Y32.0432
N11385 G1 X37.6148 Y32.0504
N11390 G1 X37.3892 Y32.3076
N11395 G1 X37.3828 Y32.3152
N11400 G1 X37.1644 Y32.5768
N11405 G1 X37.1588 Y32.5840
N11410 G1 X36.9480 Y32.8484
N11415 G1 X36.9428 Y32.8552
N11420 G1 X36.8148 Y33.0236
N11425 G1 Z-3.5000 F1000
N11430 G1 X36.7400 Y33.1220 F2000
N11435 G1 X36.7352 Y33.1284
N11440 G1 X36.5400 Y33.3956
N11445 G1 X36.5356 Y33.4016
N11450 G1 X36.3488 Y33.6684
N11455 G1 X36.3448 Y33.6740
N11460 G1 X36.1656 Y33.9392
N11465 G1 X36.1620 Y33.9448
N11470 G1 X35.9908 Y34.2072
N11475 G1 X35.9876 Y34.2128
N11480 G1 X35.8244 Y34.4724
N11485 G1 X35.8212 Y34.4776
N11490 G1 X35.6664 Y34.7332
N11495 G1 X35.6628 Y34.7388
N11500 G1 X35.5164 Y34.9892
N11505 G1 X35.5132 Y34.9952
N11510 G1 X35.3752 Y35.2412
N11515 G1 X35.3716 Y35.2472
N11520 G1 X35.2420 Y35.4876
N11525 G1 X35.2388 Y35.4940
N11530 G1 X35.1176 Y35.7288
N11535 G1 X35.1140 Y35.7360
N11540 G1 X35.0012 Y35.9652
N11545 G1 X34.9976 Y35.9724
N11550 G1 X34.8932 Y36.1960
N11555 G1 X34.8896 Y36.2036
N11560 G1 X34.7936 Y36.4216
N11565 G1 X34.7900 Y36.4300
N11570 G1 X34.7020 Y36.6424
N11575 G1 X34.6984 Y36.6508
N11580 G1 X34.6180 Y36.8580
N11585 G1 X34.6148 Y36.8668
N11590 G1 X34.5416 Y37.0688
N11595 G1 X34.5388 Y37.0776
N11600 G1 X34.4728 Y37.2748
N11605 G1 X34.4696 Y37.2840
N11610 G1 X34.4100 Y37.4768
N11615 G1 X34.4076 Y37.4852
N11620 G1 X34.3536 Y37.6740
N11625 G1 X34.3516 Y37.6820
N11630 G1 X34.3028 Y37.8676
N11635 G1 X34.3012 Y37.8740
N11640 G1 X34.2564 Y38.0568
N11645 G1 X34.2552 Y38.0620
N11650 G1 X34.2136 Y38.2420
N11655 G1 X34.2124 Y38.2472
N11660 G1 X34.1364 Y38.6000
N11665 G1 X34.1360 Y38.6020
N11670 G1 X34.0640 Y38.9436
N11675 G1 X33.9912 Y39.2708
N11680 G1 X33.9540 Y39.4252
N11685 G1 X33.9156 Y39.5736
N11690 G1 X33.8760 Y39.7140
N11695 G1 X33.8360 Y39.8444
N11700 G1 X33.7952 Y39.9632
N11705 G1 X33.7552 Y40.0684
N11710 G1 X33.7160 Y40.1580
N11715 G1 X33.6788 Y40.2312
N11720 G1 X33.6436 Y40.2892
N11725 G1 X33.6112 Y40.3344
N11730 G1 X33.5780 Y40.3720
N11735 G1 X33.5384 Y40.4096
N11740 G1 X33.4868 Y40.4528
N11745 G1 X33.4204 Y40.5036
N11750 G1 X33.3384 Y40.5640
N11755 G1 X33.2444 Y40.6324
N11760 G1 X33.2436 Y40.6332
N11765 G1 X33.1388 Y40.7100
N11770 G1 X33.1376 Y40.7108
N11775 G1 X33.0244 Y40.7944
N11780 G1 X32.9060 Y40.8812
N11785 G1 X32.7856 Y40.9664
N11790 G1 X32.6684 Y41.0440
N11795 G1 X32.5564 Y41.1096
N11800 G1 X32.5100 Y41.1336
N11805 G1 X32.4656 Y41.1540
N11810 G1 X32.4292 Y41.1680
N11815 G1 X32.4008 Y41.1764
N11820 G1 X32.3956 Y41.1776
N11825 G1 X32.3900 Y41.1684
N11830 G1 X32.3748 Y41.1392
N11835 G1 X32.3588 Y41.1008
N11840 G1 X32.3420 Y41.0544
N11845 G1 X32.3264 Y41.0032
N11850 G1 X32.2948 Y40.8740
N11855 G1 X32.2680 Y40.7328
N11860 G1 X32.2436 Y40.5824
N11865 G1 X32.2212 Y40.4284
N11870 G1 X32.1996 Y40.2776
N11875 G1 X32.1988 Y40.2736
N11880 G1 X32.1768 Y40.1296
N11885 G1 X32.1752 Y40.1220
N11890 G1 X32.1516 Y39.9860
N11895 G1 X32.1496 Y39.9760
N11900 G1 X32.1240 Y39.8464
N11905 G1 X32.1216 Y39.8356
N11910 G1 X32.0928 Y39.7108
N11915 G1 X32.0892 Y39.6960
N11920 G1 X32.0228 Y39.4508
N11925 G1 X32.0200 Y39.4408
N11930 G1 X31.9820 Y39.3144
N11935 G1 X31.9816 Y39.3120
N11940 G1 X31.9408 Y39.1784
N11945 G1 X31.8976 Y39.0368
N11950 G1 X31.8524 Y38.8852
N11955 G1 X31.8044 Y38.7212
N11960 G1 X31.7544 Y38.5440
N11965 G1 X31.7020 Y38.3532
N11970 G1 X31.6476 Y38.1488
N11975 G1 X31.5908 Y37.9312
N11980 G1 X31.5320 Y37.7020
N11985 G1 X31.4716 Y37.4624
N11990 G1 X31.4092 Y37.2144
N11995 G1 X31.3456 Y36.9596
N12000 G1 X31.2804 Y36.7000
N12005 G1 X31.2800 Y36.6992
N12010 G1 X31.2264 Y36.4872
N12015 G1 Z-2.0000
N12020 G1 X31.1476 Y36.1748
N12025 G1 X31.1472 Y36.1728
N12030 G1 X31.0128 Y35.6536
N12035 G1 X31.0124 Y35.6516
N12040 G1 X30.9456 Y35.3980
N12045 G1 Y35.3968
N12050 G1 X30.8792 Y35.1488
N12055 G1 Y35.1476
N12060 G1 X30.8228 Y34.9388
N12065 G1 Z-3.5000 F1000
N12070 G1 X30.8140 Y34.9060 F2000
N12075 G1 Y34.9056
N12080 G1 X30.7508 Y34.6712
N12085 G1 X30.6892 Y34.4448
N12090 G1 X30.6304 Y34.2272
N12095 G1 X30.5744 Y34.0192
N12100 G1 X30.5216 Y33.8204
N12105 G1 X30.4720 Y33.6312
N12110 G1 X30.4256 Y33.4512
N12115 G1 X30.3832 Y33.2800
N12120 G1 X30.3436 Y33.1176
N12125 G1 X30.3072 Y32.9628
N12130 G1 X30.2732 Y32.8148
N12135 G1 X30.2412 Y32.6732
N12140 G1 X30.2108 Y32.5368
N12145 G1 X30.2104 Y32.5360
N12150 G1 X30.1808 Y32.4052
N12155 G1 X30.1804 Y32.4028
N12160 G1 X30.1508 Y32.2772
N12165 G1 X30.1496 Y32.2720
N12170 G1 X30.0904 Y32.0324
N12175 G1 X30.0884 Y32.0252
N12180 G1 X29.9672 Y31.5716
N12185 G1 X29.9420 Y31.4664
N12190 G1 X29.9204 Y31.3620
N12195 G1 X29.9040 Y31.2584
N12200 G1 X29.8928 Y31.1540
N12205 G1 X29.8880 Y31.0480
N12210 G1 X29.8904 Y30.9396
N12215 G1 X29.9004 Y30.8284
N12220 G1 X29.9188 Y30.7152
N12225 G1 X29.9452 Y30.6024
N12230 G1 X29.9792 Y30.4916
N12235 G1 X30.0204 Y30.3868
N12240 G1 X30.0668 Y30.2904
N12245 G1 X30.1168 Y30.2064
N12250 G1 X30.1680 Y30.1364
N12255 G1 X30.2216 Y30.0772
N12260 G1 X30.2408 Y30.0596
N12265 G1 X30.2576 Y30.0456
N12270 G1 X30.3048 Y30.0148
N12275 G1 X30.3444 Y29.9968
N12280 G1 X30.3852 Y29.9844
N12285 G1 X30.4312 Y29.9768
N12290 G1 X30.4840 Y29.9740
N12295 G1 X30.5432 Y29.9772
N12300 G1 X30.6072 Y29.9856
N12305 G1 X30.6740 Y30.0000
N12310 G1 X30.7404 Y30.0200
N12315 G1 X30.8060 Y30.0448
N12320 G1 X30.8704 Y30.0756
N12325 G1 X30.9336 Y30.1128
N12330 G1 X30.9980 Y30.1580
N12335 G1 X31.0636 Y30.2128
N12340 G1 X31.1312 Y30.2784
N12345 G1 X31.2012 Y30.3552
N12350 G1 X31.2732 Y30.4428
N12355 G1 X31.3456 Y30.5380
N12360 G1 X31.4976 Y30.7508
N12365 G1 X31.5724 Y30.8560
N12370 G1 X31.5776 Y30.8628
N12375 G1 X31.6512 Y30.9620
N12380 G1 X31.6620 Y30.9756
N12385 G1 X31.7348 Y31.0652
N12390 G1 X31.7540 Y31.0872
N12395 G1 X31.8268 Y31.1644
N12400 G1 X31.8588 Y31.1948
N12405 G1 X31.9132 Y31.2412
N12410 G1 Z-2.0000
N12415 G1 X31.9324 Y31.2576
N12420 G1 X31.9688 Y31.2848
N12425 G1 X32.0064 Y31.3100
N12430 G1 X32.0376 Y31.3288
N12435 G1 X32.0756 Y31.3496
N12440 G1 X32.1136 Y31.3680
N12445 G1 X32.1524 Y31.3840
N12450 G1 X32.1956 Y31.3992
N12455 G1 X32.2352 Y31.4104
N12460 G1 X32.2820 Y31.4208
N12465 G1 X32.3224 Y31.4272
N12470 G1 X32.3708 Y31.4320
N12475 G1 X32.4120 Y31.4336
N12480 G1 X32.4592 Y31.4324
N12485 G1 X32.5016 Y31.4288
N12490 G1 X32.5448 Y31.4228
N12495 G1 X32.5884 Y31.4144
N12500 G1 X32.6264 Y31.4052
N12505 G1 X32.6712 Y31.3920
N12510 G1 X32.7036 Y31.3808
N12515 G1 X32.7496 Y31.3628
N12520 G1 X32.7768 Y31.3508
N12525 G1 X32.8240 Y31.3280
N12530 G1 X32.8456 Y31.3168
N12535 G1 X32.8940 Y31.2896
N12540 G1 X32.9196 Y31.2740
N12545 G1 X33.0192 Y31.2076
N12550 G1 X33.0436 Y31.1904
N12555 G1 X33.1468 Y31.1100
N12560 G1 X33.1632 Y31.0964
N12565 G1 X33.2692 Y31.0048
N12570 G1 X33.2800 Y30.9952
N12575 G1 X33.3876 Y30.8948
N12580 G1 X33.3952 Y30.8876
N12585 G1 X33.4936 Y30.7908
N12590 G1 Z-3.5000 F1000
N12595 G1 X33.5032 Y30.7816 F2000
N12600 G1 X33.5112 Y30.7736
N12605 G1 X33.7204 Y30.5560
N12610 G1 X33.7276 Y30.5484
N12615 G1 X33.8256 Y30.4408
N12620 G1 X33.8320 Y30.4336
N12625 G1 X33.9228 Y30.3288
N12630 G1 X33.9320 Y30.3180
N12635 G1 X34.0140 Y30.2164
N12640 G1 X34.0272 Y30.1996
N12645 G1 X34.0988 Y30.1008
N12650 G1 X34.1156 Y30.0756
N12655 G1 X34.1748 Y29.9788
N12660 G1 X34.1948 Y29.9424
N12665 G1 X34.2408 Y29.8464
N12670 G1 X34.2512 Y29.8224
N12675 G1 X34.2604 Y29.7980
N12680 G1 X34.2916 Y29.7016
N12685 G1 X34.3000 Y29.6728
N12690 G1 X34.3060 Y29.6436
N12695 G1 X34.3224 Y29.5460
N12700 G1 X34.3264 Y29.5148
N12705 G1 X34.3280 Y29.4840
N12710 G1 X34.3288 Y29.3840
N12715 G1 X34.3284 Y29.3552
N12720 G1 X34.3252 Y29.3264
N12725 G1 X34.3116 Y29.2236
N12730 G1 X34.3020 Y29.1748
N12735 G1 X34.2740 Y29.0692
N12740 G1 X34.2620 Y29.0312
N12745 G1 X34.2216 Y28.9228
N12750 G1 X34.2092 Y28.8932
N12755 G1 X34.1576 Y28.7828
N12760 G1 X34.1464 Y28.7608
N12765 G1 X34.0856 Y28.6492
N12770 G1 X34.0756 Y28.6320
N12775 G1 X34.0072 Y28.5204
N12780 G1 X33.9984 Y28.5064
N12785 G1 X33.9244 Y28.3956
N12790 G1 X33.9164 Y28.3840
N12795 G1 X33.8376 Y28.2748
N12800 G1 X33.8300 Y28.2644
N12805 G1 X33.7476 Y28.1576
N12810 G1 X33.7396 Y28.1476
N12815 G1 X33.6540 Y28.0436
N12820 G1 X33.6456 Y28.0336
N12825 G1 X33.5564 Y27.9324
N12830 G1 X33.5468 Y27.9220
N12835 G1 X33.4540 Y27.8236
N12840 G1 X33.4436 Y27.8132
N12845 G1 X33.3468 Y27.7176
N12850 G1 X33.3352 Y27.7068
N12855 G1 X33.2332 Y27.6144
N12860 G1 X33.2212 Y27.6040
N12865 G1 X33.1136 Y27.5140
N12870 G1 X33.1016 Y27.5040
N12875 G1 X32.9880 Y27.4164
N12880 G1 X32.9764 Y27.4076
N12885 G1 X32.8572 Y27.3224
N12890 G1 X32.8456 Y27.3144
N12895 G1 X32.7212 Y27.2316
N12900 G1 X32.7108 Y27.2248
N12905 G1 X32.5820 Y27.1452
N12910 G1 X32.5720 Y27.1392
N12915 G1 X32.4412 Y27.0632
N12920 G1 X32.4320 Y27.0580
N12925 G1 X32.3008 Y26.9864
N12930 G1 X32.2920 Y26.9816
N12935 G1 X32.1628 Y26.9152
N12940 G1 X32.1540 Y26.9108
N12945 G1 X32.0292 Y26.8504
N12950 G1 X32.0200 Y26.8464
N12955 G1 X31.9320 Y26.8064
N12960 G1 X32.0200 Y26.7664
N12965 G1 X32.0292 Y26.7620
N12970 G1 X32.1540 Y26.7020
N12975 G1 X32.1628 Y26.6976
N12980 G1 X32.2920 Y26.6312
N12985 G1 X32.3008 Y26.6264
N12990 G1 X32.4320 Y26.5548
N12995 G1 X32.4412 Y26.5496
N13000 G1 X32.5724 Y26.4732
N13005 G1 X32.5820 Y26.4676
N13010 G1 X32.7108 Y26.3876
N13015 G1 X32.7212 Y26.3808
N13020 G1 X32.8456 Y26.2984
N13025 G1 X32.8572 Y26.2904
N13030 G1 X32.9764 Y26.2052
N13035 G1 X32.9880 Y26.1964
N13040 G1 X33.1016 Y26.1084
N13045 G1 X33.1136 Y26.0988
N13050 G1 X33.2212 Y26.0088
N13055 G1 X33.2332 Y25.9984
N13060 G1 X33.3352 Y25.9056
N13065 G1 X33.3468 Y25.8948
N13070 G1 X33.4436 Y25.7996
N13075 G1 X33.4540 Y25.7888
N13080 G1 X33.5468 Y25.6908
N13085 G1 X33.5564 Y25.6804
N13090 G1 X33.6452 Y25.5792
N13095 G1 X33.6540 Y25.5692
N13100 G1 X33.7396 Y25.4652
N13105 G1 X33.7476 Y25.4552
N13110 G1 X33.8300 Y25.3484
N13115 G1 X33.8376 Y25.3380
N13120 G1 X33.9164 Y25.2284
N13125 G1 X33.9244 Y25.2172
N13130 G1 X33.9984 Y25.1064
N13135 G1 X34.0072 Y25.0924
N13140 G1 X34.0756 Y24.9808
N13145 G1 X34.0856 Y24.9636
N13150 G1 X34.1464 Y24.8520
N13155 G1 X34.1576 Y24.8296
N13160 G1 X34.2092 Y24.7192
N13165 G1 X34.2216 Y24.6900
N13170 G1 X34.2620 Y24.5816
N13175 G1 X34.2740 Y24.5436
N13180 G1 X34.3020 Y24.4376
N13185 G1 X34.3116 Y24.3892
N13190 G1 X34.3252 Y24.2864
N13195 G1 X34.3284 Y24.2576
N13200 G1 X34.3288 Y24.2288
N13205 G1 X34.3280 Y24.1288
N13210 G1 X34.3264 Y24.0976
N13215 G1 X34.3224 Y24.0668
N13220 G1 X34.3060 Y23.9692
N13225 G1 X34.3000 Y23.9400
N13230 G1 X34.2916 Y23.9108
N13235 G1 X34.2604 Y23.8148
N13240 G1 X34.2512 Y23.7904
N13245 G1 X34.2408 Y23.7664
N13250 G1 X34.1948 Y23.6704
N13255 G1 X34.1748 Y23.6340
N13260 G1 X34.1156 Y23.5372
N13265 G1 X34.0988 Y23.5120
N13270 G1 X34.0272 Y23.4132
N13275 G1 X34.0140 Y23.3960
N13280 G1 X33.9320 Y23.2944
N13285 G1 X33.9228 Y23.2836
N13290 G1 X33.8320 Y23.1792
N13295 G1 X33.8256 Y23.1720
N13300 G1 X33.7276 Y23.0644
N13305 G1 X33.7204 Y23.0568
N13310 G1 X33.5112 Y22.8392
N13315 G1 X33.5032 Y22.8312
N13320 G1 X33.3952 Y22.7252
N13325 G1 X33.3884 Y22.7184
N13330 G1 Z-2.0000
N13335 G1 X33.3876 Y22.7180
N13340 G1 X33.2800 Y22.6176
N13345 G1 X33.2692 Y22.6080
N13350 G1 X33.1632 Y22.5160
N13355 G1 X33.1468 Y22.5028
N13360 G1 X33.0436 Y22.4224
N13365 G1 X33.0192 Y22.4052
N13370 G1 X32.9196 Y22.3388
N13375 G1 X32.8940 Y22.3232
N13380 G1 X32.8456 Y22.2960
N13385 G1 X32.8236 Y22.2844
N13390 G1 X32.7764 Y22.2620
N13395 G1 X32.7496 Y22.2500
N13400 G1 X32.7040 Y22.2320
N13405 G1 X32.6712 Y22.2208
N13410 G1 X32.6264 Y22.2076
N13415 G1 X32.5884 Y22.1980
N13420 G1 X32.5448 Y22.1896
N13425 G1 X32.5012 Y22.1836
N13430 G1 X32.4592 Y22.1804
N13435 G1 X32.4124 Y22.1792
N13440 G1 X32.3712 Y22.1808
N13445 G1 X32.3224 Y22.1856
N13450 G1 X32.2820 Y22.1920
N13455 G1 X32.2352 Y22.2024
N13460 G1 X32.1956 Y22.2136
N13465 G1 X32.1520 Y22.2288
N13470 G1 X32.1132 Y22.2452
N13475 G1 X32.0760 Y22.2628
N13480 G1 X32.0380 Y22.2836
N13485 G1 X32.0064 Y22.3028
N13490 G1 X31.9688 Y22.3276
N13495 G1 X31.9324 Y22.3552
N13500 G1 X31.8588 Y22.4180
N13505 G1 X31.8268 Y22.4484
N13510 G1 X31.7540 Y22.5256
N13515 G1 X31.7468 Y22.5336
N13520 G1 Z-3.5000 F1000
N13525 G1 X31.7348 Y22.5476 F2000
N13530 G1 X31.6620 Y22.6372
N13535 G1 X31.6512 Y22.6508
N13540 G1 X31.5776 Y22.7500
N13545 G1 X31.5724 Y22.7568
N13550 G1 X31.4976 Y22.8620
N13555 G1 X31.3456 Y23.0744
N13560 G1 X31.2732 Y23.1700
N13565 G1 X31.2012 Y23.2576
N13570 G1 X31.1312 Y23.3344
N13575 G1 X31.0636 Y23.4000
N13580 G1 X30.9980 Y23.4548
N13585 G1 X30.9336 Y23.5000
N13590 G1 X30.8700 Y23.5372
N13595 G1 X30.8060 Y23.5680
N13600 G1 X30.7408 Y23.5928
N13605 G1 X30.6740 Y23.6124
N13610 G1 X30.6072 Y23.6268
N13615 G1 X30.5432 Y23.6356
N13620 G1 X30.4840 Y23.6388
N13625 G1 X30.4312 Y23.6360
N13630 G1 X30.3852 Y23.6284
N13635 G1 X30.3444 Y23.6160
N13640 G1 X30.3048 Y23.5976
N13645 G1 X30.2576 Y23.5668
N13650 G1 X30.2408 Y23.5532
N13655 G1 X30.2216 Y23.5356
N13660 G1 X30.1680 Y23.4764
N13665 G1 X30.1168 Y23.4064
N13670 G1 X30.0668 Y23.3220
N13675 G1 X30.0204 Y23.2260
N13680 G1 X29.9792 Y23.1208
N13685 G1 X29.9452 Y23.0104
N13690 G1 X29.9188 Y22.8972
N13695 G1 X29.9004 Y22.7844
N13700 G1 X29.8904 Y22.6732
N13705 G1 X29.8880 Y22.5648
N13710 G1 X29.8928 Y22.4588
N13715 G1 X29.9040 Y22.3544
N13720 G1 X29.9204 Y22.2508
N13725 G1 X29.9420 Y22.1464
N13730 G1 X29.9672 Y22.0412
N13735 G1 X30.0884 Y21.5872
N13740 G1 X30.0904 Y21.5804
N13745 G1 X30.1496 Y21.3408
N13750 G1 X30.1508 Y21.3352
N13755 G1 X30.1804 Y21.2096
N13760 G1 X30.1808 Y21.2072
N13765 G1 X30.2104 Y21.0768
N13770 G1 X30.2108 Y21.0760
N13775 G1 X30.2412 Y20.9396
N13780 G1 X30.2732 Y20.7976
N13785 G1 X30.3072 Y20.6500
N13790 G1 X30.3436 Y20.4952
N13795 G1 X30.3832 Y20.3324
N13800 G1 X30.4256 Y20.1616
N13805 G1 X30.4720 Y19.9816
N13810 G1 X30.5216 Y19.7924
N13815 G1 X30.5744 Y19.5936
N13820 G1 X30.6304 Y19.3852
N13825 G1 X30.6892 Y19.1680
N13830 G1 X30.7508 Y18.9420
N13835 G1 X30.8020 Y18.7516
N13840 G1 Z-2.0000
N13845 G1 X30.8140 Y18.7072
N13850 G1 Y18.7064
N13855 G1 X30.8792 Y18.4648
N13860 G1 Y18.4640
N13865 G1 X30.9456 Y18.2160
N13870 G1 Y18.2148
N13875 G1 X31.0124 Y17.9608
N13880 G1 X31.0128 Y17.9592
N13885 G1 X31.1472 Y17.4400
N13890 G1 X31.1476 Y17.4380
N13895 G1 X31.2068 Y17.2036
N13900 G1 Z-3.5000 F1000
N13905 G1 X31.2800 Y16.9136 F2000
N13910 G1 X31.2804 Y16.9128
N13915 G1 X31.3452 Y16.6532
N13920 G1 X31.4092 Y16.3984
N13925 G1 X31.4716 Y16.1500
N13930 G1 X31.5320 Y15.9108
N13935 G1 X31.5908 Y15.6816
N13940 G1 X31.6476 Y15.4640
N13945 G1 X31.7020 Y15.2596
N13950 G1 X31.7544 Y15.0684
N13955 G1 X31.8044 Y14.8916
N13960 G1 X31.8524 Y14.7276
N13965 G1 X31.8976 Y14.5760
N13970 G1 X31.9408 Y14.4340
N13975 G1 X31.9816 Y14.3008
N13980 G1 X31.9820 Y14.2984
N13985 G1 X32.0200 Y14.1716
N13990 G1 X32.0228 Y14.1620
N13995 G1 X32.0892 Y13.9168
N14000 G1 X32.0928 Y13.9020
N14005 G1 X32.1216 Y13.7772
N14010 G1 X32.1236 Y13.7664
N14015 G1 X32.1496 Y13.6368
N14020 G1 X32.1516 Y13.6268
N14025 G1 X32.1756 Y13.4904
N14030 G1 X32.1768 Y13.4832
N14035 G1 X32.1988 Y13.3392
N14040 G1 X32.1996 Y13.3352
N14045 G1 X32.2212 Y13.1840
N14050 G1 X32.2436 Y13.0304
N14055 G1 X32.2680 Y12.8796
N14060 G1 X32.2948 Y12.7388
N14065 G1 X32.3264 Y12.6092
N14070 G1 X32.3420 Y12.5584
N14075 G1 X32.3588 Y12.5116
N14080 G1 X32.3748 Y12.4736
N14085 G1 X32.3896 Y12.4448
N14090 G1 X32.3956 Y12.4352
N14095 G1 X32.4000 Y12.4360
N14100 G1 X32.4292 Y12.4448
N14105 G1 X32.4664 Y12.4592
N14110 G1 X32.5100 Y12.4788
N14115 G1 X32.5560 Y12.5028
N14120 G1 X32.6688 Y12.5692
N14125 G1 X32.7856 Y12.6464
N14130 G1 X32.9060 Y12.7316
N14135 G1 X33.0244 Y12.8184
N14140 G1 X33.1380 Y12.9020
N14145 G1 X33.1384 Y12.9024
N14150 G1 X33.2432 Y12.9796
N14155 G1 X33.2444 Y12.9804
N14160 G1 X33.3388 Y13.0492
N14165 G1 X33.4204 Y13.1092
N14170 G1 X33.4868 Y13.1600
N14175 G1 X33.5384 Y13.2028
N14180 G1 X33.5780 Y13.2404
N14185 G1 X33.6112 Y13.2788
N14190 G1 X33.6440 Y13.3236
N14195 G1 X33.6788 Y13.3816
N14200 G1 X33.7160 Y13.4548
N14205 G1 X33.7552 Y13.5444
N14210 G1 X33.7952 Y13.6496
N14215 G1 X33.8360 Y13.7684
N14220 G1 X33.8760 Y13.8988
N14225 G1 X33.9156 Y14.0392
N14230 G1 X33.9540 Y14.1876
N14235 G1 X33.9912 Y14.3416
N14240 G1 X34.0640 Y14.6692
N14245 G1 X34.1360 Y15.0108
N14250 G1 X34.1364 Y15.0128
N14255 G1 X34.2124 Y15.3652
N14260 G1 X34.2136 Y15.3708
N14265 G1 X34.2552 Y15.5504
N14270 G1 X34.2564 Y15.5560
N14275 G1 X34.3012 Y15.7384
N14280 G1 X34.3028 Y15.7452
N14285 G1 X34.3516 Y15.9308
N14290 G1 X34.3536 Y15.9384
N14295 G1 X34.4076 Y16.1276
N14300 G1 X34.4100 Y16.1360
N14305 G1 X34.4696 Y16.3288
N14310 G1 X34.4728 Y16.3376
N14315 G1 X34.5388 Y16.5352
N14320 G1 X34.5416 Y16.5440
N14325 G1 X34.6148 Y16.7460
N14330 G1 X34.6180 Y16.7548
N14335 G1 X34.6984 Y16.9620
N14340 G1 X34.7020 Y16.9704
N14345 G1 X34.7900 Y17.1828
N14350 G1 X34.7936 Y17.1912
N14355 G1 X34.8896 Y17.4088
N14360 G1 X34.8932 Y17.4168
N14365 G1 X34.9976 Y17.6404
N14370 G1 X35.0012 Y17.6476
N14375 G1 X35.1140 Y17.8768
N14380 G1 X35.1176 Y17.8836
N14385 G1 X35.2388 Y18.1188
N14390 G1 X35.2420 Y18.1252
N14395 G1 X35.3716 Y18.3656
N14400 G1 X35.3752 Y18.3716
N14405 G1 X35.4236 Y18.4584
N14410 G0 Z10.0000
N14415 G0 X45.9648 Y17.8240
N14420 G0 Z5.0000
N14425 G1 Z0.4000 F1000
N14430 G1 Z-1.1670
N14435 G1 X46.0108 Y17.8488 F2000
N14440 G1 X46.1400 Y17.9188
N14445 G1 X46.2652 Y17.9864
N14450 G1 X46.2660 Y17.9868
N14455 G1 X46.5052 Y18.1152
N14460 G1 X46.5068 Y18.1164
N14465 G1 X46.9716 Y18.3632
N14470 G1 X47.2008 Y18.4880
N14475 G1 X47.4268 Y18.6192
N14480 G1 X47.6492 Y18.7596
N14485 G1 X47.8668 Y18.9108
N14490 G1 X48.0776 Y19.0736
N14495 G1 X48.2816 Y19.2460
N14500 G1 X48.4780 Y19.4244
N14505 G1 X48.6652 Y19.6048
N14510 G1 X48.8416 Y19.7824
N14515 G1 X49.0052 Y19.9544
N14520 G1 X49.1536 Y20.1208
N14525 G1 X49.2900 Y20.2876
N14530 G1 X49.3500 Y20.3684
N14535 G1 X49.4088 Y20.4532
N14540 G1 X49.4644 Y20.5408
N14545 G1 X49.5180 Y20.6324
N14550 G1 X49.5696 Y20.7292
N14555 G1 X49.6196 Y20.8312
N14560 G1 X49.6680 Y20.9384
N14565 G1 X49.7136 Y21.0476
N14570 G1 X49.8020 Y21.2864
N14575 G1 X49.8812 Y21.5308
N14580 G1 X49.9512 Y21.7752
N14585 G1 X49.9812 Y21.8924
N14590 G1 X50.0092 Y22.0076
N14595 G1 X50.0332 Y22.1172
N14600 G1 X50.0540 Y22.2228
N14605 G1 X50.0712 Y22.3220
N14610 G1 X50.0844 Y22.4152
N14615 G1 X50.0940 Y22.5020
N14620 G1 X50.0992 Y22.5824
N14625 G1 X50.1008 Y22.6584
N14630 G1 X50.0988 Y22.7284
N14635 G1 X50.0932 Y22.7944
N14640 G1 X50.0844 Y22.8568
N14645 G1 X50.0720 Y22.9164
N14650 G1 X50.0564 Y22.9752
N14655 G1 X50.0380 Y23.0320
N14660 G1 X50.0160 Y23.0864
N14665 G1 X49.9908 Y23.1408
N14670 G1 X49.9632 Y23.1928
N14675 G1 X49.9328 Y23.2420
N14680 G1 X49.9000 Y23.2888
N14685 G1 X49.8644 Y23.3336
N14690 G1 X49.8268 Y23.3752
N14695 G1 X49.7868 Y23.4140
N14700 G1 X49.7432 Y23.4504
N14705 G1 X49.6956 Y23.4844
N14710 G1 X49.6436 Y23.5168
N14715 G1 X49.5852 Y23.5472
N14720 G1 X49.5208 Y23.5760
N14725 G1 X49.4496 Y23.6020
N14730 G1 X49.3708 Y23.6260
N14735 G1 X49.2852 Y23.6472
N14740 G1 X49.1932 Y23.6652
N14745 G1 X49.0960 Y23.6804
N14750 G1 X48.9928 Y23.6916
N14755 G1 X48.8856 Y23.6996
N14760 G1 X48.7748 Y23.7040
N14765 G1 X48.6608 Y23.7048
N14770 G1 X48.5460 Y23.7024
N14775 G1 X48.3028 Y23.6872
N14780 G1 X48.0536 Y23.6604
N14785 G1 X47.7952 Y23.6224
N14790 G1 X47.5264 Y23.5744
N14795 G1 X47.2460 Y23.5172
N14800 G1 X46.9532 Y23.4516
N14805 G1 X46.6484 Y23.3780
N14810 G1 X46.3324 Y23.2956
N14815 G1 X46.0056 Y23.2036
N14820 G1 X45.6708 Y23.1012
N14825 G1 X45.3292 Y22.9876
N14830 G1 X44.9832 Y22.8624
N14835 G1 X44.6360 Y22.7248
N14840 G1 X44.2900 Y22.5756
N14845 G1 X43.9480 Y22.4156
N14850 G1 X43.6132 Y22.2464
N14855 G1 X43.2880 Y22.0692
N14860 G1 X42.9744 Y21.8860
N14865 G1 X42.6740 Y21.6976
N14870 G1 X42.3860 Y21.5048
N14875 G1 X42.1108 Y21.3088
N14880 G1 X41.8460 Y21.1088
N14885 G1 X41.5896 Y20.9048
N14890 G1 X41.3392 Y20.6960
N14895 G1 X41.0936 Y20.4816
N14900 G1 X40.8500 Y20.2604
N14905 G1 X40.6088 Y20.0316
N14910 G1 X40.3688 Y19.7944
N14915 G1 X40.1316 Y19.5472
N14920 G1 X39.8972 Y19.2896
N14925 G1 X39.6668 Y19.0208
N14930 G1 X39.4424 Y18.7412
N14935 G1 X39.2252 Y18.4528
N14940 G1 X39.0172 Y18.1568
N14945 G1 X38.8204 Y17.8576
N14950 G1 X38.6360 Y17.5572
N14955 G1 X38.5500 Y17.4108
N14960 G1 X38.4672 Y17.2648
N14965 G1 X38.3884 Y17.1212
N14970 G1 X38.3136 Y16.9804
N14975 G1 X38.2428 Y16.8432
N14980 G1 X38.1756 Y16.7100
N14985 G1 X38.1124 Y16.5804
N14990 G1 X38.0524 Y16.4556
N14995 G1 X37.9960 Y16.3356
N15000 G1 X37.9428 Y16.2204
N15005 G1 X37.8920 Y16.1104
N15010 G1 X37.8440 Y16.0056
N15015 G1 X37.7984 Y15.9060
N15020 G1 X37.7980 Y15.9048
N15025 G1 X37.7548 Y15.8112
N15030 G1 X37.7540 Y15.8096
N15035 G1 X37.7128 Y15.7212
N15040 G1 X37.7116 Y15.7192
N15045 G1 X37.6724 Y15.6360
N15050 G1 X37.6712 Y15.6340
N15055 G1 X37.6336 Y15.5548
N15060 G1 X37.6328 Y15.5536
N15065 G1 X37.5964 Y15.4784
N15070 G1 X37.5284 Y15.3388
N15075 G1 X37.4676 Y15.2100
N15080 G1 X37.4132 Y15.0860
N15085 G1 X37.3628 Y14.9592
N15090 G1 X37.3152 Y14.8272
N15095 G1 X37.2220 Y14.5432
N15100 G1 X37.1792 Y14.4068
N15105 G1 X37.1624 Y14.3532
N15110 G1 X37.1768 Y14.3596
N15115 G1 X37.3328 Y14.4328
N15120 G1 X37.3368 Y14.4344
N15125 G1 X37.5084 Y14.5124
N15130 G1 X37.5172 Y14.5164
N15135 G1 X37.6096 Y14.5556
N15140 G1 X37.6172 Y14.5588
N15145 G1 X37.7164 Y14.5984
N15150 G1 X37.7232 Y14.6012
N15155 G1 X37.8304 Y14.6420
N15160 G1 X37.8368 Y14.6444
N15165 G1 X37.9540 Y14.6864
N15170 G1 X37.9592 Y14.6884
N15175 G1 X38.0880 Y14.7328
N15180 G1 X38.0920 Y14.7340
N15185 G1 X38.2344 Y14.7816
N15190 G1 X38.2360 Y14.7820
N15195 G1 X38.3128 Y14.8072
N15200 G1 X38.3140 Y14.8076
N15205 G1 X38.3948 Y14.8340
N15210 G1 X38.3952
N15215 G1 X38.4800 Y14.8616
N15220 G1 X38.4804
N15225 G1 X38.5692 Y14.8904
N15230 G1 X38.6624 Y14.9204
N15235 G1 X38.7600 Y14.9520
N15240 G1 X38.8616 Y14.9848
N15245 G1 X38.9676 Y15.0192
N15250 G1 X39.0780 Y15.0548
N15255 G1 X39.1924 Y15.0924
N15260 G1 X39.3108 Y15.1312
N15265 G1 X39.4336 Y15.1716
N15270 G1 X39.5600 Y15.2136
N15275 G1 X39.6904 Y15.2572
N15280 G1 X39.9620 Y15.3484
N15285 G1 X40.2464 Y15.4456
N15290 G1 X40.5424 Y15.5480
N15295 G1 X40.8472 Y15.6552
N15300 G1 X41.1592 Y15.7664
N15305 G1 X41.7956 Y15.9988
N15310 G1 X42.4324 Y16.2396
N15315 G1 X42.7444 Y16.3604
N15320 G1 X43.0504 Y16.4816
N15325 G1 X43.3468 Y16.6012
N15330 G1 X43.6332 Y16.7192
N15335 G1 X43.9068 Y16.8348
N15340 G1 X44.1672 Y16.9472
N15345 G1 X44.4124 Y17.0560
N15350 G1 X44.6432 Y17.1612
N15355 G1 X44.8588 Y17.2620
N15360 G1 X45.0604 Y17.3584
N15365 G1 X45.2468 Y17.4500
N15370 G1 X45.4204 Y17.5376
N15375 G1 X45.5820 Y17.6208
N15380 G1 X45.7332 Y17.7004
N15385 G1 X45.8760 Y17.7764
N15390 G1 X45.9648 Y17.8240
N15395 G1 Z-2.3330 F1000
N15400 G1 X46.0108 Y17.8488 F2000
N15405 G1 X46.1400 Y17.9188
N15410 G1 X46.2652 Y17.9864
N15415 G1 X46.2660 Y17.9868
N15420 G1 X46.5052 Y18.1152
N15425 G1 X46.5068 Y18.1164
N15430 G1 X46.9716 Y18.3632
N15435 G1 X47.2008 Y18.4880
N15440 G1 X47.4268 Y18.6192
N15445 G1 X47.6452 Y18.7568
N15450 G1 Z-2.0000
N15455 G1 X47.6492 Y18.7596
N15460 G1 X47.8668 Y18.9108
N15465 G1 X48.0776 Y19.0736
N15470 G1 X48.2816 Y19.2460
N15475 G1 X48.4780 Y19.4244
N15480 G1 X48.6652 Y19.6048
N15485 G1 X48.8416 Y19.7824
N15490 G1 X48.8584 Y19.8004
N15495 G1 Z-2.3330 F1000
N15500 G1 X49.0052 Y19.9544 F2000
N15505 G1 X49.1536 Y20.1208
N15510 G1 X49.2900 Y20.2876
N15515 G1 X49.3500 Y20.3684
N15520 G1 X49.4088 Y20.4532
N15525 G1 X49.4644 Y20.5408
N15530 G1 X49.5180 Y20.6324
N15535 G1 X49.5696 Y20.7292
N15540 G1 X49.6196 Y20.8312
N15545 G1 X49.6680 Y20.9384
N15550 G1 X49.7136 Y21.0476
N15555 G1 X49.8020 Y21.2864
N15560 G1 X49.8812 Y21.5308
N15565 G1 X49.9512 Y21.7752
N15570 G1 X49.9812 Y21.8924
N15575 G1 X50.0092 Y22.0076
N15580 G1 X50.0332 Y22.1172
N15585 G1 X50.0540 Y22.2228
N15590 G1 X50.0712 Y22.3220
N15595 G1 X50.0844 Y22.4152
N15600 G1 X50.0940 Y22.5020
N15605 G1 X50.0992 Y22.5824
N15610 G1 X50.1008 Y22.6584
N15615 G1 X50.0988 Y22.7284
N15620 G1 X50.0932 Y22.7944
N15625 G1 X50.0844 Y22.8568
N15630 G1 X50.0720 Y22.9164
N15635 G1 X50.0564 Y22.9752
N15640 G1 X50.0380 Y23.0320
N15645 G1 X50.0160 Y23.0864
N15650 G1 X49.9908 Y23.1408
N15655 G1 X49.9632 Y23.1928
N15660 G1 X49.9328 Y23.2420
N15665 G1 X49.9000 Y23.2888
N15670 G1 X49.8644 Y23.3336
N15675 G1 X49.8268 Y23.3752
N15680 G1 X49.7868 Y23.4140
N15685 G1 X49.7432 Y23.4504
N15690 G1 X49.6956 Y23.4844
N15695 G1 X49.6436 Y23.5168
N15700 G1 X49.5852 Y23.5472
N15705 G1 X49.5208 Y23.5760
N15710 G1 X49.4496 Y23.6020
N15715 G1 X49.3708 Y23.6260
N15720 G1 X49.2852 Y23.6472
N15725 G1 X49.1932 Y23.6652
N15730 G1 X49.0960 Y23.6804
N15735 G1 X48.9928 Y23.6916
N15740 G1 X48.8856 Y23.6996
N15745 G1 X48.7748 Y23.7040
N15750 G1 X48.6608 Y23.7048
N15755 G1 X48.5460 Y23.7024
N15760 G1 X48.3028 Y23.6872
N15765 G1 X48.0536 Y23.6604
N15770 G1 X47.7952 Y23.6224
N15775 G1 X47.5264 Y23.5744
N15780 G1 X47.2460 Y23.5172
N15785 G1 X46.9532 Y23.4516
N15790 G1 X46.6484 Y23.3780
N15795 G1 X46.3324 Y23.2956
N15800 G1 X46.0056 Y23.2036
N15805 G1 X45.6708 Y23.1012
N15810 G1 X45.3292 Y22.9876
N15815 G1 X44.9832 Y22.8624
N15820 G1 X44.6360 Y22.7248
N15825 G1 X44.2900 Y22.5756
N15830 G1 X43.9480 Y22.4156
N15835 G1 X43.6132 Y22.2464
N15840 G1 X43.5352 Y22.2040
N15845 G1 Z-2.0000
N15850 G1 X43.2880 Y22.0692
N15855 G1 X42.9744 Y21.8860
N15860 G1 X42.6740 Y21.6976
N15865 G1 X42.3860 Y21.5048
N15870 G1 X42.1784 Y21.3568
N15875 G1 Z-2.3330 F1000
N15880 G1 X42.1108 Y21.3088 F2000
N15885 G1 X41.8460 Y21.1088
N15890 G1 X41.5896 Y20.9048
N15895 G1 X41.3392 Y20.6960
N15900 G1 X41.0936 Y20.4816
N15905 G1 X40.8500 Y20.2604
N15910 G1 X40.6088 Y20.0316
N15915 G1 X40.3688 Y19.7944
N15920 G1 X40.1316 Y19.5472
N15925 G1 X39.8972 Y19.2896
N15930 G1 X39.6668 Y19.0208
N15935 G1 X39.4424 Y18.7412
N15940 G1 X39.2252 Y18.4528
N15945 G1 X39.0172 Y18.1568
N15950 G1 X38.8204 Y17.8576
N15955 G1 X38.6360 Y17.5572
N15960 G1 X38.5500 Y17.4108
N15965 G1 X38.4672 Y17.2648
N15970 G1 X38.3884 Y17.1212
N15975 G1 X38.3136 Y16.9804
N15980 G1 X38.2428 Y16.8432
N15985 G1 X38.1756 Y16.7100
N15990 G1 X38.1124 Y16.5804
N15995 G1 X38.0524 Y16.4556
N16000 G1 X37.9960 Y16.3356
N16005 G1 X37.9428 Y16.2204
N16010 G1 X37.8920 Y16.1104
N16015 G1 X37.8440 Y16.0056
N16020 G1 X37.7984 Y15.9060
N16025 G1 X37.7980 Y15.9048
N16030 G1 X37.7548 Y15.8112
N16035 G1 X37.7540 Y15.8096
N16040 G1 X37.7128 Y15.7212
N16045 G1 X37.7116 Y15.7192
N16050 G1 X37.6724 Y15.6360
N16055 G1 X37.6712 Y15.6340
N16060 G1 X37.6336 Y15.5548
N16065 G1 X37.6328 Y15.5536
N16070 G1 X37.5964 Y15.4784
N16075 G1 X37.5284 Y15.3388
N16080 G1 X37.4676 Y15.2100
N16085 G1 X37.4132 Y15.0860
N16090 G1 X37.3628 Y14.9592
N16095 G1 X37.3152 Y14.8272
N16100 G1 X37.2220 Y14.5432
N16105 G1 X37.1792 Y14.4068
N16110 G1 X37.1624 Y14.3532
N16115 G1 X37.1768 Y14.3596
N16120 G1 X37.3328 Y14.4328
N16125 G1 X37.3368 Y14.4344
N16130 G1 X37.5084 Y14.5124
N16135 G1 X37.5172 Y14.5164
N16140 G1 X37.6096 Y14.5556
N16145 G1 X37.6172 Y14.5588
N16150 G1 X37.7164 Y14.5984
N16155 G1 X37.7232 Y14.6012
N16160 G1 X37.8304 Y14.6420
N16165 G1 X37.8368 Y14.6444
N16170 G1 X37.9540 Y14.6864
N16175 G1 X37.9592 Y14.6884
N16180 G1 X38.0880 Y14.7328
N16185 G1 X38.0920 Y14.7340
N16190 G1 X38.2344 Y14.7816
N16195 G1 X38.2360 Y14.7820
N16200 G1 X38.3128 Y14.8072
N16205 G1 X38.3140 Y14.8076
N16210 G1 X38.3948 Y14.8340
N16215 G1 X38.3952
N16220 G1 X38.4800 Y14.8616
N16225 G1 X38.4804
N16230 G1 X38.5388 Y14.8808
N16235 G1 Z-2.0000
N16240 G1 X38.5692 Y14.8904
N16245 G1 X38.6624 Y14.9204
N16250 G1 X38.7600 Y14.9520
N16255 G1 X38.8616 Y14.9848
N16260 G1 X38.9676 Y15.0192
N16265 G1 X39.0780 Y15.0548
N16270 G1 X39.1924 Y15.0924
N16275 G1 X39.3108 Y15.1312
N16280 G1 X39.4336 Y15.1716
N16285 G1 X39.5600 Y15.2136
N16290 G1 X39.6904 Y15.2572
N16295 G1 X39.9620 Y15.3484
N16300 G1 X40.0584 Y15.3816
N16305 G1 Z-2.3330 F1000
N16310 G1 X40.2464 Y15.4456 F2000
N16315 G1 X40.5424 Y15.5480
N16320 G1 X40.8472 Y15.6552
N16325 G1 X41.1592 Y15.7664
N16330 G1 X41.7956 Y15.9988
N16335 G1 X42.4324 Y16.2396
N16340 G1 X42.7444 Y16.3604
N16345 G1 X43.0504 Y16.4816
N16350 G1 X43.3468 Y16.6012
N16355 G1 X43.6332 Y16.7192
N16360 G1 X43.9068 Y16.8348
N16365 G1 X44.1672 Y16.9472
N16370 G1 X44.4124 Y17.0560
N16375 G1 X44.6432 Y17.1612
N16380 G1 X44.8588 Y17.2620
N16385 G1 X45.0604 Y17.3584
N16390 G1 X45.2468 Y17.4500
N16395 G1 X45.4204 Y17.5376
N16400 G1 X45.5820 Y17.6208
N16405 G1 X45.7332 Y17.7004
N16410 G1 X45.8760 Y17.7764
N16415 G1 X45.9648 Y17.8240
N16420 G1 Z-3.5000 F1000
N16425 G1 X46.0108 Y17.8488 F2000
N16430 G1 X46.1400 Y17.9188
N16435 G1 X46.2652 Y17.9864
N16440 G1 X46.2660 Y17.9868
N16445 G1 X46.5052 Y18.1152
N16450 G1 X46.5068 Y18.1164
N16455 G1 X46.9716 Y18.3632
N16460 G1 X47.2008 Y18.4880
N16465 G1 X47.4268 Y18.6192
N16470 G1 X47.6452 Y18.7568
N16475 G1 Z-2.0000
N16480 G1 X47.6492 Y18.7596
N16485 G1 X47.8668 Y18.9108
N16490 G1 X48.0776 Y19.0736
N16495 G1 X48.2816 Y19.2460
N16500 G1 X48.4780 Y19.4244
N16505 G1 X48.6652 Y19.6048
N16510 G1 X48.8416 Y19.7824
N16515 G1 X48.8584 Y19.8004
N16520 G1 Z-3.5000 F1000
N16525 G1 X49.0052 Y19.9544 F2000
N16530 G1 X49.1536 Y20.1208
N16535 G1 X49.2900 Y20.2876
N16540 G1 X49.3500 Y20.3684
N16545 G1 X49.4088 Y20.4532
N16550 G1 X49.4644 Y20.5408
N16555 G1 X49.5180 Y20.6324
N16560 G1 X49.5696 Y20.7292
N16565 G1 X49.6196 Y20.8312
N16570 G1 X49.6680 Y20.9384
N16575 G1 X49.7136 Y21.0476
N16580 G1 X49.8020 Y21.2864
N16585 G1 X49.8812 Y21.5308
N16590 G1 X49.9512 Y21.7752
N16595 G1 X49.9812 Y21.8924
N16600 G1 X50.0092 Y22.0076
N16605 G1 X50.0332 Y22.1172
N16610 G1 X50.0540 Y22.2228
N16615 G1 X50.0712 Y22.3220
N16620 G1 X50.0844 Y22.4152
N16625 G1 X50.0940 Y22.5020
N16630 G1 X50.0992 Y22.5824
N16635 G1 X50.1008 Y22.6584
N16640 G1 X50.0988 Y22.7284
N16645 G1 X50.0932 Y22.7944
N16650 G1 X50.0844 Y22.8568
N16655 G1 X50.0720 Y22.9164
N16660 G1 X50.0564 Y22.9752
N16665 G1 X50.0380 Y23.0320
N16670 G1 X50.0160 Y23.0864
N16675 G1 X49.9908 Y23.1408
N16680 G1 X49.9632 Y23.1928
N16685 G1 X49.9328 Y23.2420
N16690 G1 X49.9000 Y23.2888
N16695 G1 X49.8644 Y23.3336
N16700 G1 X49.8268 Y23.3752
N16705 G1 X49.7868 Y23.4140
N16710 G1 X49.7432 Y23.4504
N16715 G1 X49.6956 Y23.4844
N16720 G1 X49.6436 Y23.5168
N16725 G1 X49.5852 Y23.5472
N16730 G1 X49.5208 Y23.5760
N16735 G1 X49.4496 Y23.6020
N16740 G1 X49.3708 Y23.6260
N16745 G1 X49.2852 Y23.6472
N16750 G1 X49.1932 Y23.6652
N16755 G1 X49.0960 Y23.6804
N16760 G1 X48.9928 Y23.6916
N16765 G1 X48.8856 Y23.6996
N16770 G1 X48.7748 Y23.7040
N16775 G1 X48.6608 Y23.7048
N16780 G1 X48.5460 Y23.7024
N16785 G1 X48.3028 Y23.6872
N16790 G1 X48.0536 Y23.6604
N16795 G1 X47.7952 Y23.6224
N16800 G1 X47.5264 Y23.5744
N16805 G1 X47.2460 Y23.5172
N16810 G1 X46.9532 Y23.4516
N16815 G1 X46.6484 Y23.3780
N16820 G1 X46.3324 Y23.2956
N16825 G1 X46.0056 Y23.2036
N16830 G1 X45.6708 Y23.1012
N16835 G1 X45.3292 Y22.9876
N16840 G1 X44.9832 Y22.8624
N16845 G1 X44.6360 Y22.7248
N16850 G1 X44.2900 Y22.5756
N16855 G1 X43.9480 Y22.4156
N16860 G1 X43.6132 Y22.2464
N16865 G1 X43.5352 Y22.2040
N16870 G1 Z-2.0000
N16875 G1 X43.2880 Y22.0692
N16880 G1 X42.9744 Y21.8860
N16885 G1 X42.6740 Y21.6976
N16890 G1 X42.3860 Y21.5048
N16895 G1 X42.1784 Y21.3568
N16900 G1 Z-3.5000 F1000
N16905 G1 X42.1108 Y21.3088 F2000
N16910 G1 X41.8460 Y21.1088
N16915 G1 X41.5896 Y20.9048
N16920 G1 X41.3392 Y20.6960
N16925 G1 X41.0936 Y20.4816
N16930 G1 X40.8500 Y20.2604
N16935 G1 X40.6088 Y20.0316
N16940 G1 X40.3688 Y19.7944
N16945 G1 X40.1316 Y19.5472
N16950 G1 X39.8972 Y19.2896
N16955 G1 X39.6668 Y19.0208
N16960 G1 X39.4424 Y18.7412
N16965 G1 X39.2252 Y18.4528
N16970 G1 X39.0172 Y18.1568
N16975 G1 X38.8204 Y17.8576
N16980 G1 X38.6360 Y17.5572
N16985 G1 X38.5500 Y17.4108
N16990 G1 X38.4672 Y17.2648
N16995 G1 X38.3884 Y17.1212
N17000 G1 X38.3136 Y16.9804
N17005 G1 X38.2428 Y16.8432
N17010 G1 X38.1756 Y16.7100
N17015 G1 X38.1124 Y16.5804
N17020 G1 X38.0524 Y16.4556
N17025 G1 X37.9960 Y16.3356
N17030 G1 X37.9428 Y16.2204
N17035 G1 X37.8920 Y16.1104
N17040 G1 X37.8440 Y16.0056
N17045 G1 X37.7984 Y15.9060
N17050 G1 X37.7980 Y15.9048
N17055 G1 X37.7548 Y15.8112
N17060 G1 X37.7540 Y15.8096
N17065 G1 X37.7128 Y15.7212
N17070 G1 X37.7116 Y15.7192
N17075 G1 X37.6724 Y15.6360
N17080 G1 X37.6712 Y15.6340
N17085 G1 X37.6336 Y15.5548
N17090 G1 X37.6328 Y15.5536
N17095 G1 X37.5964 Y15.4784
N17100 G1 X37.5284 Y15.3388
N17105 G1 X37.4676 Y15.2100
N17110 G1 X37.4132 Y15.0860
N17115 G1 X37.3628 Y14.9592
N17120 G1 X37.3152 Y14.8272
N17125 G1 X37.2220 Y14.5432
N17130 G1 X37.1792 Y14.4068
N17135 G1 X37.1624 Y14.3532
N17140 G1 X37.1768 Y14.3596
N17145 G1 X37.3328 Y14.4328
N17150 G1 X37.3368 Y14.4344
N17155 G1 X37.5084 Y14.5124
N17160 G1 X37.5172 Y14.5164
N17165 G1 X37.6096 Y14.5556
N17170 G1 X37.6172 Y14.5588
N17175 G1 X37.7164 Y14.5984
N17180 G1 X37.7232 Y14.6012
N17185 G1 X37.8304 Y14.6420
N17190 G1 X37.8368 Y14.6444
N17195 G1 X37.9540 Y14.6864
N17200 G1 X37.9592 Y14.6884
N17205 G1 X38.0880 Y14.7328
N17210 G1 X38.0920 Y14.7340
N17215 G1 X38.2344 Y14.7816
N17220 G1 X38.2360 Y14.7820
N17225 G1 X38.3128 Y14.8072
N17230 G1 X38.3140 Y14.8076
N17235 G1 X38.3948 Y14.8340
N17240 G1 X38.3952
N17245 G1 X38.4800 Y14.8616
N17250 G1 X38.4804
N17255 G1 X38.5388 Y14.8808
N17260 G1 Z-2.0000
N17265 G1 X38.5692 Y14.8904
N17270 G1 X38.6624 Y14.9204
N17275 G1 X38.7600 Y14.9520
N17280 G1 X38.8616 Y14.9848
N17285 G1 X38.9676 Y15.0192
N17290 G1 X39.0780 Y15.0548
N17295 G1 X39.1924 Y15.0924
N17300 G1 X39.3108 Y15.1312
N17305 G1 X39.4336 Y15.1716
N17310 G1 X39.5600 Y15.2136
N17315 G1 X39.6904 Y15.2572
N17320 G1 X39.9620 Y15.3484
N17325 G1 X40.0584 Y15.3816
N17330 G1 Z-3.5000 F1000
N17335 G1 X40.2464 Y15.4456 F2000
N17340 G1 X40.5424 Y15.5480
N17345 G1 X40.8472 Y15.6552
N17350 G1 X41.1592 Y15.7664
N17355 G1 X41.7956 Y15.9988
N17360 G1 X42.4324 Y16.2396
N17365 G1 X42.7444 Y16.3604
N17370 G1 X43.0504 Y16.4816
N17375 G1 X43.3468 Y16.6012
N17380 G1 X43.6332 Y16.7192
N17385 G1 X43.9068 Y16.8348
N17390 G1 X44.1672 Y16.9472
N17395 G1 X44.4124 Y17.0560
N17400 G1 X44.6432 Y17.1612
N17405 G1 X44.8588 Y17.2620
N17410 G1 X45.0604 Y17.3584
N17415 G1 X45.2468 Y17.4500
N17420 G1 X45.4204 Y17.5376
N17425 G1 X45.5820 Y17.6208
N17430 G1 X45.7332 Y17.7004
N17435 G1 X45.8760 Y17.7764
N17440 G1 X45.9648 Y17.8240
N17445 G0 Z10.0000
N17450 G0 X45.9352 Y3.6180
N17455 G0 Z5.0000
N17460 G1 Z0.4000 F1000
N17465 G1 Z-1.1670
N17470 G1 X46.1284 Y3.6988 F2000
N17475 G1 X46.4024 Y3.8280
N17480 G1 X46.6744 Y3.9712
N17485 G1 X46.9448 Y4.1272
N17490 G1 X47.2116 Y4.2944
N17495 G1 X47.4740 Y4.4712
N17500 G1 X47.7292 Y4.6556
N17505 G1 X47.9768 Y4.8464
N17510 G1 X48.2136 Y5.0416
N17515 G1 X48.4384 Y5.2416
N17520 G1 X48.6504 Y5.4472
N17525 G1 X48.7488 Y5.5496
N17530 G1 X48.8444 Y5.6540
N17535 G1 X48.9352 Y5.7592
N17540 G1 X49.0224 Y5.8656
N17545 G1 X49.1044 Y5.9728
N17550 G1 X49.1816 Y6.0812
N17555 G1 X49.2544 Y6.1908
N17560 G1 X49.3224 Y6.3020
N17565 G1 X49.3860 Y6.4144
N17570 G1 X49.4440 Y6.5276
N17575 G1 X49.4972 Y6.6424
N17580 G1 X49.5456 Y6.7592
N17585 G1 X49.5892 Y6.8780
N17590 G1 X49.6284 Y6.9988
N17595 G1 X49.6624 Y7.1216
N17600 G1 X49.6912 Y7.2460
N17605 G1 X49.7156 Y7.3732
N17610 G1 X49.7348 Y7.5024
N17615 G1 X49.7496 Y7.6340
N17620 G1 X49.7592 Y7.7676
N17625 G1 X49.7644 Y7.9032
N17630 G1 X49.7648 Y8.0416
N17635 G1 X49.7612 Y8.1808
N17640 G1 X49.7528 Y8.3212
N17645 G1 X49.7400 Y8.4632
N17650 G1 X49.7236 Y8.6036
N17655 G1 X49.6792 Y8.8928
N17660 G1 X49.6232 Y9.1760
N17665 G1 X49.5576 Y9.4524
N17670 G1 X49.5236 Y9.5836
N17675 G1 X49.4880 Y9.7128
N17680 G1 X49.4524 Y9.8364
N17685 G1 X49.4168 Y9.9548
N17690 G1 X49.3820 Y10.0680
N17695 G1 X49.3480 Y10.1736
N17700 G1 X49.3152 Y10.2732
N17705 G1 X49.2832 Y10.3660
N17710 G1 X49.2524 Y10.4524
N17715 G1 X49.2232 Y10.5324
N17720 G1 X49.1956 Y10.6056
N17725 G1 X49.1696 Y10.6716
N17730 G1 X49.1440 Y10.7340
N17735 G1 X49.1200 Y10.7904
N17740 G1 X49.0984 Y10.8400
N17745 G1 X49.0768 Y10.8860
N17750 G1 X49.0352 Y10.9728
N17755 G1 X48.9960 Y11.0512
N17760 G1 X48.9580 Y11.1264
N17765 G1 X48.9516 Y11.1400
N17770 G1 X48.9180 Y11.2136
N17775 G1 X48.9064 Y11.2416
N17780 G1 X48.8784 Y11.3176
N17785 G1 X48.8660 Y11.3576
N17790 G1 X48.8452 Y11.4396
N17795 G1 X48.8360 Y11.4872
N17800 G1 X48.8244 Y11.5780
N17805 G1 X48.8212 Y11.6256
N17810 G1 X48.8204 Y11.7268
N17815 G1 X48.8220 Y11.7644
N17820 G1 X48.8316 Y11.8760
N17825 G1 X48.8352 Y11.9056
N17830 G1 X48.8548 Y12.0272
N17835 G1 X48.8588 Y12.0480
N17840 G1 X48.8868 Y12.1772
N17845 G1 X48.8904 Y12.1936
N17850 G1 X48.9256 Y12.3288
N17855 G1 X48.9284 Y12.3392
N17860 G1 X48.9684 Y12.4776
N17865 G1 X48.9712 Y12.4864
N17870 G1 X49.0580 Y12.7624
N17875 G1 X49.0596 Y12.7668
N17880 G1 X49.1032 Y12.9000
N17885 G1 Y12.9008
N17890 G1 X49.1452 Y13.0284
N17895 G1 X49.1848 Y13.1492
N17900 G1 X49.2220 Y13.2632
N17905 G1 X49.2224 Y13.2648
N17910 G1 X49.2580 Y13.3736
N17915 G1 X49.2588 Y13.3760
N17920 G1 X49.2932 Y13.4788
N17925 G1 X49.2944 Y13.4820
N17930 G1 X49.3280 Y13.5796
N17935 G1 X49.3304 Y13.5864
N17940 G1 X49.3644 Y13.6796
N17945 G1 X49.3684 Y13.6908
N17950 G1 X49.4040 Y13.7796
N17955 G1 X49.4100 Y13.7936
N17960 G1 X49.4480 Y13.8792
N17965 G1 X49.4568 Y13.8980
N17970 G1 X49.4984 Y13.9800
N17975 G1 X49.5088 Y13.9992
N17980 G1 X49.5540 Y14.0776
N17985 G1 X49.5688 Y14.1012
N17990 G1 X49.6184 Y14.1744
N17995 G1 X49.6384 Y14.2016
N18000 G1 X49.6928 Y14.2692
N18005 G1 X49.7180 Y14.2976
N18010 G1 X49.7768 Y14.3580
N18015 G1 X49.8104 Y14.3888
N18020 G1 X49.8736 Y14.4404
N18025 G1 X49.8952 Y14.4564
N18030 G1 X49.9176 Y14.4716
N18035 G1 X49.9852 Y14.5128
N18040 G1 X50.0112 Y14.5276
N18045 G1 X50.0384 Y14.5400
N18050 G1 X50.1100 Y14.5704
N18055 G1 X50.1400 Y14.5816
