
This G-code is the result of a post-processor modification by chiefenne.
The original post-processor (version 45917) was modified to include additional features.
The postprocessor is intended for use with the KinetiC-NC control software from CNC-STEP.
For more information, please visit the CNC-STEP website at https://www.cnc-step.com/

The following modifications have been made to the original post-processor:
 - Intial section which supports a specific safe path to the workpiece origin (G54)
 - Jump labels between sections (e.g., 2D adaptive clearing, pockets, etc.)
   Allows to execute individual sections separately
 - Repeat / Next with counter for each operation
   Allows to redo sections multiple times
 - Allow ':' as a permitted character in comments
 - Swap spindle speed and direction, M3 S12000 instead of S12000 M3

%
(LOEWE Anagram Charm)
(Anagram Charm)
(Machine:)
(  vendor: CNC STEP)
(  model: HIGH-Z S-720T)
(  description: Generic 3-axis)

(Tools used in this program:)
(T2 D=2 CR=0 - ZMIN=-3.5 - Schaftfrser)

(Safe path to workpiece origin - typically G54)
G54
#100=#900 (read x-offset which was set in G54)
#101=0   (safe y for going to workpiece)
#102=0   (safe z for going to workpiece)
PRINT "x-offset = ";#100;"mm"
PRINT "y-offset = ";#101;"mm"
PRINT "z-offset = ";#102;"mm"
ASKBOOL "Continue with offsets?" I=2
IF #0=0 THEN
  ASKFLT "Enter x-offset" I=0.0 J=720.0
  #100=#0
  PRINT "x-offset = ";#100;"mm"
ENDIF

N10 G90 G94
N15 G17
N20 G21

G53
G0 Z=#102
G0 Y=#101
G0 X=#100

(Modify SKIP label to jump to the respective section)
(To activate, remove the brackets around SKIP and JUMP labels)
(Skip label is without : and JUMP label is with :)
(SKIP Q0002)
(Q0001:)

(2D-Kontur1)
N25 T2 M66
(Schaftfraeser 2mm Holz, GFK, CFK)
N30 M3 S24000
N35 G17 G90 G94
N40 G54
N45 G0 X69.13 Y64.349
N50 G0 G43 Z20 H2
(Edit repeat count according to needs)
REPEAT=1
N55 G0 Z5
N60 G1 Z0.4 F1000
N65 G1 Z-1.167
N70 G1 X69.372 Y64.595 F2000
N75 G1 X69.398 Y64.622
N80 G1 X69.642 Y64.852
N85 G1 X69.66 Y64.869
N90 G1 X69.903 Y65.088
N95 G1 X69.922 Y65.105
N100 G1 X70.164 Y65.312
N105 G1 X70.184 Y65.329
N110 G1 X70.424 Y65.524
N115 G1 X70.456 Y65.548
N120 G1 X70.938 Y65.909
N125 G1 X70.98 Y65.939
N130 G1 X71.486 Y66.278
N135 G1 X71.52 Y66.3
N140 G1 X71.79 Y66.466
N145 G1 X71.816 Y66.481
N150 G1 X72.101 Y66.644
N155 G1 X72.13 Y66.661
N160 G1 X72.431 Y66.82
N165 G1 X72.466 Y66.837
N170 G1 X72.782 Y66.989
N175 G1 X72.821 Y67.007
N180 G1 X72.842 Y67.016
N185 G1 X72.821 Y67.025
N190 G1 X72.782 Y67.042
N195 G1 X72.465 Y67.195
N200 G1 X72.431 Y67.212
N205 G1 X72.131 Y67.371
N210 G1 X72.101 Y67.387
N215 G1 X71.816 Y67.551
N220 G1 X71.79 Y67.566
N225 G1 X71.52 Y67.732
N230 G1 X71.486 Y67.754
N235 G1 X70.98 Y68.093
N240 G1 X70.938 Y68.123
N245 G1 X70.456 Y68.483
N250 G1 X70.424 Y68.508
N255 G1 X70.184 Y68.703
N260 G1 X70.164 Y68.72
N265 G1 X69.922 Y68.927
N270 G1 X69.903 Y68.944
N275 G1 X69.66 Y69.163
N280 G1 X69.641 Y69.18
N285 G1 X69.398 Y69.41
N290 G1 X69.372 Y69.436
N295 G1 X68.893 Y69.924
N300 G1 X68.857 Y69.963
N305 G1 X68.405 Y70.477
N310 G1 X68.376 Y70.511
N315 G1 X68.165 Y70.774
N320 G1 X68.144 Y70.8
N325 G1 X67.945 Y71.066
N330 G1 X67.924 Y71.094
N335 G1 X67.736 Y71.364
N340 G1 X67.716 Y71.394
N345 G1 X67.539 Y71.668
N350 G1 X67.52 Y71.699
N355 G1 X67.354 Y71.978
N360 G1 X67.336 Y72.009
N365 G1 X67.18 Y72.295
N370 G1 X67.163 Y72.326
N375 G1 X67.015 Y72.62
N380 G1 X67.001 Y72.649
N385 G1 X66.86 Y72.953
N390 G1 X66.848 Y72.98
N395 G1 X66.833 Y73.016
N400 G1 X65.984
N405 G1 X65.969 Y72.98
N410 G1 X65.956 Y72.953
N415 G1 X65.815 Y72.649
N420 G1 X65.801 Y72.62
N425 G1 X65.653 Y72.326
N430 G1 X65.637 Y72.295
N435 G1 X65.48 Y72.009
N440 G1 X65.463 Y71.978
N445 G1 X65.297 Y71.699
N450 G1 X65.277 Y71.668
N455 G1 X65.101 Y71.394
N460 G1 X65.08 Y71.364
N465 G1 X64.892 Y71.094
N470 G1 X64.872 Y71.066
N475 G1 X64.672 Y70.8
N480 G1 X64.652 Y70.774
N485 G1 X64.441 Y70.511
N490 G1 X64.412 Y70.477
N495 G1 X63.959 Y69.964
N500 G1 X63.923 Y69.924
N505 G1 X63.445 Y69.436
N510 G1 X63.418 Y69.41
N515 G1 X63.175 Y69.18
N520 G1 X63.157 Y69.163
N525 G1 X62.914 Y68.944
N530 G1 X62.895 Y68.927
N535 G1 X62.653 Y68.72
N540 G1 X62.632 Y68.703
N545 G1 X62.392 Y68.508
N550 G1 X62.361 Y68.483
N555 G1 X61.879 Y68.123
N560 G1 X61.837 Y68.093
N565 G1 X61.33 Y67.754
N570 G1 X61.297 Y67.732
N575 G1 X61.027 Y67.566
N580 G1 X61.001 Y67.551
N585 G1 X60.716 Y67.387
N590 G1 X60.686 Y67.371
N595 G1 X60.386 Y67.212
N600 G1 X60.351 Y67.195
N605 G1 X60.035 Y67.042
N610 G1 X59.995 Y67.025
N615 G1 X59.975 Y67.016
N620 G1 X59.995 Y67.007
N625 G1 X60.034 Y66.989
N630 G1 X60.351 Y66.837
N635 G1 X60.386 Y66.82
N640 G1 X60.686 Y66.661
N645 G1 X60.716 Y66.644
N650 G1 X61.001 Y66.481
N655 G1 X61.027 Y66.466
N660 G1 X61.297 Y66.3
N665 G1 X61.33 Y66.278
N670 G1 X61.837 Y65.939
N675 G1 X61.879 Y65.909
N680 G1 X62.361 Y65.548
N685 G1 X62.392 Y65.524
N690 G1 X62.632 Y65.329
N695 G1 X62.653 Y65.312
N700 G1 X62.895 Y65.105
N705 G1 X62.914 Y65.088
N710 G1 X63.157 Y64.869
N715 G1 X63.175 Y64.852
N720 G1 X63.418 Y64.622
N725 G1 X63.445 Y64.595
N730 G1 X63.923 Y64.107
N735 G1 X63.959 Y64.068
N740 G1 X64.412 Y63.555
N745 G1 X64.441 Y63.52
N750 G1 X64.652 Y63.258
N755 G1 X64.672 Y63.232
N760 G1 X64.872 Y62.966
N765 G1 X64.892 Y62.937
N770 G1 X65.081 Y62.668
N775 G1 X65.101 Y62.638
N780 G1 X65.277 Y62.364
N785 G1 X65.297 Y62.333
N790 G1 X65.463 Y62.054
N795 G1 X65.48 Y62.023
N800 G1 X65.637 Y61.737
N805 G1 X65.653 Y61.706
N810 G1 X65.801 Y61.412
N815 G1 X65.815 Y61.383
N820 G1 X65.956 Y61.079
N825 G1 X65.968 Y61.051
N830 G1 X65.984 Y61.016
N835 G1 X66.408
N840 G1 X66.833
N845 G1 X66.848 Y61.052
N850 G1 X66.86 Y61.079
N855 G1 X67.001 Y61.383
N860 G1 X67.015 Y61.412
N865 G1 X67.163 Y61.706
N870 G1 X67.18 Y61.737
N875 G1 X67.336 Y62.023
N880 G1 X67.354 Y62.054
N885 G1 X67.52 Y62.333
N890 G1 X67.539 Y62.364
N895 G1 X67.716 Y62.638
N900 G1 X67.736 Y62.668
N905 G1 X67.924 Y62.937
N910 G1 X67.945 Y62.966
N915 G1 X68.145 Y63.232
N920 G1 X68.165 Y63.258
N925 G1 X68.376 Y63.52
N930 G1 X68.405 Y63.555
N935 G1 X68.857 Y64.068
N940 G1 X68.893 Y64.107
N945 G1 X69.13 Y64.349
N950 G1 Z-2.333 F1000
N955 G1 X69.372 Y64.595 F2000
N960 G1 X69.398 Y64.622
N965 G1 X69.642 Y64.852
N970 G1 X69.66 Y64.869
N975 G1 X69.903 Y65.088
N980 G1 X69.922 Y65.105
N985 G1 X70.164 Y65.312
N990 G1 X70.184 Y65.329
N995 G1 X70.424 Y65.524
N1000 G1 X70.456 Y65.548
N1005 G1 X70.938 Y65.909
N1010 G1 X70.98 Y65.939
N1015 G1 X71.486 Y66.278
N1020 G1 X71.52 Y66.3
N1025 G1 X71.79 Y66.466
N1030 G1 X71.816 Y66.481
N1035 G1 X72.101 Y66.644
N1040 G1 X72.13 Y66.661
N1045 G1 X72.431 Y66.82
N1050 G1 X72.466 Y66.837
N1055 G1 X72.782 Y66.989
N1060 G1 X72.821 Y67.007
N1065 G1 X72.842 Y67.016
N1070 G1 X72.821 Y67.025
N1075 G1 X72.782 Y67.042
N1080 G1 X72.465 Y67.195
N1085 G1 X72.431 Y67.212
N1090 G1 X72.131 Y67.371
N1095 G1 X72.101 Y67.387
N1100 G1 X71.816 Y67.551
N1105 G1 X71.79 Y67.566
N1110 G1 X71.52 Y67.732
N1115 G1 X71.486 Y67.754
N1120 G1 X70.98 Y68.093
N1125 G1 X70.938 Y68.123
N1130 G1 X70.456 Y68.483
N1135 G1 X70.424 Y68.508
N1140 G1 X70.184 Y68.703
N1145 G1 X70.164 Y68.72
N1150 G1 X69.922 Y68.927
N1155 G1 X69.903 Y68.944
N1160 G1 X69.66 Y69.163
N1165 G1 X69.641 Y69.18
N1170 G1 X69.398 Y69.41
N1175 G1 X69.372 Y69.436
N1180 G1 X68.893 Y69.924
N1185 G1 X68.857 Y69.963
N1190 G1 X68.405 Y70.477
N1195 G1 X68.376 Y70.511
N1200 G1 X68.165 Y70.774
N1205 G1 X68.144 Y70.8
N1210 G1 X67.945 Y71.066
N1215 G1 X67.924 Y71.094
N1220 G1 X67.736 Y71.364
N1225 G1 X67.716 Y71.394
N1230 G1 X67.539 Y71.668
N1235 G1 X67.52 Y71.699
N1240 G1 X67.354 Y71.978
N1245 G1 X67.336 Y72.009
N1250 G1 X67.18 Y72.295
N1255 G1 X67.163 Y72.326
N1260 G1 X67.015 Y72.62
N1265 G1 X67.001 Y72.649
N1270 G1 X66.86 Y72.953
N1275 G1 X66.848 Y72.98
N1280 G1 X66.833 Y73.016
N1285 G1 X65.984
N1290 G1 X65.969 Y72.98
N1295 G1 X65.956 Y72.953
N1300 G1 X65.815 Y72.649
N1305 G1 X65.801 Y72.62
N1310 G1 X65.653 Y72.326
N1315 G1 X65.637 Y72.295
N1320 G1 X65.48 Y72.009
N1325 G1 X65.463 Y71.978
N1330 G1 X65.297 Y71.699
N1335 G1 X65.277 Y71.668
N1340 G1 X65.101 Y71.394
N1345 G1 X65.08 Y71.364
N1350 G1 X64.892 Y71.094
N1355 G1 X64.872 Y71.066
N1360 G1 X64.672 Y70.8
N1365 G1 X64.652 Y70.774
N1370 G1 X64.441 Y70.511
N1375 G1 X64.412 Y70.477
N1380 G1 X63.959 Y69.964
N1385 G1 X63.923 Y69.924
N1390 G1 X63.445 Y69.436
N1395 G1 X63.418 Y69.41
N1400 G1 X63.175 Y69.18
N1405 G1 X63.157 Y69.163
N1410 G1 X62.914 Y68.944
N1415 G1 X62.895 Y68.927
N1420 G1 X62.653 Y68.72
N1425 G1 X62.632 Y68.703
N1430 G1 X62.392 Y68.508
N1435 G1 X62.361 Y68.483
N1440 G1 X61.879 Y68.123
N1445 G1 X61.837 Y68.093
N1450 G1 X61.33 Y67.754
N1455 G1 X61.297 Y67.732
N1460 G1 X61.027 Y67.566
N1465 G1 X61.001 Y67.551
N1470 G1 X60.716 Y67.387
N1475 G1 X60.686 Y67.371
N1480 G1 X60.386 Y67.212
N1485 G1 X60.351 Y67.195
N1490 G1 X60.035 Y67.042
N1495 G1 X59.995 Y67.025
N1500 G1 X59.975 Y67.016
N1505 G1 X59.995 Y67.007
N1510 G1 X60.034 Y66.989
N1515 G1 X60.351 Y66.837
N1520 G1 X60.386 Y66.82
N1525 G1 X60.686 Y66.661
N1530 G1 X60.716 Y66.644
N1535 G1 X61.001 Y66.481
N1540 G1 X61.027 Y66.466
N1545 G1 X61.297 Y66.3
N1550 G1 X61.33 Y66.278
N1555 G1 X61.837 Y65.939
N1560 G1 X61.879 Y65.909
N1565 G1 X62.361 Y65.548
N1570 G1 X62.392 Y65.524
N1575 G1 X62.632 Y65.329
N1580 G1 X62.653 Y65.312
N1585 G1 X62.895 Y65.105
N1590 G1 X62.914 Y65.088
N1595 G1 X63.157 Y64.869
N1600 G1 X63.175 Y64.852
N1605 G1 X63.418 Y64.622
N1610 G1 X63.445 Y64.595
N1615 G1 X63.923 Y64.107
N1620 G1 X63.959 Y64.068
N1625 G1 X64.412 Y63.555
N1630 G1 X64.441 Y63.52
N1635 G1 X64.652 Y63.258
N1640 G1 X64.672 Y63.232
N1645 G1 X64.872 Y62.966
N1650 G1 X64.892 Y62.937
N1655 G1 X65.081 Y62.668
N1660 G1 X65.101 Y62.638
N1665 G1 X65.277 Y62.364
N1670 G1 X65.297 Y62.333
N1675 G1 X65.463 Y62.054
N1680 G1 X65.48 Y62.023
N1685 G1 X65.637 Y61.737
N1690 G1 X65.653 Y61.706
N1695 G1 X65.801 Y61.412
N1700 G1 X65.815 Y61.383
N1705 G1 X65.956 Y61.079
N1710 G1 X65.968 Y61.051
N1715 G1 X65.984 Y61.016
N1720 G1 X66.408
N1725 G1 X66.833
N1730 G1 X66.848 Y61.052
N1735 G1 X66.86 Y61.079
N1740 G1 X67.001 Y61.383
N1745 G1 X67.015 Y61.412
N1750 G1 X67.163 Y61.706
N1755 G1 X67.18 Y61.737
N1760 G1 X67.336 Y62.023
N1765 G1 X67.354 Y62.054
N1770 G1 X67.52 Y62.333
N1775 G1 X67.539 Y62.364
N1780 G1 X67.716 Y62.638
N1785 G1 X67.736 Y62.668
N1790 G1 X67.924 Y62.937
N1795 G1 X67.945 Y62.966
N1800 G1 X68.145 Y63.232
N1805 G1 X68.165 Y63.258
N1810 G1 X68.376 Y63.52
N1815 G1 X68.405 Y63.555
N1820 G1 X68.857 Y64.068
N1825 G1 X68.893 Y64.107
N1830 G1 X69.13 Y64.349
N1835 G1 Z-3.5 F1000
N1840 G1 X69.372 Y64.595 F2000
N1845 G1 X69.398 Y64.622
N1850 G1 X69.642 Y64.852
N1855 G1 X69.66 Y64.869
N1860 G1 X69.903 Y65.088
N1865 G1 X69.922 Y65.105
N1870 G1 X70.164 Y65.312
N1875 G1 X70.184 Y65.329
N1880 G1 X70.424 Y65.524
N1885 G1 X70.456 Y65.548
N1890 G1 X70.938 Y65.909
N1895 G1 X70.98 Y65.939
N1900 G1 X71.486 Y66.278
N1905 G1 X71.52 Y66.3
N1910 G1 X71.79 Y66.466
N1915 G1 X71.816 Y66.481
N1920 G1 X72.101 Y66.644
N1925 G1 X72.13 Y66.661
N1930 G1 X72.431 Y66.82
N1935 G1 X72.466 Y66.837
N1940 G1 X72.782 Y66.989
N1945 G1 X72.821 Y67.007
N1950 G1 X72.842 Y67.016
N1955 G1 X72.821 Y67.025
N1960 G1 X72.782 Y67.042
N1965 G1 X72.465 Y67.195
N1970 G1 X72.431 Y67.212
N1975 G1 X72.131 Y67.371
N1980 G1 X72.101 Y67.387
N1985 G1 X71.816 Y67.551
N1990 G1 X71.79 Y67.566
N1995 G1 X71.52 Y67.732
N2000 G1 X71.486 Y67.754
N2005 G1 X70.98 Y68.093
N2010 G1 X70.938 Y68.123
N2015 G1 X70.456 Y68.483
N2020 G1 X70.424 Y68.508
N2025 G1 X70.184 Y68.703
N2030 G1 X70.164 Y68.72
N2035 G1 X69.922 Y68.927
N2040 G1 X69.903 Y68.944
N2045 G1 X69.66 Y69.163
N2050 G1 X69.641 Y69.18
N2055 G1 X69.398 Y69.41
N2060 G1 X69.372 Y69.436
N2065 G1 X68.893 Y69.924
N2070 G1 X68.857 Y69.963
N2075 G1 X68.405 Y70.477
N2080 G1 X68.376 Y70.511
N2085 G1 X68.165 Y70.774
N2090 G1 X68.144 Y70.8
N2095 G1 X67.945 Y71.066
N2100 G1 X67.924 Y71.094
N2105 G1 X67.736 Y71.364
N2110 G1 X67.716 Y71.394
N2115 G1 X67.539 Y71.668
N2120 G1 X67.52 Y71.699
N2125 G1 X67.354 Y71.978
N2130 G1 X67.336 Y72.009
N2135 G1 X67.18 Y72.295
N2140 G1 X67.163 Y72.326
N2145 G1 X67.015 Y72.62
N2150 G1 X67.001 Y72.649
N2155 G1 X66.86 Y72.953
N2160 G1 X66.848 Y72.98
N2165 G1 X66.833 Y73.016
N2170 G1 X65.984
N2175 G1 X65.969 Y72.98
N2180 G1 X65.956 Y72.953
N2185 G1 X65.815 Y72.649
N2190 G1 X65.801 Y72.62
N2195 G1 X65.653 Y72.326
N2200 G1 X65.637 Y72.295
N2205 G1 X65.48 Y72.009
N2210 G1 X65.463 Y71.978
N2215 G1 X65.297 Y71.699
N2220 G1 X65.277 Y71.668
N2225 G1 X65.101 Y71.394
N2230 G1 X65.08 Y71.364
N2235 G1 X64.892 Y71.094
N2240 G1 X64.872 Y71.066
N2245 G1 X64.672 Y70.8
N2250 G1 X64.652 Y70.774
N2255 G1 X64.441 Y70.511
N2260 G1 X64.412 Y70.477
N2265 G1 X63.959 Y69.964
N2270 G1 X63.923 Y69.924
N2275 G1 X63.445 Y69.436
N2280 G1 X63.418 Y69.41
N2285 G1 X63.175 Y69.18
N2290 G1 X63.157 Y69.163
N2295 G1 X62.914 Y68.944
N2300 G1 X62.895 Y68.927
N2305 G1 X62.653 Y68.72
N2310 G1 X62.632 Y68.703
N2315 G1 X62.392 Y68.508
N2320 G1 X62.361 Y68.483
N2325 G1 X61.879 Y68.123
N2330 G1 X61.837 Y68.093
N2335 G1 X61.33 Y67.754
N2340 G1 X61.297 Y67.732
N2345 G1 X61.027 Y67.566
N2350 G1 X61.001 Y67.551
N2355 G1 X60.716 Y67.387
N2360 G1 X60.686 Y67.371
N2365 G1 X60.386 Y67.212
N2370 G1 X60.351 Y67.195
N2375 G1 X60.035 Y67.042
N2380 G1 X59.995 Y67.025
N2385 G1 X59.975 Y67.016
N2390 G1 X59.995 Y67.007
N2395 G1 X60.034 Y66.989
N2400 G1 X60.351 Y66.837
N2405 G1 X60.386 Y66.82
N2410 G1 X60.686 Y66.661
N2415 G1 X60.716 Y66.644
N2420 G1 X61.001 Y66.481
N2425 G1 X61.027 Y66.466
N2430 G1 X61.297 Y66.3
N2435 G1 X61.33 Y66.278
N2440 G1 X61.837 Y65.939
N2445 G1 X61.879 Y65.909
N2450 G1 X62.361 Y65.548
N2455 G1 X62.392 Y65.524
N2460 G1 X62.632 Y65.329
N2465 G1 X62.653 Y65.312
N2470 G1 X62.895 Y65.105
N2475 G1 X62.914 Y65.088
N2480 G1 X63.157 Y64.869
N2485 G1 X63.175 Y64.852
N2490 G1 X63.418 Y64.622
N2495 G1 X63.445 Y64.595
N2500 G1 X63.923 Y64.107
N2505 G1 X63.959 Y64.068
N2510 G1 X64.412 Y63.555
N2515 G1 X64.441 Y63.52
N2520 G1 X64.652 Y63.258
N2525 G1 X64.672 Y63.232
N2530 G1 X64.872 Y62.966
N2535 G1 X64.892 Y62.937
N2540 G1 X65.081 Y62.668
N2545 G1 X65.101 Y62.638
N2550 G1 X65.277 Y62.364
N2555 G1 X65.297 Y62.333
N2560 G1 X65.463 Y62.054
N2565 G1 X65.48 Y62.023
N2570 G1 X65.637 Y61.737
N2575 G1 X65.653 Y61.706
N2580 G1 X65.801 Y61.412
N2585 G1 X65.815 Y61.383
N2590 G1 X65.956 Y61.079
N2595 G1 X65.968 Y61.051
N2600 G1 X65.984 Y61.016
N2605 G1 X66.408
N2610 G1 X66.833
N2615 G1 X66.848 Y61.052
N2620 G1 X66.86 Y61.079
N2625 G1 X67.001 Y61.383
N2630 G1 X67.015 Y61.412
N2635 G1 X67.163 Y61.706
N2640 G1 X67.18 Y61.737
N2645 G1 X67.336 Y62.023
N2650 G1 X67.354 Y62.054
N2655 G1 X67.52 Y62.333
N2660 G1 X67.539 Y62.364
N2665 G1 X67.716 Y62.638
N2670 G1 X67.736 Y62.668
N2675 G1 X67.924 Y62.937
N2680 G1 X67.945 Y62.966
N2685 G1 X68.145 Y63.232
N2690 G1 X68.165 Y63.258
N2695 G1 X68.376 Y63.52
N2700 G1 X68.405 Y63.555
N2705 G1 X68.857 Y64.068
N2710 G1 X68.893 Y64.107
N2715 G1 X69.13 Y64.349
N2720 G0 Z10
N2725 G0 X88.559 Y46.146
N2730 G0 Z5
N2735 G1 Z0.4 F1000
N2740 G1 Z-1.167
N2745 G1 X88.783 Y46.544 F2000
N2750 G1 X88.791 Y46.558
N2755 G1 X89.157 Y47.185
N2760 G1 X89.166 Y47.199
N2765 G1 X89.553 Y47.837
N2770 G1 X89.561 Y47.851
N2775 G1 X89.969 Y48.499
N2780 G1 X89.977 Y48.513
N2785 G1 X90.405 Y49.17
N2790 G1 X90.414 Y49.184
N2795 G1 X90.862 Y49.846
N2800 G1 X90.872 Y49.861
N2805 G1 X91.339 Y50.528
N2810 G1 X91.35 Y50.543
N2815 G1 X91.838 Y51.211
N2820 G1 X91.85 Y51.227
N2825 G1 X92.357 Y51.893
N2830 G1 X92.37 Y51.911
N2835 G1 X92.897 Y52.572
N2840 G1 X92.911 Y52.59
N2845 G1 X93.457 Y53.244
N2850 G1 X93.473 Y53.262
N2855 G1 X94.037 Y53.905
N2860 G1 X94.053 Y53.924
N2865 G1 X94.634 Y54.555
N2870 G1 X94.652 Y54.573
N2875 G1 X95.249 Y55.189
N2880 G1 X95.266 Y55.207
N2885 G1 X95.878 Y55.806
N2890 G1 X95.896 Y55.823
N2895 G1 X96.519 Y56.405
N2900 G1 X96.537 Y56.422
N2905 G1 X97.171 Y56.985
N2910 G1 X97.189 Y57
N2915 G1 X97.831 Y57.544
N2920 G1 X97.849 Y57.559
N2925 G1 X98.498 Y58.081
N2930 G1 X98.515 Y58.095
N2935 G1 X99.167 Y58.597
N2940 G1 X99.185 Y58.61
N2945 G1 X99.838 Y59.09
N2950 G1 X99.855 Y59.102
N2955 G1 X100.508 Y59.561
N2960 G1 X100.525 Y59.573
N2965 G1 X101.175 Y60.01
N2970 G1 X101.19 Y60.02
N2975 G1 X101.834 Y60.437
N2980 G1 X101.85 Y60.447
N2985 G1 X102.488 Y60.843
N2990 G1 X102.502 Y60.852
N2995 G1 X103.131 Y61.228
N3000 G1 X103.145 Y61.236
N3005 G1 X103.765 Y61.593
N3010 G1 X103.777 Y61.6
N3015 G1 X104.384 Y61.938
N3020 G1 X104.396 Y61.945
N3025 G1 X104.991 Y62.266
N3030 G1 X105.004 Y62.272
N3035 G1 X105.587 Y62.576
N3040 G1 X105.596 Y62.581
N3045 G1 X106.164 Y62.87
N3050 G1 X106.175 Y62.875
N3055 G1 X106.731 Y63.149
N3060 G1 X106.739 Y63.153
N3065 G1 X107.281 Y63.414
N3070 G1 X107.29 Y63.419
N3075 G1 X107.82 Y63.667
N3080 G1 X107.828 Y63.671
N3085 G1 X108.346 Y63.909
N3090 G1 X108.354 Y63.912
N3095 G1 X108.862 Y64.14
N3100 G1 X108.869 Y64.143
N3105 G1 X109.368 Y64.362
N3110 G1 X109.375 Y64.365
N3115 G1 X109.866 Y64.576
N3120 G1 X109.878 Y64.582
N3125 G1 X110.847 Y64.983
N3130 G1 X110.865 Y64.99
N3135 G1 X111.829 Y65.368
N3140 G1 X111.851 Y65.377
N3145 G1 X112.831 Y65.734
N3150 G1 X112.853 Y65.742
N3155 G1 X113.357 Y65.913
N3160 G1 X113.373 Y65.918
N3165 G1 X113.889 Y66.083
N3170 G1 X113.908 Y66.089
N3175 G1 X114.44 Y66.247
N3180 G1 X114.46 Y66.253
N3185 G1 X115.01 Y66.405
N3190 G1 X115.032 Y66.41
N3195 G1 X115.602 Y66.554
N3200 G1 X115.624 Y66.559
N3205 G1 X116.216 Y66.694
N3210 G1 X116.239 Y66.699
N3215 G1 X116.853 Y66.824
N3220 G1 X116.877 Y66.828
N3225 G1 X117.513 Y66.941
N3230 G1 X117.536 Y66.945
N3235 G1 X117.996 Y67.016
N3240 G1 X117.536 Y67.086
N3245 G1 X117.513 Y67.09
N3250 G1 X116.877 Y67.204
N3255 G1 X116.853 Y67.208
N3260 G1 X116.239 Y67.333
N3265 G1 X116.216 Y67.338
N3270 G1 X115.624 Y67.472
N3275 G1 X115.602 Y67.478
N3280 G1 X115.032 Y67.621
N3285 G1 X115.01 Y67.627
N3290 G1 X114.46 Y67.779
N3295 G1 X114.44 Y67.784
N3300 G1 X113.908 Y67.943
N3305 G1 X113.889 Y67.949
N3310 G1 X113.373 Y68.114
N3315 G1 X113.357 Y68.119
N3320 G1 X112.853 Y68.29
N3325 G1 X112.831 Y68.298
N3330 G1 X111.851 Y68.655
N3335 G1 X111.829 Y68.663
N3340 G1 X110.865 Y69.042
N3345 G1 X110.847 Y69.049
N3350 G1 X109.878 Y69.45
N3355 G1 X109.866 Y69.455
N3360 G1 X109.375 Y69.666
N3365 G1 X109.368 Y69.669
N3370 G1 X108.869 Y69.888
N3375 G1 X108.862 Y69.892
N3380 G1 X108.354 Y70.12
N3385 G1 X108.346 Y70.123
N3390 G1 X107.828 Y70.361
N3395 G1 X107.82 Y70.364
N3400 G1 X107.29 Y70.613
N3405 G1 X107.281 Y70.617
N3410 G1 X106.739 Y70.878
N3415 G1 X106.731 Y70.882
N3420 G1 X106.175 Y71.157
N3425 G1 X106.164 Y71.162
N3430 G1 X105.596 Y71.451
N3435 G1 X105.586 Y71.456
N3440 G1 X105.003 Y71.76
N3445 G1 X104.992 Y71.766
N3450 G1 X104.397 Y72.087
N3455 G1 X104.384 Y72.093
N3460 G1 X103.777 Y72.432
N3465 G1 X103.765 Y72.439
N3470 G1 X103.145 Y72.795
N3475 G1 X103.131 Y72.804
N3480 G1 X102.502 Y73.18
N3485 G1 X102.488 Y73.189
N3490 G1 X101.85 Y73.585
N3495 G1 X101.834 Y73.595
N3500 G1 X101.19 Y74.011
N3505 G1 X101.175 Y74.021
N3510 G1 X100.525 Y74.459
N3515 G1 X100.508 Y74.47
N3520 G1 X99.855 Y74.929
N3525 G1 X99.838 Y74.942
N3530 G1 X99.185 Y75.422
N3535 G1 X99.167 Y75.435
N3540 G1 X98.515 Y75.937
N3545 G1 X98.497 Y75.951
N3550 G1 X97.849 Y76.473
N3555 G1 X97.831 Y76.488
N3560 G1 X97.189 Y77.031
N3565 G1 X97.171 Y77.047
N3570 G1 X96.537 Y77.61
N3575 G1 X96.519 Y77.627
N3580 G1 X95.896 Y78.208
N3585 G1 X95.878 Y78.226
N3590 G1 X95.266 Y78.825
N3595 G1 X95.249 Y78.843
N3600 G1 X94.652 Y79.459
N3605 G1 X94.635 Y79.477
N3610 G1 X94.053 Y80.108
N3615 G1 X94.037 Y80.126
N3620 G1 X93.473 Y80.769
N3625 G1 X93.457 Y80.788
N3630 G1 X92.911 Y81.442
N3635 G1 X92.897 Y81.46
N3640 G1 X92.37 Y82.121
N3645 G1 X92.357 Y82.138
N3650 G1 X91.85 Y82.805
N3655 G1 X91.838 Y82.821
N3660 G1 X91.35 Y83.489
N3665 G1 X91.339 Y83.504
N3670 G1 X90.872 Y84.171
N3675 G1 X90.862 Y84.185
N3680 G1 X90.414 Y84.848
N3685 G1 X90.405 Y84.862
N3690 G1 X89.977 Y85.518
N3695 G1 X89.969 Y85.532
N3700 G1 X89.561 Y86.181
N3705 G1 X89.553 Y86.194
N3710 G1 X89.166 Y86.833
N3715 G1 X89.157 Y86.847
N3720 G1 X88.791 Y87.473
N3725 G1 X88.783 Y87.488
N3730 G1 X88.438 Y88.103
N3735 G1 X88.429 Y88.118
N3740 G1 X88.105 Y88.719
N3745 G1 X88.097 Y88.735
N3750 G1 X87.794 Y89.322
N3755 G1 X87.785 Y89.34
N3760 G1 X87.503 Y89.913
N3765 G1 X87.494 Y89.931
N3770 G1 X87.233 Y90.49
N3775 G1 X87.224 Y90.509
N3780 G1 X86.984 Y91.054
N3785 G1 X86.975 Y91.075
N3790 G1 X86.755 Y91.606
N3795 G1 X86.746 Y91.627
N3800 G1 X86.545 Y92.145
N3805 G1 X86.537 Y92.167
N3810 G1 X86.354 Y92.672
N3815 G1 X86.347 Y92.694
N3820 G1 X86.182 Y93.187
N3825 G1 X86.174 Y93.21
N3830 G1 X86.025 Y93.692
N3835 G1 X86.019 Y93.713
N3840 G1 X85.884 Y94.185
N3845 G1 X85.879 Y94.205
N3850 G1 X85.757 Y94.669
N3855 G1 X85.753 Y94.685
N3860 G1 X85.641 Y95.142
N3865 G1 X85.638 Y95.155
N3870 G1 X85.534 Y95.605
N3875 G1 X85.531 Y95.618
N3880 G1 X85.341 Y96.5
N3885 G1 X85.34 Y96.505
N3890 G1 X85.16 Y97.359
N3895 G1 X84.978 Y98.177
N3900 G1 X84.885 Y98.563
N3905 G1 X84.789 Y98.934
N3910 G1 X84.69 Y99.285
N3915 G1 X84.59 Y99.611
N3920 G1 X84.488 Y99.908
N3925 G1 X84.388 Y100.171
N3930 G1 X84.29 Y100.395
N3935 G1 X84.197 Y100.578
N3940 G1 X84.109 Y100.723
N3945 G1 X84.028 Y100.836
N3950 G1 X83.945 Y100.93
N3955 G1 X83.846 Y101.024
N3960 G1 X83.717 Y101.132
N3965 G1 X83.551 Y101.259
N3970 G1 X83.346 Y101.41
N3975 G1 X83.111 Y101.581
N3980 G1 X83.109 Y101.583
N3985 G1 X82.847 Y101.775
N3990 G1 X82.844 Y101.777
N3995 G1 X82.561 Y101.986
N4000 G1 X82.265 Y102.203
N4005 G1 X81.964 Y102.416
N4010 G1 X81.671 Y102.61
N4015 G1 X81.391 Y102.774
N4020 G1 X81.275 Y102.834
N4025 G1 X81.164 Y102.885
N4030 G1 X81.073 Y102.92
N4035 G1 X81.002 Y102.941
N4040 G1 X80.989 Y102.944
N4045 G1 X80.975 Y102.921
N4050 G1 X80.937 Y102.848
N4055 G1 X80.897 Y102.752
N4060 G1 X80.855 Y102.636
N4065 G1 X80.816 Y102.508
N4070 G1 X80.737 Y102.185
N4075 G1 X80.67 Y101.832
N4080 G1 X80.609 Y101.456
N4085 G1 X80.553 Y101.071
N4090 G1 X80.499 Y100.694
N4095 G1 X80.497 Y100.684
N4100 G1 X80.442 Y100.324
N4105 G1 X80.438 Y100.305
N4110 G1 X80.379 Y99.965
N4115 G1 X80.374 Y99.94
N4120 G1 X80.31 Y99.616
N4125 G1 X80.304 Y99.589
N4130 G1 X80.232 Y99.277
N4135 G1 X80.223 Y99.24
N4140 G1 X80.057 Y98.627
N4145 G1 X80.05 Y98.602
N4150 G1 X79.955 Y98.286
N4155 G1 X79.954 Y98.28
N4160 G1 X79.852 Y97.946
N4165 G1 X79.744 Y97.592
N4170 G1 X79.631 Y97.213
N4175 G1 X79.511 Y96.803
N4180 G1 X79.386 Y96.36
N4185 G1 X79.255 Y95.883
N4190 G1 X79.119 Y95.372
N4195 G1 X78.977 Y94.828
N4200 G1 X78.83 Y94.255
N4205 G1 X78.679 Y93.656
N4210 G1 X78.523 Y93.036
N4215 G1 X78.364 Y92.399
N4220 G1 X78.201 Y91.75
N4225 G1 X78.2 Y91.748
N4230 G1 X77.869 Y90.437
N4235 G1 X77.868 Y90.432
N4240 G1 X77.532 Y89.134
N4245 G1 X77.531 Y89.129
N4250 G1 X77.364 Y88.495
N4255 G1 Y88.492
N4260 G1 X77.198 Y87.872
N4265 G1 Y87.869
N4270 G1 X77.035 Y87.265
N4275 G1 Y87.264
N4280 G1 X76.877 Y86.678
N4285 G1 X76.723 Y86.112
N4290 G1 X76.576 Y85.568
N4295 G1 X76.436 Y85.048
N4300 G1 X76.304 Y84.551
N4305 G1 X76.18 Y84.078
N4310 G1 X76.064 Y83.628
N4315 G1 X75.958 Y83.2
N4320 G1 X75.859 Y82.794
N4325 G1 X75.768 Y82.407
N4330 G1 X75.683 Y82.037
N4335 G1 X75.603 Y81.683
N4340 G1 X75.527 Y81.342
N4345 G1 X75.526 Y81.34
N4350 G1 X75.452 Y81.013
N4355 G1 X75.451 Y81.007
N4360 G1 X75.377 Y80.693
N4365 G1 X75.374 Y80.68
N4370 G1 X75.226 Y80.081
N4375 G1 X75.221 Y80.063
N4380 G1 X74.918 Y78.929
N4385 G1 X74.855 Y78.666
N4390 G1 X74.801 Y78.405
N4395 G1 X74.76 Y78.146
N4400 G1 X74.732 Y77.885
N4405 G1 X74.72 Y77.62
N4410 G1 X74.726 Y77.349
N4415 G1 X74.751 Y77.071
N4420 G1 X74.797 Y76.788
N4425 G1 X74.863 Y76.506
N4430 G1 X74.948 Y76.229
N4435 G1 X75.051 Y75.967
N4440 G1 X75.167 Y75.726
N4445 G1 X75.292 Y75.516
N4450 G1 X75.42 Y75.341
N4455 G1 X75.554 Y75.193
N4460 G1 X75.602 Y75.149
N4465 G1 X75.644 Y75.114
N4470 G1 X75.762 Y75.037
N4475 G1 X75.861 Y74.992
N4480 G1 X75.963 Y74.961
N4485 G1 X76.078 Y74.942
N4490 G1 X76.21 Y74.935
N4495 G1 X76.358 Y74.943
N4500 G1 X76.518 Y74.964
N4505 G1 X76.685 Y75
N4510 G1 X76.851 Y75.05
N4515 G1 X77.015 Y75.112
N4520 G1 X77.176 Y75.189
N4525 G1 X77.334 Y75.282
N4530 G1 X77.495 Y75.395
N4535 G1 X77.659 Y75.532
N4540 G1 X77.828 Y75.696
N4545 G1 X78.003 Y75.888
N4550 G1 X78.183 Y76.107
N4555 G1 X78.364 Y76.345
N4560 G1 X78.744 Y76.877
N4565 G1 X78.931 Y77.14
N4570 G1 X78.944 Y77.157
N4575 G1 X79.128 Y77.405
N4580 G1 X79.155 Y77.439
N4585 G1 X79.337 Y77.663
N4590 G1 X79.385 Y77.718
N4595 G1 X79.567 Y77.911
N4600 G1 X79.647 Y77.987
N4605 G1 X79.831 Y78.144
N4610 G1 X79.922 Y78.212
N4615 G1 X80.016 Y78.275
N4620 G1 X80.094 Y78.322
N4625 G1 X80.189 Y78.374
N4630 G1 X80.284 Y78.42
N4635 G1 X80.381 Y78.46
N4640 G1 X80.489 Y78.498
N4645 G1 X80.588 Y78.526
N4650 G1 X80.705 Y78.552
N4655 G1 X80.806 Y78.568
N4660 G1 X80.927 Y78.58
N4665 G1 X81.03 Y78.584
N4670 G1 X81.148 Y78.581
N4675 G1 X81.254 Y78.572
N4680 G1 X81.362 Y78.557
N4685 G1 X81.471 Y78.536
N4690 G1 X81.566 Y78.513
N4695 G1 X81.678 Y78.48
N4700 G1 X81.759 Y78.452
N4705 G1 X81.874 Y78.407
N4710 G1 X81.942 Y78.377
N4715 G1 X82.06 Y78.32
N4720 G1 X82.114 Y78.292
N4725 G1 X82.235 Y78.224
N4730 G1 X82.299 Y78.185
N4735 G1 X82.548 Y78.019
N4740 G1 X82.609 Y77.976
N4745 G1 X82.867 Y77.775
N4750 G1 X82.908 Y77.741
N4755 G1 X83.173 Y77.512
N4760 G1 X83.2 Y77.488
N4765 G1 X83.469 Y77.237
N4770 G1 X83.488 Y77.219
N4775 G1 X83.758 Y76.954
N4780 G1 X83.778 Y76.934
N4785 G1 X84.301 Y76.39
N4790 G1 X84.319 Y76.371
N4795 G1 X84.564 Y76.102
N4800 G1 X84.58 Y76.084
N4805 G1 X84.807 Y75.822
N4810 G1 X84.83 Y75.795
N4815 G1 X85.035 Y75.541
N4820 G1 X85.068 Y75.499
N4825 G1 X85.247 Y75.252
N4830 G1 X85.289 Y75.189
N4835 G1 X85.437 Y74.947
N4840 G1 X85.487 Y74.856
N4845 G1 X85.602 Y74.616
N4850 G1 X85.628 Y74.556
N4855 G1 X85.651 Y74.495
N4860 G1 X85.729 Y74.254
N4865 G1 X85.75 Y74.182
N4870 G1 X85.765 Y74.109
N4875 G1 X85.806 Y73.865
N4880 G1 X85.816 Y73.787
N4885 G1 X85.82 Y73.71
N4890 G1 X85.822 Y73.46
N4895 G1 X85.821 Y73.388
N4900 G1 X85.813 Y73.316
N4905 G1 X85.779 Y73.059
N4910 G1 X85.755 Y72.937
N4915 G1 X85.685 Y72.673
N4920 G1 X85.655 Y72.578
N4925 G1 X85.554 Y72.307
N4930 G1 X85.523 Y72.233
N4935 G1 X85.394 Y71.957
N4940 G1 X85.366 Y71.902
N4945 G1 X85.214 Y71.623
N4950 G1 X85.189 Y71.58
N4955 G1 X85.018 Y71.301
N4960 G1 X84.996 Y71.266
N4965 G1 X84.811 Y70.989
N4970 G1 X84.791 Y70.96
N4975 G1 X84.594 Y70.687
N4980 G1 X84.575 Y70.661
N4985 G1 X84.369 Y70.394
N4990 G1 X84.349 Y70.369
N4995 G1 X84.135 Y70.109
N5000 G1 X84.114 Y70.084
N5005 G1 X83.891 Y69.831
N5010 G1 X83.867 Y69.805
N5015 G1 X83.635 Y69.559
N5020 G1 X83.609 Y69.533
N5025 G1 X83.367 Y69.294
N5030 G1 X83.338 Y69.267
N5035 G1 X83.083 Y69.036
N5040 G1 X83.053 Y69.01
N5045 G1 X82.784 Y68.785
N5050 G1 X82.754 Y68.76
N5055 G1 X82.47 Y68.541
N5060 G1 X82.441 Y68.519
N5065 G1 X82.143 Y68.306
N5070 G1 X82.114 Y68.286
N5075 G1 X81.803 Y68.079
N5080 G1 X81.777 Y68.062
N5085 G1 X81.455 Y67.863
N5090 G1 X81.43 Y67.848
N5095 G1 X81.103 Y67.658
N5100 G1 X81.08 Y67.645
N5105 G1 X80.752 Y67.466
N5110 G1 X80.73 Y67.454
N5115 G1 X80.407 Y67.288
N5120 G1 X80.385 Y67.277
N5125 G1 X80.073 Y67.126
N5130 G1 X80.05 Y67.116
N5135 G1 X79.83 Y67.016
N5140 G1 X80.05 Y66.916
N5145 G1 X80.073 Y66.905
N5150 G1 X80.385 Y66.755
N5155 G1 X80.407 Y66.744
N5160 G1 X80.73 Y66.578
N5165 G1 X80.752 Y66.566
N5170 G1 X81.08 Y66.387
N5175 G1 X81.103 Y66.374
N5180 G1 X81.431 Y66.183
N5185 G1 X81.455 Y66.169
N5190 G1 X81.777 Y65.969
N5195 G1 X81.803 Y65.952
N5200 G1 X82.114 Y65.746
N5205 G1 X82.143 Y65.726
N5210 G1 X82.441 Y65.513
N5215 G1 X82.47 Y65.491
N5220 G1 X82.754 Y65.271
N5225 G1 X82.784 Y65.247
N5230 G1 X83.053 Y65.022
N5235 G1 X83.083 Y64.996
N5240 G1 X83.338 Y64.764
N5245 G1 X83.367 Y64.737
N5250 G1 X83.609 Y64.499
N5255 G1 X83.635 Y64.472
N5260 G1 X83.867 Y64.227
N5265 G1 X83.891 Y64.201
N5270 G1 X84.113 Y63.948
N5275 G1 X84.135 Y63.923
N5280 G1 X84.349 Y63.663
N5285 G1 X84.369 Y63.638
N5290 G1 X84.575 Y63.371
N5295 G1 X84.594 Y63.345
N5300 G1 X84.791 Y63.071
N5305 G1 X84.811 Y63.043
N5310 G1 X84.996 Y62.766
N5315 G1 X85.018 Y62.731
N5320 G1 X85.189 Y62.452
N5325 G1 X85.214 Y62.409
N5330 G1 X85.366 Y62.13
N5335 G1 X85.394 Y62.074
N5340 G1 X85.523 Y61.798
N5345 G1 X85.554 Y61.725
N5350 G1 X85.655 Y61.454
N5355 G1 X85.685 Y61.359
N5360 G1 X85.755 Y61.094
N5365 G1 X85.779 Y60.973
N5370 G1 X85.813 Y60.716
N5375 G1 X85.821 Y60.644
N5380 G1 X85.822 Y60.572
N5385 G1 X85.82 Y60.322
N5390 G1 X85.816 Y60.244
N5395 G1 X85.806 Y60.167
N5400 G1 X85.765 Y59.923
N5405 G1 X85.75 Y59.85
N5410 G1 X85.729 Y59.777
N5415 G1 X85.651 Y59.537
N5420 G1 X85.628 Y59.476
N5425 G1 X85.602 Y59.416
N5430 G1 X85.487 Y59.176
N5435 G1 X85.437 Y59.085
N5440 G1 X85.289 Y58.843
N5445 G1 X85.247 Y58.78
N5450 G1 X85.068 Y58.533
N5455 G1 X85.035 Y58.49
N5460 G1 X84.83 Y58.236
N5465 G1 X84.807 Y58.209
N5470 G1 X84.58 Y57.948
N5475 G1 X84.564 Y57.93
N5480 G1 X84.319 Y57.661
N5485 G1 X84.301 Y57.642
N5490 G1 X83.778 Y57.098
N5495 G1 X83.758 Y57.078
N5500 G1 X83.488 Y56.813
N5505 G1 X83.469 Y56.795
N5510 G1 X83.2 Y56.544
N5515 G1 X83.173 Y56.52
N5520 G1 X82.908 Y56.29
N5525 G1 X82.867 Y56.257
N5530 G1 X82.609 Y56.056
N5535 G1 X82.548 Y56.013
N5540 G1 X82.299 Y55.847
N5545 G1 X82.235 Y55.808
N5550 G1 X82.114 Y55.74
N5555 G1 X82.059 Y55.711
N5560 G1 X81.941 Y55.655
N5565 G1 X81.874 Y55.625
N5570 G1 X81.76 Y55.58
N5575 G1 X81.678 Y55.552
N5580 G1 X81.566 Y55.519
N5585 G1 X81.471 Y55.495
N5590 G1 X81.362 Y55.474
N5595 G1 X81.253 Y55.459
N5600 G1 X81.148 Y55.451
N5605 G1 X81.031 Y55.448
N5610 G1 X80.928 Y55.452
N5615 G1 X80.806 Y55.464
N5620 G1 X80.705 Y55.48
N5625 G1 X80.588 Y55.506
N5630 G1 X80.489 Y55.534
N5635 G1 X80.38 Y55.572
N5640 G1 X80.283 Y55.613
N5645 G1 X80.19 Y55.657
N5650 G1 X80.095 Y55.709
N5655 G1 X80.016 Y55.757
N5660 G1 X79.922 Y55.819
N5665 G1 X79.831 Y55.888
N5670 G1 X79.647 Y56.045
N5675 G1 X79.567 Y56.121
N5680 G1 X79.385 Y56.314
N5685 G1 X79.337 Y56.369
N5690 G1 X79.155 Y56.593
N5695 G1 X79.128 Y56.627
N5700 G1 X78.944 Y56.875
N5705 G1 X78.931 Y56.892
N5710 G1 X78.744 Y57.155
N5715 G1 X78.364 Y57.686
N5720 G1 X78.183 Y57.925
N5725 G1 X78.003 Y58.144
N5730 G1 X77.828 Y58.336
N5735 G1 X77.659 Y58.5
N5740 G1 X77.495 Y58.637
N5745 G1 X77.334 Y58.75
N5750 G1 X77.175 Y58.843
N5755 G1 X77.015 Y58.92
N5760 G1 X76.852 Y58.982
N5765 G1 X76.685 Y59.031
N5770 G1 X76.518 Y59.067
N5775 G1 X76.358 Y59.089
N5780 G1 X76.21 Y59.097
N5785 G1 X76.078 Y59.09
N5790 G1 X75.963 Y59.071
N5795 G1 X75.861 Y59.04
N5800 G1 X75.762 Y58.994
N5805 G1 X75.644 Y58.917
N5810 G1 X75.602 Y58.883
N5815 G1 X75.554 Y58.839
N5820 G1 X75.42 Y58.691
N5825 G1 X75.292 Y58.516
N5830 G1 X75.167 Y58.305
N5835 G1 X75.051 Y58.065
N5840 G1 X74.948 Y57.802
N5845 G1 X74.863 Y57.526
N5850 G1 X74.797 Y57.243
N5855 G1 X74.751 Y56.961
N5860 G1 X74.726 Y56.683
N5865 G1 X74.72 Y56.412
N5870 G1 X74.732 Y56.147
N5875 G1 X74.76 Y55.886
N5880 G1 X74.801 Y55.627
N5885 G1 X74.855 Y55.366
N5890 G1 X74.918 Y55.103
N5895 G1 X75.221 Y53.968
N5900 G1 X75.226 Y53.951
N5905 G1 X75.374 Y53.352
N5910 G1 X75.377 Y53.338
N5915 G1 X75.451 Y53.024
N5920 G1 X75.452 Y53.018
N5925 G1 X75.526 Y52.692
N5930 G1 X75.527 Y52.69
N5935 G1 X75.603 Y52.349
N5940 G1 X75.683 Y51.994
N5945 G1 X75.768 Y51.625
N5950 G1 X75.859 Y51.238
N5955 G1 X75.958 Y50.831
N5960 G1 X76.064 Y50.404
N5965 G1 X76.18 Y49.954
N5970 G1 X76.304 Y49.481
N5975 G1 X76.436 Y48.984
N5980 G1 X76.576 Y48.463
N5985 G1 X76.723 Y47.92
N5990 G1 X76.877 Y47.355
N5995 G1 X77.035 Y46.768
N6000 G1 Y46.766
N6005 G1 X77.198 Y46.162
N6010 G1 Y46.16
N6015 G1 X77.364 Y45.54
N6020 G1 Y45.537
N6025 G1 X77.531 Y44.902
N6030 G1 X77.532 Y44.898
N6035 G1 X77.868 Y43.6
N6040 G1 X77.869 Y43.595
N6045 G1 X78.2 Y42.284
N6050 G1 X78.201 Y42.282
N6055 G1 X78.363 Y41.633
N6060 G1 X78.523 Y40.996
N6065 G1 X78.679 Y40.375
N6070 G1 X78.83 Y39.777
N6075 G1 X78.977 Y39.204
N6080 G1 X79.119 Y38.66
N6085 G1 X79.255 Y38.149
N6090 G1 X79.386 Y37.671
N6095 G1 X79.511 Y37.229
N6100 G1 X79.631 Y36.819
N6105 G1 X79.744 Y36.44
N6110 G1 X79.852 Y36.085
N6115 G1 X79.954 Y35.752
N6120 G1 X79.955 Y35.746
N6125 G1 X80.05 Y35.429
N6130 G1 X80.057 Y35.405
N6135 G1 X80.223 Y34.792
N6140 G1 X80.232 Y34.755
N6145 G1 X80.304 Y34.443
N6150 G1 X80.309 Y34.416
N6155 G1 X80.374 Y34.092
N6160 G1 X80.379 Y34.067
N6165 G1 X80.439 Y33.726
N6170 G1 X80.442 Y33.708
N6175 G1 X80.497 Y33.348
N6180 G1 X80.499 Y33.338
N6185 G1 X80.553 Y32.96
N6190 G1 X80.609 Y32.576
N6195 G1 X80.67 Y32.199
N6200 G1 X80.737 Y31.847
N6205 G1 X80.816 Y31.523
N6210 G1 X80.855 Y31.396
N6215 G1 X80.897 Y31.279
N6220 G1 X80.937 Y31.184
N6225 G1 X80.974 Y31.112
N6230 G1 X80.989 Y31.088
N6235 G1 X81 Y31.09
N6240 G1 X81.073 Y31.112
N6245 G1 X81.166 Y31.148
N6250 G1 X81.275 Y31.197
N6255 G1 X81.39 Y31.257
N6260 G1 X81.672 Y31.423
N6265 G1 X81.964 Y31.616
N6270 G1 X82.265 Y31.829
N6275 G1 X82.561 Y32.046
N6280 G1 X82.845 Y32.255
N6285 G1 X82.846 Y32.256
N6290 G1 X83.108 Y32.449
N6295 G1 X83.111 Y32.451
N6300 G1 X83.347 Y32.623
N6305 G1 X83.551 Y32.773
N6310 G1 X83.717 Y32.9
N6315 G1 X83.846 Y33.007
N6320 G1 X83.945 Y33.101
N6325 G1 X84.028 Y33.197
N6330 G1 X84.11 Y33.309
N6335 G1 X84.197 Y33.454
N6340 G1 X84.29 Y33.637
N6345 G1 X84.388 Y33.861
N6350 G1 X84.488 Y34.124
N6355 G1 X84.59 Y34.421
N6360 G1 X84.69 Y34.747
N6365 G1 X84.789 Y35.098
N6370 G1 X84.885 Y35.469
N6375 G1 X84.978 Y35.854
N6380 G1 X85.16 Y36.673
N6385 G1 X85.34 Y37.527
N6390 G1 X85.341 Y37.532
N6395 G1 X85.531 Y38.413
N6400 G1 X85.534 Y38.427
N6405 G1 X85.638 Y38.876
N6410 G1 X85.641 Y38.89
N6415 G1 X85.753 Y39.346
N6420 G1 X85.757 Y39.363
N6425 G1 X85.879 Y39.827
N6430 G1 X85.884 Y39.846
N6435 G1 X86.019 Y40.319
N6440 G1 X86.025 Y40.34
N6445 G1 X86.174 Y40.822
N6450 G1 X86.182 Y40.844
N6455 G1 X86.347 Y41.338
N6460 G1 X86.354 Y41.36
N6465 G1 X86.537 Y41.865
N6470 G1 X86.545 Y41.887
N6475 G1 X86.746 Y42.405
N6480 G1 X86.755 Y42.426
N6485 G1 X86.975 Y42.957
N6490 G1 X86.984 Y42.978
N6495 G1 X87.224 Y43.522
N6500 G1 X87.233 Y43.542
N6505 G1 X87.494 Y44.101
N6510 G1 X87.503 Y44.119
N6515 G1 X87.785 Y44.692
N6520 G1 X87.794 Y44.709
N6525 G1 X88.097 Y45.297
N6530 G1 X88.105 Y45.313
N6535 G1 X88.429 Y45.914
N6540 G1 X88.438 Y45.929
N6545 G1 X88.559 Y46.146
N6550 G1 Z-2.333 F1000
N6555 G1 X88.783 Y46.544 F2000
N6560 G1 X88.791 Y46.558
N6565 G1 X89.157 Y47.185
N6570 G1 X89.166 Y47.199
N6575 G1 X89.553 Y47.837
N6580 G1 X89.561 Y47.851
N6585 G1 X89.969 Y48.499
N6590 G1 X89.977 Y48.513
N6595 G1 X90.405 Y49.17
N6600 G1 X90.414 Y49.184
N6605 G1 X90.862 Y49.846
N6610 G1 X90.872 Y49.861
N6615 G1 X91.339 Y50.528
N6620 G1 X91.35 Y50.543
N6625 G1 X91.838 Y51.211
N6630 G1 X91.85 Y51.227
N6635 G1 X92.357 Y51.893
N6640 G1 X92.37 Y51.911
N6645 G1 X92.897 Y52.572
N6650 G1 X92.911 Y52.59
N6655 G1 X93.457 Y53.244
N6660 G1 X93.473 Y53.262
N6665 G1 X94.037 Y53.905
N6670 G1 X94.053 Y53.924
N6675 G1 X94.634 Y54.555
N6680 G1 X94.652 Y54.573
N6685 G1 X95.06 Y54.994
N6690 G1 Z-2
N6695 G1 X95.249 Y55.189
N6700 G1 X95.266 Y55.207
N6705 G1 X95.878 Y55.806
N6710 G1 X95.896 Y55.823
N6715 G1 X96.519 Y56.405
N6720 G1 X96.537 Y56.422
N6725 G1 X97.171 Y56.985
N6730 G1 X97.189 Y57
N6735 G1 X97.831 Y57.544
N6740 G1 X97.849 Y57.559
N6745 G1 X98.014 Y57.691
N6750 G1 Z-2.333 F1000
N6755 G1 X98.498 Y58.081 F2000
N6760 G1 X98.515 Y58.095
N6765 G1 X99.167 Y58.597
N6770 G1 X99.185 Y58.61
N6775 G1 X99.838 Y59.09
N6780 G1 X99.855 Y59.102
N6785 G1 X100.508 Y59.561
N6790 G1 X100.525 Y59.573
N6795 G1 X101.175 Y60.01
N6800 G1 X101.19 Y60.02
N6805 G1 X101.834 Y60.437
N6810 G1 X101.85 Y60.447
N6815 G1 X102.488 Y60.843
N6820 G1 X102.502 Y60.852
N6825 G1 X103.131 Y61.228
N6830 G1 X103.145 Y61.236
N6835 G1 X103.765 Y61.593
N6840 G1 X103.777 Y61.6
N6845 G1 X104.384 Y61.938
N6850 G1 X104.396 Y61.945
N6855 G1 X104.991 Y62.266
N6860 G1 X105.004 Y62.272
N6865 G1 X105.587 Y62.576
N6870 G1 X105.596 Y62.581
N6875 G1 X106.164 Y62.87
N6880 G1 X106.175 Y62.875
N6885 G1 X106.731 Y63.149
N6890 G1 X106.739 Y63.153
N6895 G1 X107.281 Y63.414
N6900 G1 X107.29 Y63.419
N6905 G1 X107.82 Y63.667
N6910 G1 X107.828 Y63.671
N6915 G1 X108.346 Y63.909
N6920 G1 X108.354 Y63.912
N6925 G1 X108.862 Y64.14
N6930 G1 X108.869 Y64.143
N6935 G1 X109.368 Y64.362
N6940 G1 X109.375 Y64.365
N6945 G1 X109.866 Y64.576
N6950 G1 X109.878 Y64.582
N6955 G1 X110.847 Y64.983
N6960 G1 X110.865 Y64.99
N6965 G1 X111.829 Y65.368
N6970 G1 X111.851 Y65.377
N6975 G1 X112.831 Y65.734
N6980 G1 X112.853 Y65.742
N6985 G1 X113.357 Y65.913
N6990 G1 X113.373 Y65.918
N6995 G1 X113.889 Y66.083
N7000 G1 X113.908 Y66.089
N7005 G1 X114.44 Y66.247
N7010 G1 X114.46 Y66.253
N7015 G1 X115.01 Y66.405
N7020 G1 X115.032 Y66.41
N7025 G1 X115.602 Y66.554
N7030 G1 X115.624 Y66.559
N7035 G1 X116.216 Y66.694
N7040 G1 X116.239 Y66.699
N7045 G1 X116.853 Y66.824
N7050 G1 X116.877 Y66.828
N7055 G1 X117.513 Y66.941
N7060 G1 X117.536 Y66.945
N7065 G1 X117.996 Y67.016
N7070 G1 X117.536 Y67.086
N7075 G1 X117.513 Y67.09
N7080 G1 X116.877 Y67.204
N7085 G1 X116.853 Y67.208
N7090 G1 X116.239 Y67.333
N7095 G1 X116.216 Y67.338
N7100 G1 X115.624 Y67.472
N7105 G1 X115.602 Y67.478
N7110 G1 X115.032 Y67.621
N7115 G1 X115.01 Y67.627
N7120 G1 X114.46 Y67.779
N7125 G1 X114.44 Y67.784
N7130 G1 X113.908 Y67.943
N7135 G1 X113.889 Y67.949
N7140 G1 X113.373 Y68.114
N7145 G1 X113.357 Y68.119
N7150 G1 X112.853 Y68.29
N7155 G1 X112.831 Y68.298
N7160 G1 X111.851 Y68.655
N7165 G1 X111.829 Y68.663
N7170 G1 X110.865 Y69.042
N7175 G1 X110.847 Y69.049
N7180 G1 X109.878 Y69.45
N7185 G1 X109.866 Y69.455
N7190 G1 X109.375 Y69.666
N7195 G1 X109.368 Y69.669
N7200 G1 X108.869 Y69.888
N7205 G1 X108.862 Y69.892
N7210 G1 X108.354 Y70.12
N7215 G1 X108.346 Y70.123
N7220 G1 X107.828 Y70.361
N7225 G1 X107.82 Y70.364
N7230 G1 X107.29 Y70.613
N7235 G1 X107.281 Y70.617
N7240 G1 X106.739 Y70.878
N7245 G1 X106.731 Y70.882
N7250 G1 X106.175 Y71.157
N7255 G1 X106.164 Y71.162
N7260 G1 X105.596 Y71.451
N7265 G1 X105.586 Y71.456
N7270 G1 X105.003 Y71.76
N7275 G1 X104.992 Y71.766
N7280 G1 X104.397 Y72.087
N7285 G1 X104.384 Y72.093
N7290 G1 X103.777 Y72.432
N7295 G1 X103.765 Y72.439
N7300 G1 X103.145 Y72.795
N7305 G1 X103.131 Y72.804
N7310 G1 X102.502 Y73.18
N7315 G1 X102.488 Y73.189
N7320 G1 X101.85 Y73.585
N7325 G1 X101.834 Y73.595
N7330 G1 X101.19 Y74.011
N7335 G1 X101.175 Y74.021
N7340 G1 X100.525 Y74.459
N7345 G1 X100.508 Y74.47
N7350 G1 X99.855 Y74.929
N7355 G1 X99.838 Y74.942
N7360 G1 X99.185 Y75.422
N7365 G1 X99.167 Y75.435
N7370 G1 X98.515 Y75.937
N7375 G1 X98.497 Y75.951
N7380 G1 X97.849 Y76.473
N7385 G1 X97.831 Y76.488
N7390 G1 X97.189 Y77.031
N7395 G1 X97.171 Y77.047
N7400 G1 X96.537 Y77.61
N7405 G1 X96.519 Y77.627
N7410 G1 X95.896 Y78.208
N7415 G1 X95.878 Y78.226
N7420 G1 X95.266 Y78.825
N7425 G1 X95.249 Y78.843
N7430 G1 X94.652 Y79.459
N7435 G1 X94.635 Y79.477
N7440 G1 X94.614 Y79.5
N7445 G1 Z-2
N7450 G1 X94.053 Y80.108
N7455 G1 X94.037 Y80.126
N7460 G1 X93.473 Y80.769
N7465 G1 X93.457 Y80.788
N7470 G1 X92.911 Y81.442
N7475 G1 X92.897 Y81.46
N7480 G1 X92.37 Y82.121
N7485 G1 X92.357 Y82.138
N7490 G1 X92.037 Y82.559
N7495 G1 Z-2.333 F1000
N7500 G1 X91.85 Y82.805 F2000
N7505 G1 X91.838 Y82.821
N7510 G1 X91.35 Y83.489
N7515 G1 X91.339 Y83.504
N7520 G1 X90.872 Y84.171
N7525 G1 X90.862 Y84.185
N7530 G1 X90.414 Y84.848
N7535 G1 X90.405 Y84.862
N7540 G1 X89.977 Y85.518
N7545 G1 X89.969 Y85.532
N7550 G1 X89.561 Y86.181
N7555 G1 X89.553 Y86.194
N7560 G1 X89.166 Y86.833
N7565 G1 X89.157 Y86.847
N7570 G1 X88.791 Y87.473
N7575 G1 X88.783 Y87.488
N7580 G1 X88.438 Y88.103
N7585 G1 X88.429 Y88.118
N7590 G1 X88.105 Y88.719
N7595 G1 X88.097 Y88.735
N7600 G1 X87.794 Y89.322
N7605 G1 X87.785 Y89.34
N7610 G1 X87.503 Y89.913
N7615 G1 X87.494 Y89.931
N7620 G1 X87.233 Y90.49
N7625 G1 X87.224 Y90.509
N7630 G1 X86.984 Y91.054
N7635 G1 X86.975 Y91.075
N7640 G1 X86.755 Y91.606
N7645 G1 X86.746 Y91.627
N7650 G1 X86.545 Y92.145
N7655 G1 X86.537 Y92.167
N7660 G1 X86.354 Y92.672
N7665 G1 X86.347 Y92.694
N7670 G1 X86.182 Y93.187
N7675 G1 X86.174 Y93.21
N7680 G1 X86.025 Y93.692
N7685 G1 X86.019 Y93.713
N7690 G1 X85.884 Y94.185
N7695 G1 X85.879 Y94.205
N7700 G1 X85.757 Y94.669
N7705 G1 X85.753 Y94.685
N7710 G1 X85.641 Y95.142
N7715 G1 X85.638 Y95.155
N7720 G1 X85.534 Y95.605
N7725 G1 X85.531 Y95.618
N7730 G1 X85.341 Y96.5
N7735 G1 X85.34 Y96.505
N7740 G1 X85.16 Y97.359
N7745 G1 X84.978 Y98.177
N7750 G1 X84.885 Y98.563
N7755 G1 X84.789 Y98.934
N7760 G1 X84.69 Y99.285
N7765 G1 X84.59 Y99.611
N7770 G1 X84.488 Y99.908
N7775 G1 X84.388 Y100.171
N7780 G1 X84.29 Y100.395
N7785 G1 X84.197 Y100.578
N7790 G1 X84.109 Y100.723
N7795 G1 X84.028 Y100.836
N7800 G1 X83.945 Y100.93
N7805 G1 X83.846 Y101.024
N7810 G1 X83.717 Y101.132
N7815 G1 X83.551 Y101.259
N7820 G1 X83.346 Y101.41
N7825 G1 X83.111 Y101.581
N7830 G1 X83.109 Y101.583
N7835 G1 X82.847 Y101.775
N7840 G1 X82.844 Y101.777
N7845 G1 X82.561 Y101.986
N7850 G1 X82.265 Y102.203
N7855 G1 X81.964 Y102.416
N7860 G1 X81.671 Y102.61
N7865 G1 X81.391 Y102.774
N7870 G1 X81.275 Y102.834
N7875 G1 X81.164 Y102.885
N7880 G1 X81.073 Y102.92
N7885 G1 X81.002 Y102.941
N7890 G1 X80.989 Y102.944
N7895 G1 X80.975 Y102.921
N7900 G1 X80.937 Y102.848
N7905 G1 X80.897 Y102.752
N7910 G1 X80.855 Y102.636
N7915 G1 X80.816 Y102.508
N7920 G1 X80.737 Y102.185
N7925 G1 X80.67 Y101.832
N7930 G1 X80.609 Y101.456
N7935 G1 X80.553 Y101.071
N7940 G1 X80.499 Y100.694
N7945 G1 X80.497 Y100.684
N7950 G1 X80.442 Y100.324
N7955 G1 X80.438 Y100.305
N7960 G1 X80.379 Y99.965
N7965 G1 X80.374 Y99.94
N7970 G1 X80.31 Y99.616
N7975 G1 X80.304 Y99.589
N7980 G1 X80.232 Y99.277
N7985 G1 X80.223 Y99.24
N7990 G1 X80.057 Y98.627
N7995 G1 X80.05 Y98.602
N8000 G1 X79.955 Y98.286
N8005 G1 X79.954 Y98.28
N8010 G1 X79.852 Y97.946
N8015 G1 X79.744 Y97.592
N8020 G1 X79.631 Y97.213
N8025 G1 X79.511 Y96.803
N8030 G1 X79.386 Y96.36
N8035 G1 X79.255 Y95.883
N8040 G1 X79.119 Y95.372
N8045 G1 X78.977 Y94.828
N8050 G1 X78.83 Y94.255
N8055 G1 X78.679 Y93.656
N8060 G1 X78.523 Y93.036
N8065 G1 X78.364 Y92.399
N8070 G1 X78.201 Y91.75
N8075 G1 X78.2 Y91.748
N8080 G1 X78.066 Y91.218
N8085 G1 Z-2
N8090 G1 X77.869 Y90.437
N8095 G1 X77.868 Y90.432
N8100 G1 X77.532 Y89.134
N8105 G1 X77.531 Y89.129
N8110 G1 X77.364 Y88.495
N8115 G1 Y88.492
N8120 G1 X77.198 Y87.872
N8125 G1 Y87.869
N8130 G1 X77.057 Y87.347
N8135 G1 Z-2.333 F1000
N8140 G1 X77.035 Y87.265 F2000
N8145 G1 Y87.264
N8150 G1 X76.877 Y86.678
N8155 G1 X76.723 Y86.112
N8160 G1 X76.576 Y85.568
N8165 G1 X76.436 Y85.048
N8170 G1 X76.304 Y84.551
N8175 G1 X76.18 Y84.078
N8180 G1 X76.064 Y83.628
N8185 G1 X75.958 Y83.2
N8190 G1 X75.859 Y82.794
N8195 G1 X75.768 Y82.407
N8200 G1 X75.683 Y82.037
N8205 G1 X75.603 Y81.683
N8210 G1 X75.527 Y81.342
N8215 G1 X75.526 Y81.34
N8220 G1 X75.452 Y81.013
N8225 G1 X75.451 Y81.007
N8230 G1 X75.377 Y80.693
N8235 G1 X75.374 Y80.68
N8240 G1 X75.226 Y80.081
N8245 G1 X75.221 Y80.063
N8250 G1 X74.918 Y78.929
N8255 G1 X74.855 Y78.666
N8260 G1 X74.801 Y78.405
N8265 G1 X74.76 Y78.146
N8270 G1 X74.732 Y77.885
N8275 G1 X74.72 Y77.62
N8280 G1 X74.726 Y77.349
N8285 G1 X74.751 Y77.071
N8290 G1 X74.797 Y76.788
N8295 G1 X74.863 Y76.506
N8300 G1 X74.948 Y76.229
N8305 G1 X75.051 Y75.967
N8310 G1 X75.167 Y75.726
N8315 G1 X75.292 Y75.516
N8320 G1 X75.42 Y75.341
N8325 G1 X75.554 Y75.193
N8330 G1 X75.602 Y75.149
N8335 G1 X75.644 Y75.114
N8340 G1 X75.762 Y75.037
N8345 G1 X75.861 Y74.992
N8350 G1 X75.963 Y74.961
N8355 G1 X76.078 Y74.942
N8360 G1 X76.21 Y74.935
N8365 G1 X76.358 Y74.943
N8370 G1 X76.518 Y74.964
N8375 G1 X76.685 Y75
N8380 G1 X76.851 Y75.05
N8385 G1 X77.015 Y75.112
N8390 G1 X77.176 Y75.189
N8395 G1 X77.334 Y75.282
N8400 G1 X77.495 Y75.395
N8405 G1 X77.659 Y75.532
N8410 G1 X77.828 Y75.696
N8415 G1 X78.003 Y75.888
N8420 G1 X78.183 Y76.107
N8425 G1 X78.364 Y76.345
N8430 G1 X78.744 Y76.877
N8435 G1 X78.931 Y77.14
N8440 G1 X78.944 Y77.157
N8445 G1 X79.128 Y77.405
N8450 G1 X79.155 Y77.439
N8455 G1 X79.337 Y77.663
N8460 G1 X79.385 Y77.718
N8465 G1 X79.567 Y77.911
N8470 G1 X79.647 Y77.987
N8475 G1 X79.783 Y78.103
N8480 G1 Z-2
N8485 G1 X79.831 Y78.144
N8490 G1 X79.922 Y78.212
N8495 G1 X80.016 Y78.275
N8500 G1 X80.094 Y78.322
N8505 G1 X80.189 Y78.374
N8510 G1 X80.284 Y78.42
N8515 G1 X80.381 Y78.46
N8520 G1 X80.489 Y78.498
N8525 G1 X80.588 Y78.526
N8530 G1 X80.705 Y78.552
N8535 G1 X80.806 Y78.568
N8540 G1 X80.927 Y78.58
N8545 G1 X81.03 Y78.584
N8550 G1 X81.148 Y78.581
N8555 G1 X81.254 Y78.572
N8560 G1 X81.362 Y78.557
N8565 G1 X81.471 Y78.536
N8570 G1 X81.566 Y78.513
N8575 G1 X81.678 Y78.48
N8580 G1 X81.759 Y78.452
N8585 G1 X81.874 Y78.407
N8590 G1 X81.942 Y78.377
N8595 G1 X82.06 Y78.32
N8600 G1 X82.114 Y78.292
N8605 G1 X82.235 Y78.224
N8610 G1 X82.299 Y78.185
N8615 G1 X82.548 Y78.019
N8620 G1 X82.609 Y77.976
N8625 G1 X82.867 Y77.775
N8630 G1 X82.908 Y77.741
N8635 G1 X83.173 Y77.512
N8640 G1 X83.2 Y77.488
N8645 G1 X83.469 Y77.237
N8650 G1 X83.488 Y77.219
N8655 G1 X83.734 Y76.977
N8660 G1 Z-2.333 F1000
N8665 G1 X83.758 Y76.954 F2000
N8670 G1 X83.778 Y76.934
N8675 G1 X84.301 Y76.39
N8680 G1 X84.319 Y76.371
N8685 G1 X84.564 Y76.102
N8690 G1 X84.58 Y76.084
N8695 G1 X84.807 Y75.822
N8700 G1 X84.83 Y75.795
N8705 G1 X85.035 Y75.541
N8710 G1 X85.068 Y75.499
N8715 G1 X85.247 Y75.252
N8720 G1 X85.289 Y75.189
N8725 G1 X85.437 Y74.947
N8730 G1 X85.487 Y74.856
N8735 G1 X85.602 Y74.616
N8740 G1 X85.628 Y74.556
N8745 G1 X85.651 Y74.495
N8750 G1 X85.729 Y74.254
N8755 G1 X85.75 Y74.182
N8760 G1 X85.765 Y74.109
N8765 G1 X85.806 Y73.865
N8770 G1 X85.816 Y73.787
N8775 G1 X85.82 Y73.71
N8780 G1 X85.822 Y73.46
N8785 G1 X85.821 Y73.388
N8790 G1 X85.813 Y73.316
N8795 G1 X85.779 Y73.059
N8800 G1 X85.755 Y72.937
N8805 G1 X85.685 Y72.673
N8810 G1 X85.655 Y72.578
N8815 G1 X85.554 Y72.307
N8820 G1 X85.523 Y72.233
N8825 G1 X85.394 Y71.957
N8830 G1 X85.366 Y71.902
N8835 G1 X85.214 Y71.623
N8840 G1 X85.189 Y71.58
N8845 G1 X85.018 Y71.301
N8850 G1 X84.996 Y71.266
N8855 G1 X84.811 Y70.989
N8860 G1 X84.791 Y70.96
N8865 G1 X84.594 Y70.687
N8870 G1 X84.575 Y70.661
N8875 G1 X84.369 Y70.394
N8880 G1 X84.349 Y70.369
N8885 G1 X84.135 Y70.109
N8890 G1 X84.114 Y70.084
N8895 G1 X83.891 Y69.831
N8900 G1 X83.867 Y69.805
N8905 G1 X83.635 Y69.559
N8910 G1 X83.609 Y69.533
N8915 G1 X83.367 Y69.294
N8920 G1 X83.338 Y69.267
N8925 G1 X83.083 Y69.036
N8930 G1 X83.053 Y69.01
N8935 G1 X82.784 Y68.785
N8940 G1 X82.754 Y68.76
N8945 G1 X82.47 Y68.541
N8950 G1 X82.441 Y68.519
N8955 G1 X82.143 Y68.306
N8960 G1 X82.114 Y68.286
N8965 G1 X81.803 Y68.079
N8970 G1 X81.777 Y68.062
N8975 G1 X81.455 Y67.863
N8980 G1 X81.43 Y67.848
N8985 G1 X81.103 Y67.658
N8990 G1 X81.08 Y67.645
N8995 G1 X80.752 Y67.466
N9000 G1 X80.73 Y67.454
N9005 G1 X80.407 Y67.288
N9010 G1 X80.385 Y67.277
N9015 G1 X80.073 Y67.126
N9020 G1 X80.05 Y67.116
N9025 G1 X79.83 Y67.016
N9030 G1 X80.05 Y66.916
N9035 G1 X80.073 Y66.905
N9040 G1 X80.385 Y66.755
N9045 G1 X80.407 Y66.744
N9050 G1 X80.73 Y66.578
N9055 G1 X80.752 Y66.566
N9060 G1 X81.08 Y66.387
N9065 G1 X81.103 Y66.374
N9070 G1 X81.431 Y66.183
N9075 G1 X81.455 Y66.169
N9080 G1 X81.777 Y65.969
N9085 G1 X81.803 Y65.952
N9090 G1 X82.114 Y65.746
N9095 G1 X82.143 Y65.726
N9100 G1 X82.441 Y65.513
N9105 G1 X82.47 Y65.491
N9110 G1 X82.754 Y65.271
N9115 G1 X82.784 Y65.247
N9120 G1 X83.053 Y65.022
N9125 G1 X83.083 Y64.996
N9130 G1 X83.338 Y64.764
N9135 G1 X83.367 Y64.737
N9140 G1 X83.609 Y64.499
N9145 G1 X83.635 Y64.472
N9150 G1 X83.867 Y64.227
N9155 G1 X83.891 Y64.201
N9160 G1 X84.113 Y63.948
N9165 G1 X84.135 Y63.923
N9170 G1 X84.349 Y63.663
N9175 G1 X84.369 Y63.638
N9180 G1 X84.575 Y63.371
N9185 G1 X84.594 Y63.345
N9190 G1 X84.791 Y63.071
N9195 G1 X84.811 Y63.043
N9200 G1 X84.996 Y62.766
N9205 G1 X85.018 Y62.731
N9210 G1 X85.189 Y62.452
N9215 G1 X85.214 Y62.409
N9220 G1 X85.366 Y62.13
N9225 G1 X85.394 Y62.074
N9230 G1 X85.523 Y61.798
N9235 G1 X85.554 Y61.725
N9240 G1 X85.655 Y61.454
N9245 G1 X85.685 Y61.359
N9250 G1 X85.755 Y61.094
N9255 G1 X85.779 Y60.973
N9260 G1 X85.813 Y60.716
N9265 G1 X85.821 Y60.644
N9270 G1 X85.822 Y60.572
N9275 G1 X85.82 Y60.322
N9280 G1 X85.816 Y60.244
N9285 G1 X85.806 Y60.167
N9290 G1 X85.765 Y59.923
N9295 G1 X85.75 Y59.85
N9300 G1 X85.729 Y59.777
N9305 G1 X85.651 Y59.537
N9310 G1 X85.628 Y59.476
N9315 G1 X85.602 Y59.416
N9320 G1 X85.487 Y59.176
N9325 G1 X85.437 Y59.085
N9330 G1 X85.289 Y58.843
N9335 G1 X85.247 Y58.78
N9340 G1 X85.068 Y58.533
N9345 G1 X85.035 Y58.49
N9350 G1 X84.83 Y58.236
N9355 G1 X84.807 Y58.209
N9360 G1 X84.58 Y57.948
N9365 G1 X84.564 Y57.93
N9370 G1 X84.319 Y57.661
N9375 G1 X84.301 Y57.642
N9380 G1 X83.778 Y57.098
N9385 G1 X83.758 Y57.078
N9390 G1 X83.488 Y56.813
N9395 G1 X83.471 Y56.796
N9400 G1 Z-2
N9405 G1 X83.469 Y56.795
N9410 G1 X83.2 Y56.544
N9415 G1 X83.173 Y56.52
N9420 G1 X82.908 Y56.29
N9425 G1 X82.867 Y56.257
N9430 G1 X82.609 Y56.056
N9435 G1 X82.548 Y56.013
N9440 G1 X82.299 Y55.847
N9445 G1 X82.235 Y55.808
N9450 G1 X82.114 Y55.74
N9455 G1 X82.059 Y55.711
N9460 G1 X81.941 Y55.655
N9465 G1 X81.874 Y55.625
N9470 G1 X81.76 Y55.58
N9475 G1 X81.678 Y55.552
N9480 G1 X81.566 Y55.519
N9485 G1 X81.471 Y55.495
N9490 G1 X81.362 Y55.474
N9495 G1 X81.253 Y55.459
N9500 G1 X81.148 Y55.451
N9505 G1 X81.031 Y55.448
N9510 G1 X80.928 Y55.452
N9515 G1 X80.806 Y55.464
N9520 G1 X80.705 Y55.48
N9525 G1 X80.588 Y55.506
N9530 G1 X80.489 Y55.534
N9535 G1 X80.38 Y55.572
N9540 G1 X80.283 Y55.613
N9545 G1 X80.19 Y55.657
N9550 G1 X80.095 Y55.709
N9555 G1 X80.016 Y55.757
N9560 G1 X79.922 Y55.819
N9565 G1 X79.831 Y55.888
N9570 G1 X79.647 Y56.045
N9575 G1 X79.567 Y56.121
N9580 G1 X79.385 Y56.314
N9585 G1 X79.367 Y56.334
N9590 G1 Z-2.333 F1000
N9595 G1 X79.337 Y56.369 F2000
N9600 G1 X79.155 Y56.593
N9605 G1 X79.128 Y56.627
N9610 G1 X78.944 Y56.875
N9615 G1 X78.931 Y56.892
N9620 G1 X78.744 Y57.155
N9625 G1 X78.364 Y57.686
N9630 G1 X78.183 Y57.925
N9635 G1 X78.003 Y58.144
N9640 G1 X77.828 Y58.336
N9645 G1 X77.659 Y58.5
N9650 G1 X77.495 Y58.637
N9655 G1 X77.334 Y58.75
N9660 G1 X77.175 Y58.843
N9665 G1 X77.015 Y58.92
N9670 G1 X76.852 Y58.982
N9675 G1 X76.685 Y59.031
N9680 G1 X76.518 Y59.067
N9685 G1 X76.358 Y59.089
N9690 G1 X76.21 Y59.097
N9695 G1 X76.078 Y59.09
N9700 G1 X75.963 Y59.071
N9705 G1 X75.861 Y59.04
N9710 G1 X75.762 Y58.994
N9715 G1 X75.644 Y58.917
N9720 G1 X75.602 Y58.883
N9725 G1 X75.554 Y58.839
N9730 G1 X75.42 Y58.691
N9735 G1 X75.292 Y58.516
N9740 G1 X75.167 Y58.305
N9745 G1 X75.051 Y58.065
N9750 G1 X74.948 Y57.802
N9755 G1 X74.863 Y57.526
N9760 G1 X74.797 Y57.243
N9765 G1 X74.751 Y56.961
N9770 G1 X74.726 Y56.683
N9775 G1 X74.72 Y56.412
N9780 G1 X74.732 Y56.147
N9785 G1 X74.76 Y55.886
N9790 G1 X74.801 Y55.627
N9795 G1 X74.855 Y55.366
N9800 G1 X74.918 Y55.103
N9805 G1 X75.221 Y53.968
N9810 G1 X75.226 Y53.951
N9815 G1 X75.374 Y53.352
N9820 G1 X75.377 Y53.338
N9825 G1 X75.451 Y53.024
N9830 G1 X75.452 Y53.018
N9835 G1 X75.526 Y52.692
N9840 G1 X75.527 Y52.69
N9845 G1 X75.603 Y52.349
N9850 G1 X75.683 Y51.994
N9855 G1 X75.768 Y51.625
N9860 G1 X75.859 Y51.238
N9865 G1 X75.958 Y50.831
N9870 G1 X76.064 Y50.404
N9875 G1 X76.18 Y49.954
N9880 G1 X76.304 Y49.481
N9885 G1 X76.436 Y48.984
N9890 G1 X76.576 Y48.463
N9895 G1 X76.723 Y47.92
N9900 G1 X76.877 Y47.355
N9905 G1 X77.005 Y46.879
N9910 G1 Z-2
N9915 G1 X77.035 Y46.768
N9920 G1 Y46.766
N9925 G1 X77.198 Y46.162
N9930 G1 Y46.16
N9935 G1 X77.364 Y45.54
N9940 G1 Y45.537
N9945 G1 X77.531 Y44.902
N9950 G1 X77.532 Y44.898
N9955 G1 X77.868 Y43.6
N9960 G1 X77.869 Y43.595
N9965 G1 X78.017 Y43.009
N9970 G1 Z-2.333 F1000
N9975 G1 X78.2 Y42.284 F2000
N9980 G1 X78.201 Y42.282
N9985 G1 X78.363 Y41.633
N9990 G1 X78.523 Y40.996
N9995 G1 X78.679 Y40.375
N10000 G1 X78.83 Y39.777
N10005 G1 X78.977 Y39.204
N10010 G1 X79.119 Y38.66
N10015 G1 X79.255 Y38.149
N10020 G1 X79.386 Y37.671
N10025 G1 X79.511 Y37.229
N10030 G1 X79.631 Y36.819
N10035 G1 X79.744 Y36.44
N10040 G1 X79.852 Y36.085
N10045 G1 X79.954 Y35.752
N10050 G1 X79.955 Y35.746
N10055 G1 X80.05 Y35.429
N10060 G1 X80.057 Y35.405
N10065 G1 X80.223 Y34.792
N10070 G1 X80.232 Y34.755
N10075 G1 X80.304 Y34.443
N10080 G1 X80.309 Y34.416
N10085 G1 X80.374 Y34.092
N10090 G1 X80.379 Y34.067
N10095 G1 X80.439 Y33.726
N10100 G1 X80.442 Y33.708
N10105 G1 X80.497 Y33.348
N10110 G1 X80.499 Y33.338
N10115 G1 X80.553 Y32.96
N10120 G1 X80.609 Y32.576
N10125 G1 X80.67 Y32.199
N10130 G1 X80.737 Y31.847
N10135 G1 X80.816 Y31.523
N10140 G1 X80.855 Y31.396
N10145 G1 X80.897 Y31.279
N10150 G1 X80.937 Y31.184
N10155 G1 X80.974 Y31.112
N10160 G1 X80.989 Y31.088
N10165 G1 X81 Y31.09
N10170 G1 X81.073 Y31.112
N10175 G1 X81.166 Y31.148
N10180 G1 X81.275 Y31.197
N10185 G1 X81.39 Y31.257
N10190 G1 X81.672 Y31.423
N10195 G1 X81.964 Y31.616
N10200 G1 X82.265 Y31.829
N10205 G1 X82.561 Y32.046
N10210 G1 X82.845 Y32.255
N10215 G1 X82.846 Y32.256
N10220 G1 X83.108 Y32.449
N10225 G1 X83.111 Y32.451
N10230 G1 X83.347 Y32.623
N10235 G1 X83.551 Y32.773
N10240 G1 X83.717 Y32.9
N10245 G1 X83.846 Y33.007
N10250 G1 X83.945 Y33.101
N10255 G1 X84.028 Y33.197
N10260 G1 X84.11 Y33.309
N10265 G1 X84.197 Y33.454
N10270 G1 X84.29 Y33.637
N10275 G1 X84.388 Y33.861
N10280 G1 X84.488 Y34.124
N10285 G1 X84.59 Y34.421
N10290 G1 X84.69 Y34.747
N10295 G1 X84.789 Y35.098
N10300 G1 X84.885 Y35.469
N10305 G1 X84.978 Y35.854
N10310 G1 X85.16 Y36.673
N10315 G1 X85.34 Y37.527
N10320 G1 X85.341 Y37.532
N10325 G1 X85.531 Y38.413
N10330 G1 X85.534 Y38.427
N10335 G1 X85.638 Y38.876
N10340 G1 X85.641 Y38.89
N10345 G1 X85.753 Y39.346
N10350 G1 X85.757 Y39.363
N10355 G1 X85.879 Y39.827
N10360 G1 X85.884 Y39.846
N10365 G1 X86.019 Y40.319
N10370 G1 X86.025 Y40.34
N10375 G1 X86.174 Y40.822
N10380 G1 X86.182 Y40.844
N10385 G1 X86.347 Y41.338
N10390 G1 X86.354 Y41.36
N10395 G1 X86.537 Y41.865
N10400 G1 X86.545 Y41.887
N10405 G1 X86.746 Y42.405
N10410 G1 X86.755 Y42.426
N10415 G1 X86.975 Y42.957
N10420 G1 X86.984 Y42.978
N10425 G1 X87.224 Y43.522
N10430 G1 X87.233 Y43.542
N10435 G1 X87.494 Y44.101
N10440 G1 X87.503 Y44.119
N10445 G1 X87.785 Y44.692
N10450 G1 X87.794 Y44.709
N10455 G1 X88.097 Y45.297
N10460 G1 X88.105 Y45.313
N10465 G1 X88.429 Y45.914
N10470 G1 X88.438 Y45.929
N10475 G1 X88.559 Y46.146
N10480 G1 Z-3.5 F1000
N10485 G1 X88.783 Y46.544 F2000
N10490 G1 X88.791 Y46.558
N10495 G1 X89.157 Y47.185
N10500 G1 X89.166 Y47.199
N10505 G1 X89.553 Y47.837
N10510 G1 X89.561 Y47.851
N10515 G1 X89.969 Y48.499
N10520 G1 X89.977 Y48.513
N10525 G1 X90.405 Y49.17
N10530 G1 X90.414 Y49.184
N10535 G1 X90.862 Y49.846
N10540 G1 X90.872 Y49.861
N10545 G1 X91.339 Y50.528
N10550 G1 X91.35 Y50.543
N10555 G1 X91.838 Y51.211
N10560 G1 X91.85 Y51.227
N10565 G1 X92.357 Y51.893
N10570 G1 X92.37 Y51.911
N10575 G1 X92.897 Y52.572
N10580 G1 X92.911 Y52.59
N10585 G1 X93.457 Y53.244
N10590 G1 X93.473 Y53.262
N10595 G1 X94.037 Y53.905
N10600 G1 X94.053 Y53.924
N10605 G1 X94.634 Y54.555
N10610 G1 X94.652 Y54.573
N10615 G1 X95.06 Y54.994
N10620 G1 Z-2
N10625 G1 X95.249 Y55.189
N10630 G1 X95.266 Y55.207
N10635 G1 X95.878 Y55.806
N10640 G1 X95.896 Y55.823
N10645 G1 X96.519 Y56.405
N10650 G1 X96.537 Y56.422
N10655 G1 X97.171 Y56.985
N10660 G1 X97.189 Y57
N10665 G1 X97.831 Y57.544
N10670 G1 X97.849 Y57.559
N10675 G1 X98.014 Y57.691
N10680 G1 Z-3.5 F1000
N10685 G1 X98.498 Y58.081 F2000
N10690 G1 X98.515 Y58.095
N10695 G1 X99.167 Y58.597
N10700 G1 X99.185 Y58.61
N10705 G1 X99.838 Y59.09
N10710 G1 X99.855 Y59.102
N10715 G1 X100.508 Y59.561
N10720 G1 X100.525 Y59.573
N10725 G1 X101.175 Y60.01
N10730 G1 X101.19 Y60.02
N10735 G1 X101.834 Y60.437
N10740 G1 X101.85 Y60.447
N10745 G1 X102.488 Y60.843
N10750 G1 X102.502 Y60.852
N10755 G1 X103.131 Y61.228
N10760 G1 X103.145 Y61.236
N10765 G1 X103.765 Y61.593
N10770 G1 X103.777 Y61.6
N10775 G1 X104.384 Y61.938
N10780 G1 X104.396 Y61.945
N10785 G1 X104.991 Y62.266
N10790 G1 X105.004 Y62.272
N10795 G1 X105.587 Y62.576
N10800 G1 X105.596 Y62.581
N10805 G1 X106.164 Y62.87
N10810 G1 X106.175 Y62.875
N10815 G1 X106.731 Y63.149
N10820 G1 X106.739 Y63.153
N10825 G1 X107.281 Y63.414
N10830 G1 X107.29 Y63.419
N10835 G1 X107.82 Y63.667
N10840 G1 X107.828 Y63.671
N10845 G1 X108.346 Y63.909
N10850 G1 X108.354 Y63.912
N10855 G1 X108.862 Y64.14
N10860 G1 X108.869 Y64.143
N10865 G1 X109.368 Y64.362
N10870 G1 X109.375 Y64.365
N10875 G1 X109.866 Y64.576
N10880 G1 X109.878 Y64.582
N10885 G1 X110.847 Y64.983
N10890 G1 X110.865 Y64.99
N10895 G1 X111.829 Y65.368
N10900 G1 X111.851 Y65.377
N10905 G1 X112.831 Y65.734
N10910 G1 X112.853 Y65.742
N10915 G1 X113.357 Y65.913
N10920 G1 X113.373 Y65.918
N10925 G1 X113.889 Y66.083
N10930 G1 X113.908 Y66.089
N10935 G1 X114.44 Y66.247
N10940 G1 X114.46 Y66.253
N10945 G1 X115.01 Y66.405
N10950 G1 X115.032 Y66.41
N10955 G1 X115.602 Y66.554
N10960 G1 X115.624 Y66.559
N10965 G1 X116.216 Y66.694
N10970 G1 X116.239 Y66.699
N10975 G1 X116.853 Y66.824
N10980 G1 X116.877 Y66.828
N10985 G1 X117.513 Y66.941
N10990 G1 X117.536 Y66.945
N10995 G1 X117.996 Y67.016
N11000 G1 X117.536 Y67.086
N11005 G1 X117.513 Y67.09
N11010 G1 X116.877 Y67.204
N11015 G1 X116.853 Y67.208
N11020 G1 X116.239 Y67.333
N11025 G1 X116.216 Y67.338
N11030 G1 X115.624 Y67.472
N11035 G1 X115.602 Y67.478
N11040 G1 X115.032 Y67.621
N11045 G1 X115.01 Y67.627
N11050 G1 X114.46 Y67.779
N11055 G1 X114.44 Y67.784
N11060 G1 X113.908 Y67.943
N11065 G1 X113.889 Y67.949
N11070 G1 X113.373 Y68.114
N11075 G1 X113.357 Y68.119
N11080 G1 X112.853 Y68.29
N11085 G1 X112.831 Y68.298
N11090 G1 X111.851 Y68.655
N11095 G1 X111.829 Y68.663
N11100 G1 X110.865 Y69.042
N11105 G1 X110.847 Y69.049
N11110 G1 X109.878 Y69.45
N11115 G1 X109.866 Y69.455
N11120 G1 X109.375 Y69.666
N11125 G1 X109.368 Y69.669
N11130 G1 X108.869 Y69.888
N11135 G1 X108.862 Y69.892
N11140 G1 X108.354 Y70.12
N11145 G1 X108.346 Y70.123
N11150 G1 X107.828 Y70.361
N11155 G1 X107.82 Y70.364
N11160 G1 X107.29 Y70.613
N11165 G1 X107.281 Y70.617
N11170 G1 X106.739 Y70.878
N11175 G1 X106.731 Y70.882
N11180 G1 X106.175 Y71.157
N11185 G1 X106.164 Y71.162
N11190 G1 X105.596 Y71.451
N11195 G1 X105.586 Y71.456
N11200 G1 X105.003 Y71.76
N11205 G1 X104.992 Y71.766
N11210 G1 X104.397 Y72.087
N11215 G1 X104.384 Y72.093
N11220 G1 X103.777 Y72.432
N11225 G1 X103.765 Y72.439
N11230 G1 X103.145 Y72.795
N11235 G1 X103.131 Y72.804
N11240 G1 X102.502 Y73.18
N11245 G1 X102.488 Y73.189
N11250 G1 X101.85 Y73.585
N11255 G1 X101.834 Y73.595
N11260 G1 X101.19 Y74.011
N11265 G1 X101.175 Y74.021
N11270 G1 X100.525 Y74.459
N11275 G1 X100.508 Y74.47
N11280 G1 X99.855 Y74.929
N11285 G1 X99.838 Y74.942
N11290 G1 X99.185 Y75.422
N11295 G1 X99.167 Y75.435
N11300 G1 X98.515 Y75.937
N11305 G1 X98.497 Y75.951
N11310 G1 X97.849 Y76.473
N11315 G1 X97.831 Y76.488
N11320 G1 X97.189 Y77.031
N11325 G1 X97.171 Y77.047
N11330 G1 X96.537 Y77.61
N11335 G1 X96.519 Y77.627
N11340 G1 X95.896 Y78.208
N11345 G1 X95.878 Y78.226
N11350 G1 X95.266 Y78.825
N11355 G1 X95.249 Y78.843
N11360 G1 X94.652 Y79.459
N11365 G1 X94.635 Y79.477
N11370 G1 X94.614 Y79.5
N11375 G1 Z-2
N11380 G1 X94.053 Y80.108
N11385 G1 X94.037 Y80.126
N11390 G1 X93.473 Y80.769
N11395 G1 X93.457 Y80.788
N11400 G1 X92.911 Y81.442
N11405 G1 X92.897 Y81.46
N11410 G1 X92.37 Y82.121
N11415 G1 X92.357 Y82.138
N11420 G1 X92.037 Y82.559
N11425 G1 Z-3.5 F1000
N11430 G1 X91.85 Y82.805 F2000
N11435 G1 X91.838 Y82.821
N11440 G1 X91.35 Y83.489
N11445 G1 X91.339 Y83.504
N11450 G1 X90.872 Y84.171
N11455 G1 X90.862 Y84.185
N11460 G1 X90.414 Y84.848
N11465 G1 X90.405 Y84.862
N11470 G1 X89.977 Y85.518
N11475 G1 X89.969 Y85.532
N11480 G1 X89.561 Y86.181
N11485 G1 X89.553 Y86.194
N11490 G1 X89.166 Y86.833
N11495 G1 X89.157 Y86.847
N11500 G1 X88.791 Y87.473
N11505 G1 X88.783 Y87.488
N11510 G1 X88.438 Y88.103
N11515 G1 X88.429 Y88.118
N11520 G1 X88.105 Y88.719
N11525 G1 X88.097 Y88.735
N11530 G1 X87.794 Y89.322
N11535 G1 X87.785 Y89.34
N11540 G1 X87.503 Y89.913
N11545 G1 X87.494 Y89.931
N11550 G1 X87.233 Y90.49
N11555 G1 X87.224 Y90.509
N11560 G1 X86.984 Y91.054
N11565 G1 X86.975 Y91.075
N11570 G1 X86.755 Y91.606
N11575 G1 X86.746 Y91.627
N11580 G1 X86.545 Y92.145
N11585 G1 X86.537 Y92.167
N11590 G1 X86.354 Y92.672
N11595 G1 X86.347 Y92.694
N11600 G1 X86.182 Y93.187
N11605 G1 X86.174 Y93.21
N11610 G1 X86.025 Y93.692
N11615 G1 X86.019 Y93.713
N11620 G1 X85.884 Y94.185
N11625 G1 X85.879 Y94.205
N11630 G1 X85.757 Y94.669
N11635 G1 X85.753 Y94.685
N11640 G1 X85.641 Y95.142
N11645 G1 X85.638 Y95.155
N11650 G1 X85.534 Y95.605
N11655 G1 X85.531 Y95.618
N11660 G1 X85.341 Y96.5
N11665 G1 X85.34 Y96.505
N11670 G1 X85.16 Y97.359
N11675 G1 X84.978 Y98.177
N11680 G1 X84.885 Y98.563
N11685 G1 X84.789 Y98.934
N11690 G1 X84.69 Y99.285
N11695 G1 X84.59 Y99.611
N11700 G1 X84.488 Y99.908
N11705 G1 X84.388 Y100.171
N11710 G1 X84.29 Y100.395
N11715 G1 X84.197 Y100.578
N11720 G1 X84.109 Y100.723
N11725 G1 X84.028 Y100.836
N11730 G1 X83.945 Y100.93
N11735 G1 X83.846 Y101.024
N11740 G1 X83.717 Y101.132
N11745 G1 X83.551 Y101.259
N11750 G1 X83.346 Y101.41
N11755 G1 X83.111 Y101.581
N11760 G1 X83.109 Y101.583
N11765 G1 X82.847 Y101.775
N11770 G1 X82.844 Y101.777
N11775 G1 X82.561 Y101.986
N11780 G1 X82.265 Y102.203
N11785 G1 X81.964 Y102.416
N11790 G1 X81.671 Y102.61
N11795 G1 X81.391 Y102.774
N11800 G1 X81.275 Y102.834
N11805 G1 X81.164 Y102.885
N11810 G1 X81.073 Y102.92
N11815 G1 X81.002 Y102.941
N11820 G1 X80.989 Y102.944
N11825 G1 X80.975 Y102.921
N11830 G1 X80.937 Y102.848
N11835 G1 X80.897 Y102.752
N11840 G1 X80.855 Y102.636
N11845 G1 X80.816 Y102.508
N11850 G1 X80.737 Y102.185
N11855 G1 X80.67 Y101.832
N11860 G1 X80.609 Y101.456
N11865 G1 X80.553 Y101.071
N11870 G1 X80.499 Y100.694
N11875 G1 X80.497 Y100.684
N11880 G1 X80.442 Y100.324
N11885 G1 X80.438 Y100.305
N11890 G1 X80.379 Y99.965
N11895 G1 X80.374 Y99.94
N11900 G1 X80.31 Y99.616
N11905 G1 X80.304 Y99.589
N11910 G1 X80.232 Y99.277
N11915 G1 X80.223 Y99.24
N11920 G1 X80.057 Y98.627
N11925 G1 X80.05 Y98.602
N11930 G1 X79.955 Y98.286
N11935 G1 X79.954 Y98.28
N11940 G1 X79.852 Y97.946
N11945 G1 X79.744 Y97.592
N11950 G1 X79.631 Y97.213
N11955 G1 X79.511 Y96.803
N11960 G1 X79.386 Y96.36
N11965 G1 X79.255 Y95.883
N11970 G1 X79.119 Y95.372
N11975 G1 X78.977 Y94.828
N11980 G1 X78.83 Y94.255
N11985 G1 X78.679 Y93.656
N11990 G1 X78.523 Y93.036
N11995 G1 X78.364 Y92.399
N12000 G1 X78.201 Y91.75
N12005 G1 X78.2 Y91.748
N12010 G1 X78.066 Y91.218
N12015 G1 Z-2
N12020 G1 X77.869 Y90.437
N12025 G1 X77.868 Y90.432
N12030 G1 X77.532 Y89.134
N12035 G1 X77.531 Y89.129
N12040 G1 X77.364 Y88.495
N12045 G1 Y88.492
N12050 G1 X77.198 Y87.872
N12055 G1 Y87.869
N12060 G1 X77.057 Y87.347
N12065 G1 Z-3.5 F1000
N12070 G1 X77.035 Y87.265 F2000
N12075 G1 Y87.264
N12080 G1 X76.877 Y86.678
N12085 G1 X76.723 Y86.112
N12090 G1 X76.576 Y85.568
N12095 G1 X76.436 Y85.048
N12100 G1 X76.304 Y84.551
N12105 G1 X76.18 Y84.078
N12110 G1 X76.064 Y83.628
N12115 G1 X75.958 Y83.2
N12120 G1 X75.859 Y82.794
N12125 G1 X75.768 Y82.407
N12130 G1 X75.683 Y82.037
N12135 G1 X75.603 Y81.683
N12140 G1 X75.527 Y81.342
N12145 G1 X75.526 Y81.34
N12150 G1 X75.452 Y81.013
N12155 G1 X75.451 Y81.007
N12160 G1 X75.377 Y80.693
N12165 G1 X75.374 Y80.68
N12170 G1 X75.226 Y80.081
N12175 G1 X75.221 Y80.063
N12180 G1 X74.918 Y78.929
N12185 G1 X74.855 Y78.666
N12190 G1 X74.801 Y78.405
N12195 G1 X74.76 Y78.146
N12200 G1 X74.732 Y77.885
N12205 G1 X74.72 Y77.62
N12210 G1 X74.726 Y77.349
N12215 G1 X74.751 Y77.071
N12220 G1 X74.797 Y76.788
N12225 G1 X74.863 Y76.506
N12230 G1 X74.948 Y76.229
N12235 G1 X75.051 Y75.967
N12240 G1 X75.167 Y75.726
N12245 G1 X75.292 Y75.516
N12250 G1 X75.42 Y75.341
N12255 G1 X75.554 Y75.193
N12260 G1 X75.602 Y75.149
N12265 G1 X75.644 Y75.114
N12270 G1 X75.762 Y75.037
N12275 G1 X75.861 Y74.992
N12280 G1 X75.963 Y74.961
N12285 G1 X76.078 Y74.942
N12290 G1 X76.21 Y74.935
N12295 G1 X76.358 Y74.943
N12300 G1 X76.518 Y74.964
N12305 G1 X76.685 Y75
N12310 G1 X76.851 Y75.05
N12315 G1 X77.015 Y75.112
N12320 G1 X77.176 Y75.189
N12325 G1 X77.334 Y75.282
N12330 G1 X77.495 Y75.395
N12335 G1 X77.659 Y75.532
N12340 G1 X77.828 Y75.696
N12345 G1 X78.003 Y75.888
N12350 G1 X78.183 Y76.107
N12355 G1 X78.364 Y76.345
N12360 G1 X78.744 Y76.877
N12365 G1 X78.931 Y77.14
N12370 G1 X78.944 Y77.157
N12375 G1 X79.128 Y77.405
N12380 G1 X79.155 Y77.439
N12385 G1 X79.337 Y77.663
N12390 G1 X79.385 Y77.718
N12395 G1 X79.567 Y77.911
N12400 G1 X79.647 Y77.987
N12405 G1 X79.783 Y78.103
N12410 G1 Z-2
N12415 G1 X79.831 Y78.144
N12420 G1 X79.922 Y78.212
N12425 G1 X80.016 Y78.275
N12430 G1 X80.094 Y78.322
N12435 G1 X80.189 Y78.374
N12440 G1 X80.284 Y78.42
N12445 G1 X80.381 Y78.46
N12450 G1 X80.489 Y78.498
N12455 G1 X80.588 Y78.526
N12460 G1 X80.705 Y78.552
N12465 G1 X80.806 Y78.568
N12470 G1 X80.927 Y78.58
N12475 G1 X81.03 Y78.584
N12480 G1 X81.148 Y78.581
N12485 G1 X81.254 Y78.572
N12490 G1 X81.362 Y78.557
N12495 G1 X81.471 Y78.536
N12500 G1 X81.566 Y78.513
N12505 G1 X81.678 Y78.48
N12510 G1 X81.759 Y78.452
N12515 G1 X81.874 Y78.407
N12520 G1 X81.942 Y78.377
N12525 G1 X82.06 Y78.32
N12530 G1 X82.114 Y78.292
N12535 G1 X82.235 Y78.224
N12540 G1 X82.299 Y78.185
N12545 G1 X82.548 Y78.019
N12550 G1 X82.609 Y77.976
N12555 G1 X82.867 Y77.775
N12560 G1 X82.908 Y77.741
N12565 G1 X83.173 Y77.512
N12570 G1 X83.2 Y77.488
N12575 G1 X83.469 Y77.237
N12580 G1 X83.488 Y77.219
N12585 G1 X83.734 Y76.977
N12590 G1 Z-3.5 F1000
N12595 G1 X83.758 Y76.954 F2000
N12600 G1 X83.778 Y76.934
N12605 G1 X84.301 Y76.39
N12610 G1 X84.319 Y76.371
N12615 G1 X84.564 Y76.102
N12620 G1 X84.58 Y76.084
N12625 G1 X84.807 Y75.822
N12630 G1 X84.83 Y75.795
N12635 G1 X85.035 Y75.541
N12640 G1 X85.068 Y75.499
N12645 G1 X85.247 Y75.252
N12650 G1 X85.289 Y75.189
N12655 G1 X85.437 Y74.947
N12660 G1 X85.487 Y74.856
N12665 G1 X85.602 Y74.616
N12670 G1 X85.628 Y74.556
N12675 G1 X85.651 Y74.495
N12680 G1 X85.729 Y74.254
N12685 G1 X85.75 Y74.182
N12690 G1 X85.765 Y74.109
N12695 G1 X85.806 Y73.865
N12700 G1 X85.816 Y73.787
N12705 G1 X85.82 Y73.71
N12710 G1 X85.822 Y73.46
N12715 G1 X85.821 Y73.388
N12720 G1 X85.813 Y73.316
N12725 G1 X85.779 Y73.059
N12730 G1 X85.755 Y72.937
N12735 G1 X85.685 Y72.673
N12740 G1 X85.655 Y72.578
N12745 G1 X85.554 Y72.307
N12750 G1 X85.523 Y72.233
N12755 G1 X85.394 Y71.957
N12760 G1 X85.366 Y71.902
N12765 G1 X85.214 Y71.623
N12770 G1 X85.189 Y71.58
N12775 G1 X85.018 Y71.301
N12780 G1 X84.996 Y71.266
N12785 G1 X84.811 Y70.989
N12790 G1 X84.791 Y70.96
N12795 G1 X84.594 Y70.687
N12800 G1 X84.575 Y70.661
N12805 G1 X84.369 Y70.394
N12810 G1 X84.349 Y70.369
N12815 G1 X84.135 Y70.109
N12820 G1 X84.114 Y70.084
N12825 G1 X83.891 Y69.831
N12830 G1 X83.867 Y69.805
N12835 G1 X83.635 Y69.559
N12840 G1 X83.609 Y69.533
N12845 G1 X83.367 Y69.294
N12850 G1 X83.338 Y69.267
N12855 G1 X83.083 Y69.036
N12860 G1 X83.053 Y69.01
N12865 G1 X82.784 Y68.785
N12870 G1 X82.754 Y68.76
N12875 G1 X82.47 Y68.541
N12880 G1 X82.441 Y68.519
N12885 G1 X82.143 Y68.306
N12890 G1 X82.114 Y68.286
N12895 G1 X81.803 Y68.079
N12900 G1 X81.777 Y68.062
N12905 G1 X81.455 Y67.863
N12910 G1 X81.43 Y67.848
N12915 G1 X81.103 Y67.658
N12920 G1 X81.08 Y67.645
N12925 G1 X80.752 Y67.466
N12930 G1 X80.73 Y67.454
N12935 G1 X80.407 Y67.288
N12940 G1 X80.385 Y67.277
N12945 G1 X80.073 Y67.126
N12950 G1 X80.05 Y67.116
N12955 G1 X79.83 Y67.016
N12960 G1 X80.05 Y66.916
N12965 G1 X80.073 Y66.905
N12970 G1 X80.385 Y66.755
N12975 G1 X80.407 Y66.744
N12980 G1 X80.73 Y66.578
N12985 G1 X80.752 Y66.566
N12990 G1 X81.08 Y66.387
N12995 G1 X81.103 Y66.374
N13000 G1 X81.431 Y66.183
N13005 G1 X81.455 Y66.169
N13010 G1 X81.777 Y65.969
N13015 G1 X81.803 Y65.952
N13020 G1 X82.114 Y65.746
N13025 G1 X82.143 Y65.726
N13030 G1 X82.441 Y65.513
N13035 G1 X82.47 Y65.491
N13040 G1 X82.754 Y65.271
N13045 G1 X82.784 Y65.247
N13050 G1 X83.053 Y65.022
N13055 G1 X83.083 Y64.996
N13060 G1 X83.338 Y64.764
N13065 G1 X83.367 Y64.737
N13070 G1 X83.609 Y64.499
N13075 G1 X83.635 Y64.472
N13080 G1 X83.867 Y64.227
N13085 G1 X83.891 Y64.201
N13090 G1 X84.113 Y63.948
N13095 G1 X84.135 Y63.923
N13100 G1 X84.349 Y63.663
N13105 G1 X84.369 Y63.638
N13110 G1 X84.575 Y63.371
N13115 G1 X84.594 Y63.345
N13120 G1 X84.791 Y63.071
N13125 G1 X84.811 Y63.043
N13130 G1 X84.996 Y62.766
N13135 G1 X85.018 Y62.731
N13140 G1 X85.189 Y62.452
N13145 G1 X85.214 Y62.409
N13150 G1 X85.366 Y62.13
N13155 G1 X85.394 Y62.074
N13160 G1 X85.523 Y61.798
N13165 G1 X85.554 Y61.725
N13170 G1 X85.655 Y61.454
N13175 G1 X85.685 Y61.359
N13180 G1 X85.755 Y61.094
N13185 G1 X85.779 Y60.973
N13190 G1 X85.813 Y60.716
N13195 G1 X85.821 Y60.644
N13200 G1 X85.822 Y60.572
N13205 G1 X85.82 Y60.322
N13210 G1 X85.816 Y60.244
N13215 G1 X85.806 Y60.167
N13220 G1 X85.765 Y59.923
N13225 G1 X85.75 Y59.85
N13230 G1 X85.729 Y59.777
N13235 G1 X85.651 Y59.537
N13240 G1 X85.628 Y59.476
N13245 G1 X85.602 Y59.416
N13250 G1 X85.487 Y59.176
N13255 G1 X85.437 Y59.085
N13260 G1 X85.289 Y58.843
N13265 G1 X85.247 Y58.78
N13270 G1 X85.068 Y58.533
N13275 G1 X85.035 Y58.49
N13280 G1 X84.83 Y58.236
N13285 G1 X84.807 Y58.209
N13290 G1 X84.58 Y57.948
N13295 G1 X84.564 Y57.93
N13300 G1 X84.319 Y57.661
N13305 G1 X84.301 Y57.642
N13310 G1 X83.778 Y57.098
N13315 G1 X83.758 Y57.078
N13320 G1 X83.488 Y56.813
N13325 G1 X83.471 Y56.796
N13330 G1 Z-2
N13335 G1 X83.469 Y56.795
N13340 G1 X83.2 Y56.544
N13345 G1 X83.173 Y56.52
N13350 G1 X82.908 Y56.29
N13355 G1 X82.867 Y56.257
N13360 G1 X82.609 Y56.056
N13365 G1 X82.548 Y56.013
N13370 G1 X82.299 Y55.847
N13375 G1 X82.235 Y55.808
N13380 G1 X82.114 Y55.74
N13385 G1 X82.059 Y55.711
N13390 G1 X81.941 Y55.655
N13395 G1 X81.874 Y55.625
N13400 G1 X81.76 Y55.58
N13405 G1 X81.678 Y55.552
N13410 G1 X81.566 Y55.519
N13415 G1 X81.471 Y55.495
N13420 G1 X81.362 Y55.474
N13425 G1 X81.253 Y55.459
N13430 G1 X81.148 Y55.451
N13435 G1 X81.031 Y55.448
N13440 G1 X80.928 Y55.452
N13445 G1 X80.806 Y55.464
N13450 G1 X80.705 Y55.48
N13455 G1 X80.588 Y55.506
N13460 G1 X80.489 Y55.534
N13465 G1 X80.38 Y55.572
N13470 G1 X80.283 Y55.613
N13475 G1 X80.19 Y55.657
N13480 G1 X80.095 Y55.709
N13485 G1 X80.016 Y55.757
N13490 G1 X79.922 Y55.819
N13495 G1 X79.831 Y55.888
N13500 G1 X79.647 Y56.045
N13505 G1 X79.567 Y56.121
N13510 G1 X79.385 Y56.314
N13515 G1 X79.367 Y56.334
N13520 G1 Z-3.5 F1000
N13525 G1 X79.337 Y56.369 F2000
N13530 G1 X79.155 Y56.593
N13535 G1 X79.128 Y56.627
N13540 G1 X78.944 Y56.875
N13545 G1 X78.931 Y56.892
N13550 G1 X78.744 Y57.155
N13555 G1 X78.364 Y57.686
N13560 G1 X78.183 Y57.925
N13565 G1 X78.003 Y58.144
N13570 G1 X77.828 Y58.336
N13575 G1 X77.659 Y58.5
N13580 G1 X77.495 Y58.637
N13585 G1 X77.334 Y58.75
N13590 G1 X77.175 Y58.843
N13595 G1 X77.015 Y58.92
N13600 G1 X76.852 Y58.982
N13605 G1 X76.685 Y59.031
N13610 G1 X76.518 Y59.067
N13615 G1 X76.358 Y59.089
N13620 G1 X76.21 Y59.097
N13625 G1 X76.078 Y59.09
N13630 G1 X75.963 Y59.071
N13635 G1 X75.861 Y59.04
N13640 G1 X75.762 Y58.994
N13645 G1 X75.644 Y58.917
N13650 G1 X75.602 Y58.883
N13655 G1 X75.554 Y58.839
N13660 G1 X75.42 Y58.691
N13665 G1 X75.292 Y58.516
N13670 G1 X75.167 Y58.305
N13675 G1 X75.051 Y58.065
N13680 G1 X74.948 Y57.802
N13685 G1 X74.863 Y57.526
N13690 G1 X74.797 Y57.243
N13695 G1 X74.751 Y56.961
N13700 G1 X74.726 Y56.683
N13705 G1 X74.72 Y56.412
N13710 G1 X74.732 Y56.147
N13715 G1 X74.76 Y55.886
N13720 G1 X74.801 Y55.627
N13725 G1 X74.855 Y55.366
N13730 G1 X74.918 Y55.103
N13735 G1 X75.221 Y53.968
N13740 G1 X75.226 Y53.951
N13745 G1 X75.374 Y53.352
N13750 G1 X75.377 Y53.338
N13755 G1 X75.451 Y53.024
N13760 G1 X75.452 Y53.018
N13765 G1 X75.526 Y52.692
N13770 G1 X75.527 Y52.69
N13775 G1 X75.603 Y52.349
N13780 G1 X75.683 Y51.994
N13785 G1 X75.768 Y51.625
N13790 G1 X75.859 Y51.238
N13795 G1 X75.958 Y50.831
N13800 G1 X76.064 Y50.404
N13805 G1 X76.18 Y49.954
N13810 G1 X76.304 Y49.481
N13815 G1 X76.436 Y48.984
N13820 G1 X76.576 Y48.463
N13825 G1 X76.723 Y47.92
N13830 G1 X76.877 Y47.355
N13835 G1 X77.005 Y46.879
N13840 G1 Z-2
N13845 G1 X77.035 Y46.768
N13850 G1 Y46.766
N13855 G1 X77.198 Y46.162
N13860 G1 Y46.16
N13865 G1 X77.364 Y45.54
N13870 G1 Y45.537
N13875 G1 X77.531 Y44.902
N13880 G1 X77.532 Y44.898
N13885 G1 X77.868 Y43.6
N13890 G1 X77.869 Y43.595
N13895 G1 X78.017 Y43.009
N13900 G1 Z-3.5 F1000
N13905 G1 X78.2 Y42.284 F2000
N13910 G1 X78.201 Y42.282
N13915 G1 X78.363 Y41.633
N13920 G1 X78.523 Y40.996
N13925 G1 X78.679 Y40.375
N13930 G1 X78.83 Y39.777
N13935 G1 X78.977 Y39.204
N13940 G1 X79.119 Y38.66
N13945 G1 X79.255 Y38.149
N13950 G1 X79.386 Y37.671
N13955 G1 X79.511 Y37.229
N13960 G1 X79.631 Y36.819
N13965 G1 X79.744 Y36.44
N13970 G1 X79.852 Y36.085
N13975 G1 X79.954 Y35.752
N13980 G1 X79.955 Y35.746
N13985 G1 X80.05 Y35.429
N13990 G1 X80.057 Y35.405
N13995 G1 X80.223 Y34.792
N14000 G1 X80.232 Y34.755
N14005 G1 X80.304 Y34.443
N14010 G1 X80.309 Y34.416
N14015 G1 X80.374 Y34.092
N14020 G1 X80.379 Y34.067
N14025 G1 X80.439 Y33.726
N14030 G1 X80.442 Y33.708
N14035 G1 X80.497 Y33.348
N14040 G1 X80.499 Y33.338
N14045 G1 X80.553 Y32.96
N14050 G1 X80.609 Y32.576
N14055 G1 X80.67 Y32.199
N14060 G1 X80.737 Y31.847
N14065 G1 X80.816 Y31.523
N14070 G1 X80.855 Y31.396
N14075 G1 X80.897 Y31.279
N14080 G1 X80.937 Y31.184
N14085 G1 X80.974 Y31.112
N14090 G1 X80.989 Y31.088
N14095 G1 X81 Y31.09
N14100 G1 X81.073 Y31.112
N14105 G1 X81.166 Y31.148
N14110 G1 X81.275 Y31.197
N14115 G1 X81.39 Y31.257
N14120 G1 X81.672 Y31.423
N14125 G1 X81.964 Y31.616
N14130 G1 X82.265 Y31.829
N14135 G1 X82.561 Y32.046
N14140 G1 X82.845 Y32.255
N14145 G1 X82.846 Y32.256
N14150 G1 X83.108 Y32.449
N14155 G1 X83.111 Y32.451
N14160 G1 X83.347 Y32.623
N14165 G1 X83.551 Y32.773
N14170 G1 X83.717 Y32.9
N14175 G1 X83.846 Y33.007
N14180 G1 X83.945 Y33.101
N14185 G1 X84.028 Y33.197
N14190 G1 X84.11 Y33.309
N14195 G1 X84.197 Y33.454
N14200 G1 X84.29 Y33.637
N14205 G1 X84.388 Y33.861
N14210 G1 X84.488 Y34.124
N14215 G1 X84.59 Y34.421
N14220 G1 X84.69 Y34.747
N14225 G1 X84.789 Y35.098
N14230 G1 X84.885 Y35.469
N14235 G1 X84.978 Y35.854
N14240 G1 X85.16 Y36.673
N14245 G1 X85.34 Y37.527
N14250 G1 X85.341 Y37.532
N14255 G1 X85.531 Y38.413
N14260 G1 X85.534 Y38.427
N14265 G1 X85.638 Y38.876
N14270 G1 X85.641 Y38.89
N14275 G1 X85.753 Y39.346
N14280 G1 X85.757 Y39.363
N14285 G1 X85.879 Y39.827
N14290 G1 X85.884 Y39.846
N14295 G1 X86.019 Y40.319
N14300 G1 X86.025 Y40.34
N14305 G1 X86.174 Y40.822
N14310 G1 X86.182 Y40.844
N14315 G1 X86.347 Y41.338
N14320 G1 X86.354 Y41.36
N14325 G1 X86.537 Y41.865
N14330 G1 X86.545 Y41.887
N14335 G1 X86.746 Y42.405
N14340 G1 X86.755 Y42.426
N14345 G1 X86.975 Y42.957
N14350 G1 X86.984 Y42.978
N14355 G1 X87.224 Y43.522
N14360 G1 X87.233 Y43.542
N14365 G1 X87.494 Y44.101
N14370 G1 X87.503 Y44.119
N14375 G1 X87.785 Y44.692
N14380 G1 X87.794 Y44.709
N14385 G1 X88.097 Y45.297
N14390 G1 X88.105 Y45.313
N14395 G1 X88.429 Y45.914
N14400 G1 X88.438 Y45.929
N14405 G1 X88.559 Y46.146
N14410 G0 Z10
N14415 G0 X114.912 Y44.56
N14420 G0 Z5
N14425 G1 Z0.4 F1000
N14430 G1 Z-1.167
N14435 G1 X115.027 Y44.622 F2000
N14440 G1 X115.35 Y44.797
N14445 G1 X115.663 Y44.966
N14450 G1 X115.665 Y44.967
N14455 G1 X116.263 Y45.288
N14460 G1 X116.267 Y45.291
N14465 G1 X117.429 Y45.908
N14470 G1 X118.002 Y46.22
N14475 G1 X118.567 Y46.548
N14480 G1 X119.123 Y46.899
N14485 G1 X119.667 Y47.277
N14490 G1 X120.194 Y47.684
N14495 G1 X120.704 Y48.115
N14500 G1 X121.195 Y48.561
N14505 G1 X121.663 Y49.012
N14510 G1 X122.104 Y49.456
N14515 G1 X122.513 Y49.886
N14520 G1 X122.884 Y50.302
N14525 G1 X123.225 Y50.719
N14530 G1 X123.375 Y50.921
N14535 G1 X123.522 Y51.133
N14540 G1 X123.661 Y51.352
N14545 G1 X123.795 Y51.581
N14550 G1 X123.924 Y51.823
N14555 G1 X124.049 Y52.078
N14560 G1 X124.17 Y52.346
N14565 G1 X124.284 Y52.619
N14570 G1 X124.505 Y53.216
N14575 G1 X124.703 Y53.827
N14580 G1 X124.878 Y54.438
N14585 G1 X124.953 Y54.731
N14590 G1 X125.023 Y55.019
N14595 G1 X125.083 Y55.293
N14600 G1 X125.135 Y55.557
N14605 G1 X125.178 Y55.805
N14610 G1 X125.211 Y56.038
N14615 G1 X125.235 Y56.255
N14620 G1 X125.248 Y56.456
N14625 G1 X125.252 Y56.646
N14630 G1 X125.247 Y56.821
N14635 G1 X125.233 Y56.986
N14640 G1 X125.211 Y57.142
N14645 G1 X125.18 Y57.291
N14650 G1 X125.141 Y57.438
N14655 G1 X125.095 Y57.58
N14660 G1 X125.04 Y57.716
N14665 G1 X124.977 Y57.852
N14670 G1 X124.908 Y57.982
N14675 G1 X124.832 Y58.105
N14680 G1 X124.75 Y58.222
N14685 G1 X124.661 Y58.334
N14690 G1 X124.567 Y58.438
N14695 G1 X124.467 Y58.535
N14700 G1 X124.358 Y58.626
N14705 G1 X124.239 Y58.711
N14710 G1 X124.109 Y58.792
N14715 G1 X123.963 Y58.868
N14720 G1 X123.802 Y58.94
N14725 G1 X123.624 Y59.005
N14730 G1 X123.427 Y59.065
N14735 G1 X123.213 Y59.118
N14740 G1 X122.983 Y59.163
N14745 G1 X122.74 Y59.201
N14750 G1 X122.482 Y59.229
N14755 G1 X122.214 Y59.249
N14760 G1 X121.937 Y59.26
N14765 G1 X121.652 Y59.262
N14770 G1 X121.365 Y59.256
N14775 G1 X120.757 Y59.218
N14780 G1 X120.134 Y59.151
N14785 G1 X119.488 Y59.056
N14790 G1 X118.816 Y58.936
N14795 G1 X118.115 Y58.793
N14800 G1 X117.383 Y58.629
N14805 G1 X116.621 Y58.445
N14810 G1 X115.831 Y58.239
N14815 G1 X115.014 Y58.009
N14820 G1 X114.177 Y57.753
N14825 G1 X113.323 Y57.469
N14830 G1 X112.458 Y57.156
N14835 G1 X111.59 Y56.812
N14840 G1 X110.725 Y56.439
N14845 G1 X109.87 Y56.039
N14850 G1 X109.033 Y55.616
N14855 G1 X108.22 Y55.173
N14860 G1 X107.436 Y54.715
N14865 G1 X106.685 Y54.244
N14870 G1 X105.965 Y53.762
N14875 G1 X105.277 Y53.272
N14880 G1 X104.615 Y52.772
N14885 G1 X103.974 Y52.262
N14890 G1 X103.348 Y51.74
N14895 G1 X102.734 Y51.204
N14900 G1 X102.125 Y50.651
N14905 G1 X101.522 Y50.079
N14910 G1 X100.922 Y49.486
N14915 G1 X100.329 Y48.868
N14920 G1 X99.743 Y48.224
N14925 G1 X99.167 Y47.552
N14930 G1 X98.606 Y46.853
N14935 G1 X98.063 Y46.132
N14940 G1 X97.543 Y45.392
N14945 G1 X97.051 Y44.644
N14950 G1 X96.59 Y43.893
N14955 G1 X96.375 Y43.527
N14960 G1 X96.168 Y43.162
N14965 G1 X95.971 Y42.803
N14970 G1 X95.784 Y42.451
N14975 G1 X95.607 Y42.108
N14980 G1 X95.439 Y41.775
N14985 G1 X95.281 Y41.451
N14990 G1 X95.131 Y41.139
N14995 G1 X94.99 Y40.839
N15000 G1 X94.857 Y40.551
N15005 G1 X94.73 Y40.276
N15010 G1 X94.61 Y40.014
N15015 G1 X94.496 Y39.765
N15020 G1 X94.495 Y39.762
N15025 G1 X94.387 Y39.528
N15030 G1 X94.385 Y39.524
N15035 G1 X94.282 Y39.303
N15040 G1 X94.279 Y39.298
N15045 G1 X94.181 Y39.09
N15050 G1 X94.178 Y39.085
N15055 G1 X94.084 Y38.887
N15060 G1 X94.082 Y38.884
N15065 G1 X93.991 Y38.696
N15070 G1 X93.821 Y38.347
N15075 G1 X93.669 Y38.025
N15080 G1 X93.533 Y37.715
N15085 G1 X93.407 Y37.398
N15090 G1 X93.288 Y37.068
N15095 G1 X93.055 Y36.358
N15100 G1 X92.948 Y36.017
N15105 G1 X92.906 Y35.883
N15110 G1 X92.942 Y35.899
N15115 G1 X93.332 Y36.082
N15120 G1 X93.342 Y36.086
N15125 G1 X93.771 Y36.281
N15130 G1 X93.793 Y36.291
N15135 G1 X94.024 Y36.389
N15140 G1 X94.043 Y36.397
N15145 G1 X94.291 Y36.496
N15150 G1 X94.308 Y36.503
N15155 G1 X94.576 Y36.605
N15160 G1 X94.592 Y36.611
N15165 G1 X94.885 Y36.716
N15170 G1 X94.898 Y36.721
N15175 G1 X95.22 Y36.832
N15180 G1 X95.23 Y36.835
N15185 G1 X95.586 Y36.954
N15190 G1 X95.59 Y36.955
N15195 G1 X95.782 Y37.018
N15200 G1 X95.785 Y37.019
N15205 G1 X95.987 Y37.085
N15210 G1 X95.988
N15215 G1 X96.2 Y37.154
N15220 G1 X96.201
N15225 G1 X96.423 Y37.226
N15230 G1 X96.656 Y37.301
N15235 G1 X96.9 Y37.38
N15240 G1 X97.154 Y37.462
N15245 G1 X97.419 Y37.548
N15250 G1 X97.695 Y37.637
N15255 G1 X97.981 Y37.731
N15260 G1 X98.277 Y37.828
N15265 G1 X98.584 Y37.929
N15270 G1 X98.9 Y38.034
N15275 G1 X99.226 Y38.143
N15280 G1 X99.905 Y38.371
N15285 G1 X100.616 Y38.614
N15290 G1 X101.356 Y38.87
N15295 G1 X102.118 Y39.138
N15300 G1 X102.898 Y39.416
N15305 G1 X104.489 Y39.997
N15310 G1 X106.081 Y40.599
N15315 G1 X106.861 Y40.901
N15320 G1 X107.626 Y41.204
N15325 G1 X108.367 Y41.503
N15330 G1 X109.083 Y41.798
N15335 G1 X109.767 Y42.087
N15340 G1 X110.418 Y42.368
N15345 G1 X111.031 Y42.64
N15350 G1 X111.608 Y42.903
N15355 G1 X112.147 Y43.155
N15360 G1 X112.651 Y43.396
N15365 G1 X113.117 Y43.625
N15370 G1 X113.551 Y43.844
N15375 G1 X113.955 Y44.052
N15380 G1 X114.333 Y44.251
N15385 G1 X114.69 Y44.441
N15390 G1 X114.912 Y44.56
N15395 G1 Z-2.333 F1000
N15400 G1 X115.027 Y44.622 F2000
N15405 G1 X115.35 Y44.797
N15410 G1 X115.663 Y44.966
N15415 G1 X115.665 Y44.967
N15420 G1 X116.263 Y45.288
N15425 G1 X116.267 Y45.291
N15430 G1 X117.429 Y45.908
N15435 G1 X118.002 Y46.22
N15440 G1 X118.567 Y46.548
N15445 G1 X119.113 Y46.892
N15450 G1 Z-2
N15455 G1 X119.123 Y46.899
N15460 G1 X119.667 Y47.277
N15465 G1 X120.194 Y47.684
N15470 G1 X120.704 Y48.115
N15475 G1 X121.195 Y48.561
N15480 G1 X121.663 Y49.012
N15485 G1 X122.104 Y49.456
N15490 G1 X122.146 Y49.501
N15495 G1 Z-2.333 F1000
N15500 G1 X122.513 Y49.886 F2000
N15505 G1 X122.884 Y50.302
N15510 G1 X123.225 Y50.719
N15515 G1 X123.375 Y50.921
N15520 G1 X123.522 Y51.133
N15525 G1 X123.661 Y51.352
N15530 G1 X123.795 Y51.581
N15535 G1 X123.924 Y51.823
N15540 G1 X124.049 Y52.078
N15545 G1 X124.17 Y52.346
N15550 G1 X124.284 Y52.619
N15555 G1 X124.505 Y53.216
N15560 G1 X124.703 Y53.827
N15565 G1 X124.878 Y54.438
N15570 G1 X124.953 Y54.731
N15575 G1 X125.023 Y55.019
N15580 G1 X125.083 Y55.293
N15585 G1 X125.135 Y55.557
N15590 G1 X125.178 Y55.805
N15595 G1 X125.211 Y56.038
N15600 G1 X125.235 Y56.255
N15605 G1 X125.248 Y56.456
N15610 G1 X125.252 Y56.646
N15615 G1 X125.247 Y56.821
N15620 G1 X125.233 Y56.986
N15625 G1 X125.211 Y57.142
N15630 G1 X125.18 Y57.291
N15635 G1 X125.141 Y57.438
N15640 G1 X125.095 Y57.58
N15645 G1 X125.04 Y57.716
N15650 G1 X124.977 Y57.852
N15655 G1 X124.908 Y57.982
N15660 G1 X124.832 Y58.105
N15665 G1 X124.75 Y58.222
N15670 G1 X124.661 Y58.334
N15675 G1 X124.567 Y58.438
N15680 G1 X124.467 Y58.535
N15685 G1 X124.358 Y58.626
N15690 G1 X124.239 Y58.711
N15695 G1 X124.109 Y58.792
N15700 G1 X123.963 Y58.868
N15705 G1 X123.802 Y58.94
N15710 G1 X123.624 Y59.005
N15715 G1 X123.427 Y59.065
N15720 G1 X123.213 Y59.118
N15725 G1 X122.983 Y59.163
N15730 G1 X122.74 Y59.201
N15735 G1 X122.482 Y59.229
N15740 G1 X122.214 Y59.249
N15745 G1 X121.937 Y59.26
N15750 G1 X121.652 Y59.262
N15755 G1 X121.365 Y59.256
N15760 G1 X120.757 Y59.218
N15765 G1 X120.134 Y59.151
N15770 G1 X119.488 Y59.056
N15775 G1 X118.816 Y58.936
N15780 G1 X118.115 Y58.793
N15785 G1 X117.383 Y58.629
N15790 G1 X116.621 Y58.445
N15795 G1 X115.831 Y58.239
N15800 G1 X115.014 Y58.009
N15805 G1 X114.177 Y57.753
N15810 G1 X113.323 Y57.469
N15815 G1 X112.458 Y57.156
N15820 G1 X111.59 Y56.812
N15825 G1 X110.725 Y56.439
N15830 G1 X109.87 Y56.039
N15835 G1 X109.033 Y55.616
N15840 G1 X108.838 Y55.51
N15845 G1 Z-2
N15850 G1 X108.22 Y55.173
N15855 G1 X107.436 Y54.715
N15860 G1 X106.685 Y54.244
N15865 G1 X105.965 Y53.762
N15870 G1 X105.446 Y53.392
N15875 G1 Z-2.333 F1000
N15880 G1 X105.277 Y53.272 F2000
N15885 G1 X104.615 Y52.772
N15890 G1 X103.974 Y52.262
N15895 G1 X103.348 Y51.74
N15900 G1 X102.734 Y51.204
N15905 G1 X102.125 Y50.651
N15910 G1 X101.522 Y50.079
N15915 G1 X100.922 Y49.486
N15920 G1 X100.329 Y48.868
N15925 G1 X99.743 Y48.224
N15930 G1 X99.167 Y47.552
N15935 G1 X98.606 Y46.853
N15940 G1 X98.063 Y46.132
N15945 G1 X97.543 Y45.392
N15950 G1 X97.051 Y44.644
N15955 G1 X96.59 Y43.893
N15960 G1 X96.375 Y43.527
N15965 G1 X96.168 Y43.162
N15970 G1 X95.971 Y42.803
N15975 G1 X95.784 Y42.451
N15980 G1 X95.607 Y42.108
N15985 G1 X95.439 Y41.775
N15990 G1 X95.281 Y41.451
N15995 G1 X95.131 Y41.139
N16000 G1 X94.99 Y40.839
N16005 G1 X94.857 Y40.551
N16010 G1 X94.73 Y40.276
N16015 G1 X94.61 Y40.014
N16020 G1 X94.496 Y39.765
N16025 G1 X94.495 Y39.762
N16030 G1 X94.387 Y39.528
N16035 G1 X94.385 Y39.524
N16040 G1 X94.282 Y39.303
N16045 G1 X94.279 Y39.298
N16050 G1 X94.181 Y39.09
N16055 G1 X94.178 Y39.085
N16060 G1 X94.084 Y38.887
N16065 G1 X94.082 Y38.884
N16070 G1 X93.991 Y38.696
N16075 G1 X93.821 Y38.347
N16080 G1 X93.669 Y38.025
N16085 G1 X93.533 Y37.715
N16090 G1 X93.407 Y37.398
N16095 G1 X93.288 Y37.068
N16100 G1 X93.055 Y36.358
N16105 G1 X92.948 Y36.017
N16110 G1 X92.906 Y35.883
N16115 G1 X92.942 Y35.899
N16120 G1 X93.332 Y36.082
N16125 G1 X93.342 Y36.086
N16130 G1 X93.771 Y36.281
N16135 G1 X93.793 Y36.291
N16140 G1 X94.024 Y36.389
N16145 G1 X94.043 Y36.397
N16150 G1 X94.291 Y36.496
N16155 G1 X94.308 Y36.503
N16160 G1 X94.576 Y36.605
N16165 G1 X94.592 Y36.611
N16170 G1 X94.885 Y36.716
N16175 G1 X94.898 Y36.721
N16180 G1 X95.22 Y36.832
N16185 G1 X95.23 Y36.835
N16190 G1 X95.586 Y36.954
N16195 G1 X95.59 Y36.955
N16200 G1 X95.782 Y37.018
N16205 G1 X95.785 Y37.019
N16210 G1 X95.987 Y37.085
N16215 G1 X95.988
N16220 G1 X96.2 Y37.154
N16225 G1 X96.201
N16230 G1 X96.347 Y37.202
N16235 G1 Z-2
N16240 G1 X96.423 Y37.226
N16245 G1 X96.656 Y37.301
N16250 G1 X96.9 Y37.38
N16255 G1 X97.154 Y37.462
N16260 G1 X97.419 Y37.548
N16265 G1 X97.695 Y37.637
N16270 G1 X97.981 Y37.731
N16275 G1 X98.277 Y37.828
N16280 G1 X98.584 Y37.929
N16285 G1 X98.9 Y38.034
N16290 G1 X99.226 Y38.143
N16295 G1 X99.905 Y38.371
N16300 G1 X100.146 Y38.454
N16305 G1 Z-2.333 F1000
N16310 G1 X100.616 Y38.614 F2000
N16315 G1 X101.356 Y38.87
N16320 G1 X102.118 Y39.138
N16325 G1 X102.898 Y39.416
N16330 G1 X104.489 Y39.997
N16335 G1 X106.081 Y40.599
N16340 G1 X106.861 Y40.901
N16345 G1 X107.626 Y41.204
N16350 G1 X108.367 Y41.503
N16355 G1 X109.083 Y41.798
N16360 G1 X109.767 Y42.087
N16365 G1 X110.418 Y42.368
N16370 G1 X111.031 Y42.64
N16375 G1 X111.608 Y42.903
N16380 G1 X112.147 Y43.155
N16385 G1 X112.651 Y43.396
N16390 G1 X113.117 Y43.625
N16395 G1 X113.551 Y43.844
N16400 G1 X113.955 Y44.052
N16405 G1 X114.333 Y44.251
N16410 G1 X114.69 Y44.441
N16415 G1 X114.912 Y44.56
N16420 G1 Z-3.5 F1000
N16425 G1 X115.027 Y44.622 F2000
N16430 G1 X115.35 Y44.797
N16435 G1 X115.663 Y44.966
N16440 G1 X115.665 Y44.967
N16445 G1 X116.263 Y45.288
N16450 G1 X116.267 Y45.291
N16455 G1 X117.429 Y45.908
N16460 G1 X118.002 Y46.22
N16465 G1 X118.567 Y46.548
N16470 G1 X119.113 Y46.892
N16475 G1 Z-2
N16480 G1 X119.123 Y46.899
N16485 G1 X119.667 Y47.277
N16490 G1 X120.194 Y47.684
N16495 G1 X120.704 Y48.115
N16500 G1 X121.195 Y48.561
N16505 G1 X121.663 Y49.012
N16510 G1 X122.104 Y49.456
N16515 G1 X122.146 Y49.501
N16520 G1 Z-3.5 F1000
N16525 G1 X122.513 Y49.886 F2000
N16530 G1 X122.884 Y50.302
N16535 G1 X123.225 Y50.719
N16540 G1 X123.375 Y50.921
N16545 G1 X123.522 Y51.133
N16550 G1 X123.661 Y51.352
N16555 G1 X123.795 Y51.581
N16560 G1 X123.924 Y51.823
N16565 G1 X124.049 Y52.078
N16570 G1 X124.17 Y52.346
N16575 G1 X124.284 Y52.619
N16580 G1 X124.505 Y53.216
N16585 G1 X124.703 Y53.827
N16590 G1 X124.878 Y54.438
N16595 G1 X124.953 Y54.731
N16600 G1 X125.023 Y55.019
N16605 G1 X125.083 Y55.293
N16610 G1 X125.135 Y55.557
N16615 G1 X125.178 Y55.805
N16620 G1 X125.211 Y56.038
N16625 G1 X125.235 Y56.255
N16630 G1 X125.248 Y56.456
N16635 G1 X125.252 Y56.646
N16640 G1 X125.247 Y56.821
N16645 G1 X125.233 Y56.986
N16650 G1 X125.211 Y57.142
N16655 G1 X125.18 Y57.291
N16660 G1 X125.141 Y57.438
N16665 G1 X125.095 Y57.58
N16670 G1 X125.04 Y57.716
N16675 G1 X124.977 Y57.852
N16680 G1 X124.908 Y57.982
N16685 G1 X124.832 Y58.105
N16690 G1 X124.75 Y58.222
N16695 G1 X124.661 Y58.334
N16700 G1 X124.567 Y58.438
N16705 G1 X124.467 Y58.535
N16710 G1 X124.358 Y58.626
N16715 G1 X124.239 Y58.711
N16720 G1 X124.109 Y58.792
N16725 G1 X123.963 Y58.868
N16730 G1 X123.802 Y58.94
N16735 G1 X123.624 Y59.005
N16740 G1 X123.427 Y59.065
N16745 G1 X123.213 Y59.118
N16750 G1 X122.983 Y59.163
N16755 G1 X122.74 Y59.201
N16760 G1 X122.482 Y59.229
N16765 G1 X122.214 Y59.249
N16770 G1 X121.937 Y59.26
N16775 G1 X121.652 Y59.262
N16780 G1 X121.365 Y59.256
N16785 G1 X120.757 Y59.218
N16790 G1 X120.134 Y59.151
N16795 G1 X119.488 Y59.056
N16800 G1 X118.816 Y58.936
N16805 G1 X118.115 Y58.793
N16810 G1 X117.383 Y58.629
N16815 G1 X116.621 Y58.445
N16820 G1 X115.831 Y58.239
N16825 G1 X115.014 Y58.009
N16830 G1 X114.177 Y57.753
N16835 G1 X113.323 Y57.469
N16840 G1 X112.458 Y57.156
N16845 G1 X111.59 Y56.812
N16850 G1 X110.725 Y56.439
N16855 G1 X109.87 Y56.039
N16860 G1 X109.033 Y55.616
N16865 G1 X108.838 Y55.51
N16870 G1 Z-2
N16875 G1 X108.22 Y55.173
N16880 G1 X107.436 Y54.715
N16885 G1 X106.685 Y54.244
N16890 G1 X105.965 Y53.762
N16895 G1 X105.446 Y53.392
N16900 G1 Z-3.5 F1000
N16905 G1 X105.277 Y53.272 F2000
N16910 G1 X104.615 Y52.772
N16915 G1 X103.974 Y52.262
N16920 G1 X103.348 Y51.74
N16925 G1 X102.734 Y51.204
N16930 G1 X102.125 Y50.651
N16935 G1 X101.522 Y50.079
N16940 G1 X100.922 Y49.486
N16945 G1 X100.329 Y48.868
N16950 G1 X99.743 Y48.224
N16955 G1 X99.167 Y47.552
N16960 G1 X98.606 Y46.853
N16965 G1 X98.063 Y46.132
N16970 G1 X97.543 Y45.392
N16975 G1 X97.051 Y44.644
N16980 G1 X96.59 Y43.893
N16985 G1 X96.375 Y43.527
N16990 G1 X96.168 Y43.162
N16995 G1 X95.971 Y42.803
N17000 G1 X95.784 Y42.451
N17005 G1 X95.607 Y42.108
N17010 G1 X95.439 Y41.775
N17015 G1 X95.281 Y41.451
N17020 G1 X95.131 Y41.139
N17025 G1 X94.99 Y40.839
N17030 G1 X94.857 Y40.551
N17035 G1 X94.73 Y40.276
N17040 G1 X94.61 Y40.014
N17045 G1 X94.496 Y39.765
N17050 G1 X94.495 Y39.762
N17055 G1 X94.387 Y39.528
N17060 G1 X94.385 Y39.524
N17065 G1 X94.282 Y39.303
N17070 G1 X94.279 Y39.298
N17075 G1 X94.181 Y39.09
N17080 G1 X94.178 Y39.085
N17085 G1 X94.084 Y38.887
N17090 G1 X94.082 Y38.884
N17095 G1 X93.991 Y38.696
N17100 G1 X93.821 Y38.347
N17105 G1 X93.669 Y38.025
N17110 G1 X93.533 Y37.715
N17115 G1 X93.407 Y37.398
N17120 G1 X93.288 Y37.068
N17125 G1 X93.055 Y36.358
N17130 G1 X92.948 Y36.017
N17135 G1 X92.906 Y35.883
N17140 G1 X92.942 Y35.899
N17145 G1 X93.332 Y36.082
N17150 G1 X93.342 Y36.086
N17155 G1 X93.771 Y36.281
N17160 G1 X93.793 Y36.291
N17165 G1 X94.024 Y36.389
N17170 G1 X94.043 Y36.397
N17175 G1 X94.291 Y36.496
N17180 G1 X94.308 Y36.503
N17185 G1 X94.576 Y36.605
N17190 G1 X94.592 Y36.611
N17195 G1 X94.885 Y36.716
N17200 G1 X94.898 Y36.721
N17205 G1 X95.22 Y36.832
N17210 G1 X95.23 Y36.835
N17215 G1 X95.586 Y36.954
N17220 G1 X95.59 Y36.955
N17225 G1 X95.782 Y37.018
N17230 G1 X95.785 Y37.019
N17235 G1 X95.987 Y37.085
N17240 G1 X95.988
N17245 G1 X96.2 Y37.154
N17250 G1 X96.201
N17255 G1 X96.347 Y37.202
N17260 G1 Z-2
N17265 G1 X96.423 Y37.226
N17270 G1 X96.656 Y37.301
N17275 G1 X96.9 Y37.38
N17280 G1 X97.154 Y37.462
N17285 G1 X97.419 Y37.548
N17290 G1 X97.695 Y37.637
N17295 G1 X97.981 Y37.731
N17300 G1 X98.277 Y37.828
N17305 G1 X98.584 Y37.929
N17310 G1 X98.9 Y38.034
N17315 G1 X99.226 Y38.143
N17320 G1 X99.905 Y38.371
N17325 G1 X100.146 Y38.454
N17330 G1 Z-3.5 F1000
N17335 G1 X100.616 Y38.614 F2000
N17340 G1 X101.356 Y38.87
N17345 G1 X102.118 Y39.138
N17350 G1 X102.898 Y39.416
N17355 G1 X104.489 Y39.997
N17360 G1 X106.081 Y40.599
N17365 G1 X106.861 Y40.901
N17370 G1 X107.626 Y41.204
N17375 G1 X108.367 Y41.503
N17380 G1 X109.083 Y41.798
N17385 G1 X109.767 Y42.087
N17390 G1 X110.418 Y42.368
N17395 G1 X111.031 Y42.64
N17400 G1 X111.608 Y42.903
N17405 G1 X112.147 Y43.155
N17410 G1 X112.651 Y43.396
N17415 G1 X113.117 Y43.625
N17420 G1 X113.551 Y43.844
N17425 G1 X113.955 Y44.052
N17430 G1 X114.333 Y44.251
N17435 G1 X114.69 Y44.441
N17440 G1 X114.912 Y44.56
N17445 G0 Z10
N17450 G0 X114.838 Y9.045
N17455 G0 Z5
N17460 G1 Z0.4 F1000
N17465 G1 Z-1.167
N17470 G1 X115.321 Y9.247 F2000
N17475 G1 X116.006 Y9.57
N17480 G1 X116.686 Y9.928
N17485 G1 X117.362 Y10.318
N17490 G1 X118.029 Y10.736
N17495 G1 X118.685 Y11.178
N17500 G1 X119.323 Y11.639
N17505 G1 X119.942 Y12.116
N17510 G1 X120.534 Y12.604
N17515 G1 X121.096 Y13.104
N17520 G1 X121.626 Y13.618
N17525 G1 X121.872 Y13.874
N17530 G1 X122.111 Y14.135
N17535 G1 X122.338 Y14.398
N17540 G1 X122.556 Y14.664
N17545 G1 X122.761 Y14.932
N17550 G1 X122.954 Y15.203
N17555 G1 X123.136 Y15.477
N17560 G1 X123.306 Y15.755
N17565 G1 X123.465 Y16.036
N17570 G1 X123.61 Y16.319
N17575 G1 X123.743 Y16.606
N17580 G1 X123.864 Y16.898
N17585 G1 X123.973 Y17.195
N17590 G1 X124.071 Y17.497
N17595 G1 X124.156 Y17.804
N17600 G1 X124.228 Y18.115
N17605 G1 X124.289 Y18.433
N17610 G1 X124.337 Y18.756
N17615 G1 X124.374 Y19.085
N17620 G1 X124.398 Y19.419
N17625 G1 X124.411 Y19.758
N17630 G1 X124.412 Y20.104
N17635 G1 X124.403 Y20.452
N17640 G1 X124.382 Y20.803
N17645 G1 X124.35 Y21.158
N17650 G1 X124.309 Y21.509
N17655 G1 X124.198 Y22.232
N17660 G1 X124.058 Y22.94
N17665 G1 X123.894 Y23.631
N17670 G1 X123.809 Y23.959
N17675 G1 X123.72 Y24.282
N17680 G1 X123.631 Y24.591
N17685 G1 X123.542 Y24.887
N17690 G1 X123.455 Y25.17
N17695 G1 X123.37 Y25.434
N17700 G1 X123.288 Y25.683
N17705 G1 X123.208 Y25.915
N17710 G1 X123.131 Y26.131
N17715 G1 X123.058 Y26.331
N17720 G1 X122.989 Y26.514
N17725 G1 X122.924 Y26.679
N17730 G1 X122.86 Y26.835
N17735 G1 X122.8 Y26.976
N17740 G1 X122.746 Y27.1
N17745 G1 X122.692 Y27.215
N17750 G1 X122.588 Y27.432
N17755 G1 X122.49 Y27.628
N17760 G1 X122.395 Y27.816
N17765 G1 X122.379 Y27.85
N17770 G1 X122.295 Y28.034
N17775 G1 X122.266 Y28.104
N17780 G1 X122.196 Y28.294
N17785 G1 X122.165 Y28.394
N17790 G1 X122.113 Y28.599
N17795 G1 X122.09 Y28.718
N17800 G1 X122.061 Y28.945
N17805 G1 X122.053 Y29.064
N17810 G1 X122.051 Y29.317
N17815 G1 X122.055 Y29.411
N17820 G1 X122.079 Y29.69
N17825 G1 X122.088 Y29.764
N17830 G1 X122.137 Y30.068
N17835 G1 X122.147 Y30.12
N17840 G1 X122.217 Y30.443
N17845 G1 X122.226 Y30.484
N17850 G1 X122.314 Y30.822
N17855 G1 X122.321 Y30.848
N17860 G1 X122.421 Y31.194
N17865 G1 X122.428 Y31.216
N17870 G1 X122.645 Y31.906
N17875 G1 X122.649 Y31.917
N17880 G1 X122.758 Y32.25
N17885 G1 Y32.252
N17890 G1 X122.863 Y32.571
N17895 G1 X122.962 Y32.873
N17900 G1 X123.055 Y33.158
N17905 G1 X123.056 Y33.162
N17910 G1 X123.145 Y33.434
N17915 G1 X123.147 Y33.44
N17920 G1 X123.233 Y33.697
N17925 G1 X123.236 Y33.705
N17930 G1 X123.32 Y33.949
N17935 G1 X123.326 Y33.966
N17940 G1 X123.411 Y34.199
N17945 G1 X123.421 Y34.227
N17950 G1 X123.51 Y34.449
N17955 G1 X123.525 Y34.484
N17960 G1 X123.62 Y34.698
N17965 G1 X123.642 Y34.745
N17970 G1 X123.746 Y34.95
N17975 G1 X123.772 Y34.998
N17980 G1 X123.885 Y35.194
N17985 G1 X123.922 Y35.253
N17990 G1 X124.046 Y35.436
N17995 G1 X124.096 Y35.504
N18000 G1 X124.232 Y35.673
N18005 G1 X124.295 Y35.744
N18010 G1 X124.442 Y35.895
N18015 G1 X124.526 Y35.972
N18020 G1 X124.684 Y36.101
N18025 G1 X124.738 Y36.141
N18030 G1 X124.794 Y36.179
N18035 G1 X124.963 Y36.282
N18040 G1 X125.028 Y36.319
N18045 G1 X125.096 Y36.35
N18050 G1 X125.275 Y36.426
N18055 G1 X125.35 Y36.454
N18060 G1 X125.426 Y36.476
N18065 G1 X125.613 Y36.521
N18070 G1 X125.692 Y36.538
N18075 G1 X125.772 Y36.547
N18080 G1 X125.967 Y36.562
N18085 G1 X126.043 Y36.566
N18090 G1 X126.119 Y36.563
N18095 G1 X126.319 Y36.548
N18100 G1 X126.385 Y36.541
N18105 G1 X126.451 Y36.53
N18110 G1 X126.657 Y36.487
N18115 G1 X126.768 Y36.457
N18120 G1 X126.977 Y36.387
N18125 G1 X127.067 Y36.352
N18130 G1 X127.278 Y36.258
N18135 G1 X127.35 Y36.223
N18140 G1 X127.563 Y36.107
N18145 G1 X127.62 Y36.073
N18150 G1 X127.835 Y35.937
N18155 G1 X127.887 Y35.902
N18160 G1 X128.102 Y35.746
N18165 G1 X128.146 Y35.712
N18170 G1 X128.362 Y35.537
N18175 G1 X128.402 Y35.502
N18180 G1 X128.619 Y35.306
N18185 G1 X128.654 Y35.273
N18190 G1 X128.874 Y35.054
N18195 G1 X128.907 Y35.019
N18200 G1 X129.13 Y34.774
N18205 G1 X129.16 Y34.74
N18210 G1 X129.387 Y34.466
N18215 G1 X129.413 Y34.434
N18220 G1 X129.646 Y34.129
N18225 G1 X129.669 Y34.097
N18230 G1 X129.908 Y33.757
N18235 G1 X129.928 Y33.727
N18240 G1 X130.174 Y33.349
N18245 G1 X130.187 Y33.329
N18250 G1 X130.313 Y33.125
N18255 G1 X130.322 Y33.11
N18260 G1 X130.449 Y32.895
N18265 G1 X130.456 Y32.883
N18270 G1 X130.585 Y32.658
N18275 G1 X130.592 Y32.647
N18280 G1 X130.723 Y32.411
N18285 G1 X130.73 Y32.398
N18290 G1 X130.862 Y32.152
N18295 G1 X130.867 Y32.142
N18300 G1 X131.001 Y31.885
N18305 G1 X131.009 Y31.871
N18310 G1 X131.143 Y31.603
N18315 G1 X131.147 Y31.595
N18320 G1 X131.283 Y31.318
N18325 G1 X131.291 Y31.301
N18330 G1 X131.564 Y30.717
N18335 G1 X131.574 Y30.694
N18340 G1 X131.845 Y30.075
N18345 G1 X131.854 Y30.055
N18350 G1 X132.121 Y29.406
N18355 G1 X132.13 Y29.382
N18360 G1 X132.387 Y28.71
N18365 G1 X132.396 Y28.686
N18370 G1 X132.639 Y27.996
N18375 G1 X132.648 Y27.97
N18380 G1 X132.873 Y27.269
N18385 G1 X132.881 Y27.242
N18390 G1 X133.086 Y26.534
N18395 G1 X133.095 Y26.503
N18400 G1 X133.276 Y25.792
N18405 G1 X133.283 Y25.761
N18410 G1 X133.44 Y25.051
N18415 G1 X133.448 Y25.014
N18420 G1 X133.577 Y24.306
N18425 G1 X133.583 Y24.267
N18430 G1 X133.683 Y23.564
N18435 G1 X133.688 Y23.524
N18440 G1 X133.759 Y22.827
N18445 G1 X133.762 Y22.785
N18450 G1 X133.803 Y22.094
N18455 G1 X133.805 Y22.05
N18460 G1 X133.816 Y21.367
N18465 G1 Y21.323
N18470 G1 X133.797 Y20.647
N18475 G1 X133.794 Y20.6
N18480 G1 X133.744 Y19.932
N18485 G1 X133.74 Y19.886
N18490 G1 X133.66 Y19.225
N18495 G1 X133.654 Y19.183
N18500 G1 X133.546 Y18.528
N18505 G1 X133.537 Y18.484
N18510 G1 X133.4 Y17.836
N18515 G1 X133.391 Y17.794
N18520 G1 X133.226 Y17.152
N18525 G1 X133.215 Y17.114
N18530 G1 X133.024 Y16.476
N18535 G1 X133.013 Y16.44
N18540 G1 X132.797 Y15.807
N18545 G1 X132.784 Y15.772
N18550 G1 X132.543 Y15.142
N18555 G1 X132.531 Y15.112
N18560 G1 X132.268 Y14.485
N18565 G1 X132.255 Y14.455
N18570 G1 X131.969 Y13.831
N18575 G1 X131.957 Y13.805
N18580 G1 X131.65 Y13.184
N18585 G1 X131.637 Y13.159
N18590 G1 X131.31 Y12.541
N18595 G1 X131.297 Y12.518
N18600 G1 X130.951 Y11.903
N18605 G1 X130.939 Y11.882
N18610 G1 X130.575 Y11.271
N18615 G1 X130.563 Y11.251
N18620 G1 X130.182 Y10.645
N18625 G1 X130.168 Y10.625
N18630 G1 X129.77 Y10.024
N18635 G1 X129.757 Y10.005
N18640 G1 X129.343 Y9.411
N18645 G1 X129.33 Y9.394
N18650 G1 X128.902 Y8.808
N18655 G1 X128.888 Y8.789
N18660 G1 X128.445 Y8.212
N18665 G1 X128.432 Y8.195
