
This G-code is the result of a post-processor modification by chiefenne.
The original post-processor (version 45917) was modified to include additional features.
The postprocessor is intended for use with the KinetiC-NC control software from CNC-STEP.
For more information, please visit the CNC-STEP website at https://www.cnc-step.com/

The following modifications have been made to the original post-processor:
 - Intial section which supports a specific safe path to the workpiece origin (G54)
 - Jump labels between sections (e.g., 2D adaptive clearing, pockets, etc.)
   Allows to execute individual sections separately
 - Repeat / Next with counter for each operation
   Allows to redo sections multiple times
 - Allow ':' as a permitted character in comments
 - Swap spindle speed and direction, M3 S12000 instead of S12000 M3

%
(LOEWE Anagram Charm)
(Anagram Charm)
(Machine:)
(  vendor: CNC STEP)
(  model: HIGH-Z S-720T)
(  description: Generic 3-axis)

(Tools used in this program:)
(T2 D=2 CR=0 - ZMIN=-3.5 - Schaftfrser)

(Safe path to workpiece origin - typically G54)
G54
#100=#900 (read x-offset which was set in G54)
#101=0   (safe y for going to workpiece)
#102=0   (safe z for going to workpiece)
PRINT "x-offset = ";#100;"mm"
PRINT "y-offset = ";#101;"mm"
PRINT "z-offset = ";#102;"mm"
ASKBOOL "Continue with offsets?" I=2
IF #0=0 THEN
  ASKFLT "Enter x-offset" I=0.0 J=720.0
  #100=#0
  PRINT "x-offset = ";#100;"mm"
ENDIF

N10 G90 G94
N15 G17
N20 G21

G53
G0 Z=#102
G0 Y=#101
G0 X=#100

(Modify SKIP label to jump to the respective section)
(To activate, remove the brackets around SKIP and JUMP labels)
(Skip label is without : and JUMP label is with :)
(SKIP Q0002)
(Q0001:)

(2D-Kontur1)
N25 T2 M66
(Schaftfraeser 2mm Holz, GFK, CFK)
N30 M3 S24000
N35 G17 G90 G94
N40 G54
N45 G0 X20.7390 Y19.3047
N50 G0 G43 Z20.0000 H2
(Edit repeat count according to needs)
REPEAT=1
N55 G0 Z5.0000
N60 G1 Z0.4000 F1000
N65 G1 Z-1.1670
N70 G1 X20.8116 Y19.3785 F2000
N75 G1 X20.8194 Y19.3866
N80 G1 X20.8926 Y19.4556
N85 G1 X20.8980 Y19.4607
N90 G1 X20.9709 Y19.5264
N95 G1 X20.9766 Y19.5315
N100 G1 X21.0492 Y19.5936
N105 G1 X21.0552 Y19.5987
N110 G1 X21.1272 Y19.6572
N115 G1 X21.1368 Y19.6644
N120 G1 X21.2814 Y19.7727
N125 G1 X21.2940 Y19.7817
N130 G1 X21.4458 Y19.8834
N135 G1 X21.4560 Y19.8900
N140 G1 X21.5370 Y19.9398
N145 G1 X21.5448 Y19.9443
N150 G1 X21.6303 Y19.9932
N155 G1 X21.6390 Y19.9983
N160 G1 X21.7293 Y20.0460
N165 G1 X21.7398 Y20.0511
N170 G1 X21.8346 Y20.0967
N175 G1 X21.8463 Y20.1021
N180 G1 X21.8526 Y20.1048
N185 G1 X21.8463 Y20.1075
N190 G1 X21.8346 Y20.1126
N195 G1 X21.7395 Y20.1585
N200 G1 X21.7293 Y20.1636
N205 G1 X21.6393 Y20.2113
N210 G1 X21.6303 Y20.2161
N215 G1 X21.5448 Y20.2653
N220 G1 X21.5370 Y20.2698
N225 G1 X21.4560 Y20.3196
N230 G1 X21.4458 Y20.3262
N235 G1 X21.2940 Y20.4279
N240 G1 X21.2814 Y20.4369
N245 G1 X21.1368 Y20.5449
N250 G1 X21.1272 Y20.5524
N255 G1 X21.0552 Y20.6109
N260 G1 X21.0492 Y20.6160
N265 G1 X20.9766 Y20.6781
N270 G1 X20.9709 Y20.6832
N275 G1 X20.8980 Y20.7489
N280 G1 X20.8923 Y20.7540
N285 G1 X20.8194 Y20.8230
N290 G1 X20.8116 Y20.8308
N295 G1 X20.6679 Y20.9772
N300 G1 X20.6571 Y20.9889
N305 G1 X20.5215 Y21.1431
N310 G1 X20.5128 Y21.1533
N315 G1 X20.4495 Y21.2322
N320 G1 X20.4432 Y21.2400
N325 G1 X20.3835 Y21.3198
N330 G1 X20.3772 Y21.3282
N335 G1 X20.3208 Y21.4092
N340 G1 X20.3148 Y21.4182
N345 G1 X20.2617 Y21.5004
N350 G1 X20.2560 Y21.5097
N355 G1 X20.2062 Y21.5934
N360 G1 X20.2008 Y21.6027
N365 G1 X20.1540 Y21.6885
N370 G1 X20.1489 Y21.6978
N375 G1 X20.1045 Y21.7860
N380 G1 X20.1003 Y21.7947
N385 G1 X20.0580 Y21.8859
N390 G1 X20.0544 Y21.8940
N395 G1 X20.0499 Y21.9048
N400 G1 X19.7952
N405 G1 X19.7907 Y21.8940
N410 G1 X19.7868 Y21.8859
N415 G1 X19.7445 Y21.7947
N420 G1 X19.7403 Y21.7860
N425 G1 X19.6959 Y21.6978
N430 G1 X19.6911 Y21.6885
N435 G1 X19.6440 Y21.6027
N440 G1 X19.6389 Y21.5934
N445 G1 X19.5891 Y21.5097
N450 G1 X19.5831 Y21.5004
N455 G1 X19.5303 Y21.4182
N460 G1 X19.5240 Y21.4092
N465 G1 X19.4676 Y21.3282
N470 G1 X19.4616 Y21.3198
N475 G1 X19.4016 Y21.2400
N480 G1 X19.3956 Y21.2322
N485 G1 X19.3323 Y21.1533
N490 G1 X19.3236 Y21.1431
N495 G1 X19.1877 Y20.9892
N500 G1 X19.1769 Y20.9772
N505 G1 X19.0335 Y20.8308
N510 G1 X19.0254 Y20.8230
N515 G1 X18.9525 Y20.7540
N520 G1 X18.9471 Y20.7489
N525 G1 X18.8742 Y20.6832
N530 G1 X18.8685 Y20.6781
N535 G1 X18.7959 Y20.6160
N540 G1 X18.7896 Y20.6109
N545 G1 X18.7176 Y20.5524
N550 G1 X18.7083 Y20.5449
N555 G1 X18.5637 Y20.4369
N560 G1 X18.5511 Y20.4279
N565 G1 X18.3990 Y20.3262
N570 G1 X18.3891 Y20.3196
N575 G1 X18.3081 Y20.2698
N580 G1 X18.3003 Y20.2653
N585 G1 X18.2148 Y20.2161
N590 G1 X18.2058 Y20.2113
N595 G1 X18.1158 Y20.1636
N600 G1 X18.1053 Y20.1585
N605 G1 X18.0105 Y20.1126
N610 G1 X17.9985 Y20.1075
N615 G1 X17.9925 Y20.1048
N620 G1 X17.9985 Y20.1021
N625 G1 X18.0102 Y20.0967
N630 G1 X18.1053 Y20.0511
N635 G1 X18.1158 Y20.0460
N640 G1 X18.2058 Y19.9983
N645 G1 X18.2148 Y19.9932
N650 G1 X18.3003 Y19.9443
N655 G1 X18.3081 Y19.9398
N660 G1 X18.3891 Y19.8900
N665 G1 X18.3990 Y19.8834
N670 G1 X18.5511 Y19.7817
N675 G1 X18.5637 Y19.7727
N680 G1 X18.7083 Y19.6644
N685 G1 X18.7176 Y19.6572
N690 G1 X18.7896 Y19.5987
N695 G1 X18.7959 Y19.5936
N700 G1 X18.8685 Y19.5315
N705 G1 X18.8742 Y19.5264
N710 G1 X18.9471 Y19.4607
N715 G1 X18.9525 Y19.4556
N720 G1 X19.0254 Y19.3866
N725 G1 X19.0335 Y19.3785
N730 G1 X19.1769 Y19.2321
N735 G1 X19.1877 Y19.2204
N740 G1 X19.3236 Y19.0665
N745 G1 X19.3323 Y19.0560
N750 G1 X19.3956 Y18.9774
N755 G1 X19.4016 Y18.9696
N760 G1 X19.4616 Y18.8898
N765 G1 X19.4676 Y18.8811
N770 G1 X19.5243 Y18.8004
N775 G1 X19.5303 Y18.7914
N780 G1 X19.5831 Y18.7092
N785 G1 X19.5891 Y18.6999
N790 G1 X19.6389 Y18.6162
N795 G1 X19.6440 Y18.6069
N800 G1 X19.6911 Y18.5211
N805 G1 X19.6959 Y18.5118
N810 G1 X19.7403 Y18.4236
N815 G1 X19.7445 Y18.4149
N820 G1 X19.7868 Y18.3237
N825 G1 X19.7904 Y18.3153
N830 G1 X19.7952 Y18.3048
N835 G1 X19.9224
N840 G1 X20.0499
N845 G1 X20.0544 Y18.3156
N850 G1 X20.0580 Y18.3237
N855 G1 X20.1003 Y18.4149
N860 G1 X20.1045 Y18.4236
N865 G1 X20.1489 Y18.5118
N870 G1 X20.1540 Y18.5211
N875 G1 X20.2008 Y18.6069
N880 G1 X20.2062 Y18.6162
N885 G1 X20.2560 Y18.6999
N890 G1 X20.2617 Y18.7092
N895 G1 X20.3148 Y18.7914
N900 G1 X20.3208 Y18.8004
N905 G1 X20.3772 Y18.8811
N910 G1 X20.3835 Y18.8898
N915 G1 X20.4435 Y18.9696
N920 G1 X20.4495 Y18.9774
N925 G1 X20.5128 Y19.0560
N930 G1 X20.5215 Y19.0665
N935 G1 X20.6571 Y19.2204
N940 G1 X20.6679 Y19.2321
N945 G1 X20.7390 Y19.3047
N950 G1 Z-2.3330 F1000
N955 G1 X20.8116 Y19.3785 F2000
N960 G1 X20.8194 Y19.3866
N965 G1 X20.8926 Y19.4556
N970 G1 X20.8980 Y19.4607
N975 G1 X20.9709 Y19.5264
N980 G1 X20.9766 Y19.5315
N985 G1 X21.0492 Y19.5936
N990 G1 X21.0552 Y19.5987
N995 G1 X21.1272 Y19.6572
N1000 G1 X21.1368 Y19.6644
N1005 G1 X21.2814 Y19.7727
N1010 G1 X21.2940 Y19.7817
N1015 G1 X21.4458 Y19.8834
N1020 G1 X21.4560 Y19.8900
N1025 G1 X21.5370 Y19.9398
N1030 G1 X21.5448 Y19.9443
N1035 G1 X21.6303 Y19.9932
N1040 G1 X21.6390 Y19.9983
N1045 G1 X21.7293 Y20.0460
N1050 G1 X21.7398 Y20.0511
N1055 G1 X21.8346 Y20.0967
N1060 G1 X21.8463 Y20.1021
N1065 G1 X21.8526 Y20.1048
N1070 G1 X21.8463 Y20.1075
N1075 G1 X21.8346 Y20.1126
N1080 G1 X21.7395 Y20.1585
N1085 G1 X21.7293 Y20.1636
N1090 G1 X21.6393 Y20.2113
N1095 G1 X21.6303 Y20.2161
N1100 G1 X21.5448 Y20.2653
N1105 G1 X21.5370 Y20.2698
N1110 G1 X21.4560 Y20.3196
N1115 G1 X21.4458 Y20.3262
N1120 G1 X21.2940 Y20.4279
N1125 G1 X21.2814 Y20.4369
N1130 G1 X21.1368 Y20.5449
N1135 G1 X21.1272 Y20.5524
N1140 G1 X21.0552 Y20.6109
N1145 G1 X21.0492 Y20.6160
N1150 G1 X20.9766 Y20.6781
N1155 G1 X20.9709 Y20.6832
N1160 G1 X20.8980 Y20.7489
N1165 G1 X20.8923 Y20.7540
N1170 G1 X20.8194 Y20.8230
N1175 G1 X20.8116 Y20.8308
N1180 G1 X20.6679 Y20.9772
N1185 G1 X20.6571 Y20.9889
N1190 G1 X20.5215 Y21.1431
N1195 G1 X20.5128 Y21.1533
N1200 G1 X20.4495 Y21.2322
N1205 G1 X20.4432 Y21.2400
N1210 G1 X20.3835 Y21.3198
N1215 G1 X20.3772 Y21.3282
N1220 G1 X20.3208 Y21.4092
N1225 G1 X20.3148 Y21.4182
N1230 G1 X20.2617 Y21.5004
N1235 G1 X20.2560 Y21.5097
N1240 G1 X20.2062 Y21.5934
N1245 G1 X20.2008 Y21.6027
N1250 G1 X20.1540 Y21.6885
N1255 G1 X20.1489 Y21.6978
N1260 G1 X20.1045 Y21.7860
N1265 G1 X20.1003 Y21.7947
N1270 G1 X20.0580 Y21.8859
N1275 G1 X20.0544 Y21.8940
N1280 G1 X20.0499 Y21.9048
N1285 G1 X19.7952
N1290 G1 X19.7907 Y21.8940
N1295 G1 X19.7868 Y21.8859
N1300 G1 X19.7445 Y21.7947
N1305 G1 X19.7403 Y21.7860
N1310 G1 X19.6959 Y21.6978
N1315 G1 X19.6911 Y21.6885
N1320 G1 X19.6440 Y21.6027
N1325 G1 X19.6389 Y21.5934
N1330 G1 X19.5891 Y21.5097
N1335 G1 X19.5831 Y21.5004
N1340 G1 X19.5303 Y21.4182
N1345 G1 X19.5240 Y21.4092
N1350 G1 X19.4676 Y21.3282
N1355 G1 X19.4616 Y21.3198
N1360 G1 X19.4016 Y21.2400
N1365 G1 X19.3956 Y21.2322
N1370 G1 X19.3323 Y21.1533
N1375 G1 X19.3236 Y21.1431
N1380 G1 X19.1877 Y20.9892
N1385 G1 X19.1769 Y20.9772
N1390 G1 X19.0335 Y20.8308
N1395 G1 X19.0254 Y20.8230
N1400 G1 X18.9525 Y20.7540
N1405 G1 X18.9471 Y20.7489
N1410 G1 X18.8742 Y20.6832
N1415 G1 X18.8685 Y20.6781
N1420 G1 X18.7959 Y20.6160
N1425 G1 X18.7896 Y20.6109
N1430 G1 X18.7176 Y20.5524
N1435 G1 X18.7083 Y20.5449
N1440 G1 X18.5637 Y20.4369
N1445 G1 X18.5511 Y20.4279
N1450 G1 X18.3990 Y20.3262
N1455 G1 X18.3891 Y20.3196
N1460 G1 X18.3081 Y20.2698
N1465 G1 X18.3003 Y20.2653
N1470 G1 X18.2148 Y20.2161
N1475 G1 X18.2058 Y20.2113
N1480 G1 X18.1158 Y20.1636
N1485 G1 X18.1053 Y20.1585
N1490 G1 X18.0105 Y20.1126
N1495 G1 X17.9985 Y20.1075
N1500 G1 X17.9925 Y20.1048
N1505 G1 X17.9985 Y20.1021
N1510 G1 X18.0102 Y20.0967
N1515 G1 X18.1053 Y20.0511
N1520 G1 X18.1158 Y20.0460
N1525 G1 X18.2058 Y19.9983
N1530 G1 X18.2148 Y19.9932
N1535 G1 X18.3003 Y19.9443
N1540 G1 X18.3081 Y19.9398
N1545 G1 X18.3891 Y19.8900
N1550 G1 X18.3990 Y19.8834
N1555 G1 X18.5511 Y19.7817
N1560 G1 X18.5637 Y19.7727
N1565 G1 X18.7083 Y19.6644
N1570 G1 X18.7176 Y19.6572
N1575 G1 X18.7896 Y19.5987
N1580 G1 X18.7959 Y19.5936
N1585 G1 X18.8685 Y19.5315
N1590 G1 X18.8742 Y19.5264
N1595 G1 X18.9471 Y19.4607
N1600 G1 X18.9525 Y19.4556
N1605 G1 X19.0254 Y19.3866
N1610 G1 X19.0335 Y19.3785
N1615 G1 X19.1769 Y19.2321
N1620 G1 X19.1877 Y19.2204
N1625 G1 X19.3236 Y19.0665
N1630 G1 X19.3323 Y19.0560
N1635 G1 X19.3956 Y18.9774
N1640 G1 X19.4016 Y18.9696
N1645 G1 X19.4616 Y18.8898
N1650 G1 X19.4676 Y18.8811
N1655 G1 X19.5243 Y18.8004
N1660 G1 X19.5303 Y18.7914
N1665 G1 X19.5831 Y18.7092
N1670 G1 X19.5891 Y18.6999
N1675 G1 X19.6389 Y18.6162
N1680 G1 X19.6440 Y18.6069
N1685 G1 X19.6911 Y18.5211
N1690 G1 X19.6959 Y18.5118
N1695 G1 X19.7403 Y18.4236
N1700 G1 X19.7445 Y18.4149
N1705 G1 X19.7868 Y18.3237
N1710 G1 X19.7904 Y18.3153
N1715 G1 X19.7952 Y18.3048
N1720 G1 X19.9224
N1725 G1 X20.0499
N1730 G1 X20.0544 Y18.3156
N1735 G1 X20.0580 Y18.3237
N1740 G1 X20.1003 Y18.4149
N1745 G1 X20.1045 Y18.4236
N1750 G1 X20.1489 Y18.5118
N1755 G1 X20.1540 Y18.5211
N1760 G1 X20.2008 Y18.6069
N1765 G1 X20.2062 Y18.6162
N1770 G1 X20.2560 Y18.6999
N1775 G1 X20.2617 Y18.7092
N1780 G1 X20.3148 Y18.7914
N1785 G1 X20.3208 Y18.8004
N1790 G1 X20.3772 Y18.8811
N1795 G1 X20.3835 Y18.8898
N1800 G1 X20.4435 Y18.9696
N1805 G1 X20.4495 Y18.9774
N1810 G1 X20.5128 Y19.0560
N1815 G1 X20.5215 Y19.0665
N1820 G1 X20.6571 Y19.2204
N1825 G1 X20.6679 Y19.2321
N1830 G1 X20.7390 Y19.3047
N1835 G1 Z-3.5000 F1000
N1840 G1 X20.8116 Y19.3785 F2000
N1845 G1 X20.8194 Y19.3866
N1850 G1 X20.8926 Y19.4556
N1855 G1 X20.8980 Y19.4607
N1860 G1 X20.9709 Y19.5264
N1865 G1 X20.9766 Y19.5315
N1870 G1 X21.0492 Y19.5936
N1875 G1 X21.0552 Y19.5987
N1880 G1 X21.1272 Y19.6572
N1885 G1 X21.1368 Y19.6644
N1890 G1 X21.2814 Y19.7727
N1895 G1 X21.2940 Y19.7817
N1900 G1 X21.4458 Y19.8834
N1905 G1 X21.4560 Y19.8900
N1910 G1 X21.5370 Y19.9398
N1915 G1 X21.5448 Y19.9443
N1920 G1 X21.6303 Y19.9932
N1925 G1 X21.6390 Y19.9983
N1930 G1 X21.7293 Y20.0460
N1935 G1 X21.7398 Y20.0511
N1940 G1 X21.8346 Y20.0967
N1945 G1 X21.8463 Y20.1021
N1950 G1 X21.8526 Y20.1048
N1955 G1 X21.8463 Y20.1075
N1960 G1 X21.8346 Y20.1126
N1965 G1 X21.7395 Y20.1585
N1970 G1 X21.7293 Y20.1636
N1975 G1 X21.6393 Y20.2113
N1980 G1 X21.6303 Y20.2161
N1985 G1 X21.5448 Y20.2653
N1990 G1 X21.5370 Y20.2698
N1995 G1 X21.4560 Y20.3196
N2000 G1 X21.4458 Y20.3262
N2005 G1 X21.2940 Y20.4279
N2010 G1 X21.2814 Y20.4369
N2015 G1 X21.1368 Y20.5449
N2020 G1 X21.1272 Y20.5524
N2025 G1 X21.0552 Y20.6109
N2030 G1 X21.0492 Y20.6160
N2035 G1 X20.9766 Y20.6781
N2040 G1 X20.9709 Y20.6832
N2045 G1 X20.8980 Y20.7489
N2050 G1 X20.8923 Y20.7540
N2055 G1 X20.8194 Y20.8230
N2060 G1 X20.8116 Y20.8308
N2065 G1 X20.6679 Y20.9772
N2070 G1 X20.6571 Y20.9889
N2075 G1 X20.5215 Y21.1431
N2080 G1 X20.5128 Y21.1533
N2085 G1 X20.4495 Y21.2322
N2090 G1 X20.4432 Y21.2400
N2095 G1 X20.3835 Y21.3198
N2100 G1 X20.3772 Y21.3282
N2105 G1 X20.3208 Y21.4092
N2110 G1 X20.3148 Y21.4182
N2115 G1 X20.2617 Y21.5004
N2120 G1 X20.2560 Y21.5097
N2125 G1 X20.2062 Y21.5934
N2130 G1 X20.2008 Y21.6027
N2135 G1 X20.1540 Y21.6885
N2140 G1 X20.1489 Y21.6978
N2145 G1 X20.1045 Y21.7860
N2150 G1 X20.1003 Y21.7947
N2155 G1 X20.0580 Y21.8859
N2160 G1 X20.0544 Y21.8940
N2165 G1 X20.0499 Y21.9048
N2170 G1 X19.7952
N2175 G1 X19.7907 Y21.8940
N2180 G1 X19.7868 Y21.8859
N2185 G1 X19.7445 Y21.7947
N2190 G1 X19.7403 Y21.7860
N2195 G1 X19.6959 Y21.6978
N2200 G1 X19.6911 Y21.6885
N2205 G1 X19.6440 Y21.6027
N2210 G1 X19.6389 Y21.5934
N2215 G1 X19.5891 Y21.5097
N2220 G1 X19.5831 Y21.5004
N2225 G1 X19.5303 Y21.4182
N2230 G1 X19.5240 Y21.4092
N2235 G1 X19.4676 Y21.3282
N2240 G1 X19.4616 Y21.3198
N2245 G1 X19.4016 Y21.2400
N2250 G1 X19.3956 Y21.2322
N2255 G1 X19.3323 Y21.1533
N2260 G1 X19.3236 Y21.1431
N2265 G1 X19.1877 Y20.9892
N2270 G1 X19.1769 Y20.9772
N2275 G1 X19.0335 Y20.8308
N2280 G1 X19.0254 Y20.8230
N2285 G1 X18.9525 Y20.7540
N2290 G1 X18.9471 Y20.7489
N2295 G1 X18.8742 Y20.6832
N2300 G1 X18.8685 Y20.6781
N2305 G1 X18.7959 Y20.6160
N2310 G1 X18.7896 Y20.6109
N2315 G1 X18.7176 Y20.5524
N2320 G1 X18.7083 Y20.5449
N2325 G1 X18.5637 Y20.4369
N2330 G1 X18.5511 Y20.4279
N2335 G1 X18.3990 Y20.3262
N2340 G1 X18.3891 Y20.3196
N2345 G1 X18.3081 Y20.2698
N2350 G1 X18.3003 Y20.2653
N2355 G1 X18.2148 Y20.2161
N2360 G1 X18.2058 Y20.2113
N2365 G1 X18.1158 Y20.1636
N2370 G1 X18.1053 Y20.1585
N2375 G1 X18.0105 Y20.1126
N2380 G1 X17.9985 Y20.1075
N2385 G1 X17.9925 Y20.1048
N2390 G1 X17.9985 Y20.1021
N2395 G1 X18.0102 Y20.0967
N2400 G1 X18.1053 Y20.0511
N2405 G1 X18.1158 Y20.0460
N2410 G1 X18.2058 Y19.9983
N2415 G1 X18.2148 Y19.9932
N2420 G1 X18.3003 Y19.9443
N2425 G1 X18.3081 Y19.9398
N2430 G1 X18.3891 Y19.8900
N2435 G1 X18.3990 Y19.8834
N2440 G1 X18.5511 Y19.7817
N2445 G1 X18.5637 Y19.7727
N2450 G1 X18.7083 Y19.6644
N2455 G1 X18.7176 Y19.6572
N2460 G1 X18.7896 Y19.5987
N2465 G1 X18.7959 Y19.5936
N2470 G1 X18.8685 Y19.5315
N2475 G1 X18.8742 Y19.5264
N2480 G1 X18.9471 Y19.4607
N2485 G1 X18.9525 Y19.4556
N2490 G1 X19.0254 Y19.3866
N2495 G1 X19.0335 Y19.3785
N2500 G1 X19.1769 Y19.2321
N2505 G1 X19.1877 Y19.2204
N2510 G1 X19.3236 Y19.0665
N2515 G1 X19.3323 Y19.0560
N2520 G1 X19.3956 Y18.9774
N2525 G1 X19.4016 Y18.9696
N2530 G1 X19.4616 Y18.8898
N2535 G1 X19.4676 Y18.8811
N2540 G1 X19.5243 Y18.8004
N2545 G1 X19.5303 Y18.7914
N2550 G1 X19.5831 Y18.7092
N2555 G1 X19.5891 Y18.6999
N2560 G1 X19.6389 Y18.6162
N2565 G1 X19.6440 Y18.6069
N2570 G1 X19.6911 Y18.5211
N2575 G1 X19.6959 Y18.5118
N2580 G1 X19.7403 Y18.4236
N2585 G1 X19.7445 Y18.4149
N2590 G1 X19.7868 Y18.3237
N2595 G1 X19.7904 Y18.3153
N2600 G1 X19.7952 Y18.3048
N2605 G1 X19.9224
N2610 G1 X20.0499
N2615 G1 X20.0544 Y18.3156
N2620 G1 X20.0580 Y18.3237
N2625 G1 X20.1003 Y18.4149
N2630 G1 X20.1045 Y18.4236
N2635 G1 X20.1489 Y18.5118
N2640 G1 X20.1540 Y18.5211
N2645 G1 X20.2008 Y18.6069
N2650 G1 X20.2062 Y18.6162
N2655 G1 X20.2560 Y18.6999
N2660 G1 X20.2617 Y18.7092
N2665 G1 X20.3148 Y18.7914
N2670 G1 X20.3208 Y18.8004
N2675 G1 X20.3772 Y18.8811
N2680 G1 X20.3835 Y18.8898
N2685 G1 X20.4435 Y18.9696
N2690 G1 X20.4495 Y18.9774
N2695 G1 X20.5128 Y19.0560
N2700 G1 X20.5215 Y19.0665
N2705 G1 X20.6571 Y19.2204
N2710 G1 X20.6679 Y19.2321
N2715 G1 X20.7390 Y19.3047
N2720 G0 Z10.0000
N2725 G0 X26.5677 Y13.8438
N2730 G0 Z5.0000
N2735 G1 Z0.4000 F1000
N2740 G1 Z-1.1670
N2745 G1 X26.6349 Y13.9632 F2000
N2750 G1 X26.6373 Y13.9674
N2755 G1 X26.7471 Y14.1555
N2760 G1 X26.7498 Y14.1597
N2765 G1 X26.8659 Y14.3511
N2770 G1 X26.8683 Y14.3553
N2775 G1 X26.9907 Y14.5497
N2780 G1 X26.9931 Y14.5539
N2785 G1 X27.1215 Y14.7510
N2790 G1 X27.1242 Y14.7552
N2795 G1 X27.2586 Y14.9538
N2800 G1 X27.2616 Y14.9583
N2805 G1 X27.4017 Y15.1584
N2810 G1 X27.4050 Y15.1629
N2815 G1 X27.5514 Y15.3633
N2820 G1 X27.5550 Y15.3681
N2825 G1 X27.7071 Y15.5679
N2830 G1 X27.7110 Y15.5733
N2835 G1 X27.8691 Y15.7716
N2840 G1 X27.8733 Y15.7770
N2845 G1 X28.0371 Y15.9732
N2850 G1 X28.0419 Y15.9786
N2855 G1 X28.2111 Y16.1715
N2860 G1 X28.2159 Y16.1772
N2865 G1 X28.3902 Y16.3665
N2870 G1 X28.3956 Y16.3719
N2875 G1 X28.5747 Y16.5567
N2880 G1 X28.5798 Y16.5621
N2885 G1 X28.7634 Y16.7418
N2890 G1 X28.7688 Y16.7469
N2895 G1 X28.9557 Y16.9215
N2900 G1 X28.9611 Y16.9266
N2905 G1 X29.1513 Y17.0955
N2910 G1 X29.1567 Y17.1000
N2915 G1 X29.3493 Y17.2632
N2920 G1 X29.3547 Y17.2677
N2925 G1 X29.5494 Y17.4243
N2930 G1 X29.5545 Y17.4285
N2935 G1 X29.7501 Y17.5791
N2940 G1 X29.7555 Y17.5830
N2945 G1 X29.9514 Y17.7270
N2950 G1 X29.9565 Y17.7306
N2955 G1 X30.1524 Y17.8683
N2960 G1 X30.1575 Y17.8719
N2965 G1 X30.3525 Y18.0030
N2970 G1 X30.3570 Y18.0060
N2975 G1 X30.5502 Y18.1311
N2980 G1 X30.5550 Y18.1341
N2985 G1 X30.7464 Y18.2529
N2990 G1 X30.7506 Y18.2556
N2995 G1 X30.9393 Y18.3684
N3000 G1 X30.9435 Y18.3708
N3005 G1 X31.1295 Y18.4779
N3010 G1 X31.1331 Y18.4800
N3015 G1 X31.3152 Y18.5814
N3020 G1 X31.3188 Y18.5835
N3025 G1 X31.4973 Y18.6798
N3030 G1 X31.5012 Y18.6816
N3035 G1 X31.6761 Y18.7728
N3040 G1 X31.6788 Y18.7743
N3045 G1 X31.8492 Y18.8610
N3050 G1 X31.8525 Y18.8625
N3055 G1 X32.0193 Y18.9447
N3060 G1 X32.0217 Y18.9459
N3065 G1 X32.1843 Y19.0242
N3070 G1 X32.1870 Y19.0257
N3075 G1 X32.3460 Y19.1001
N3080 G1 X32.3484 Y19.1013
N3085 G1 X32.5038 Y19.1727
N3090 G1 X32.5062 Y19.1736
N3095 G1 X32.6586 Y19.2420
N3100 G1 X32.6607 Y19.2429
N3105 G1 X32.8104 Y19.3086
N3110 G1 X32.8125 Y19.3095
N3115 G1 X32.9598 Y19.3728
N3120 G1 X32.9634 Y19.3746
N3125 G1 X33.2541 Y19.4949
N3130 G1 X33.2595 Y19.4970
N3135 G1 X33.5487 Y19.6104
N3140 G1 X33.5553 Y19.6131
N3145 G1 X33.8493 Y19.7202
N3150 G1 X33.8559 Y19.7226
N3155 G1 X34.0071 Y19.7739
N3160 G1 X34.0119 Y19.7754
N3165 G1 X34.1667 Y19.8249
N3170 G1 X34.1724 Y19.8267
N3175 G1 X34.3320 Y19.8741
N3180 G1 X34.3380 Y19.8759
N3185 G1 X34.5030 Y19.9215
N3190 G1 X34.5096 Y19.9230
N3195 G1 X34.6806 Y19.9662
N3200 G1 X34.6872 Y19.9677
N3205 G1 X34.8648 Y20.0082
N3210 G1 X34.8717 Y20.0097
N3215 G1 X35.0559 Y20.0472
N3220 G1 X35.0631 Y20.0484
N3225 G1 X35.2539 Y20.0823
N3230 G1 X35.2608 Y20.0835
N3235 G1 X35.3988 Y20.1048
N3240 G1 X35.2608 Y20.1258
N3245 G1 X35.2539 Y20.1270
N3250 G1 X35.0631 Y20.1612
N3255 G1 X35.0559 Y20.1624
N3260 G1 X34.8717 Y20.1999
N3265 G1 X34.8648 Y20.2014
N3270 G1 X34.6872 Y20.2416
N3275 G1 X34.6806 Y20.2434
N3280 G1 X34.5096 Y20.2863
N3285 G1 X34.5030 Y20.2881
N3290 G1 X34.3380 Y20.3337
N3295 G1 X34.3320 Y20.3352
N3300 G1 X34.1724 Y20.3829
N3305 G1 X34.1667 Y20.3847
N3310 G1 X34.0119 Y20.4342
N3315 G1 X34.0071 Y20.4357
N3320 G1 X33.8559 Y20.4870
N3325 G1 X33.8493 Y20.4894
N3330 G1 X33.5553 Y20.5965
N3335 G1 X33.5487 Y20.5989
N3340 G1 X33.2595 Y20.7126
N3345 G1 X33.2541 Y20.7147
N3350 G1 X32.9634 Y20.8350
N3355 G1 X32.9598 Y20.8365
N3360 G1 X32.8125 Y20.8998
N3365 G1 X32.8104 Y20.9007
N3370 G1 X32.6607 Y20.9664
N3375 G1 X32.6586 Y20.9676
N3380 G1 X32.5062 Y21.0360
N3385 G1 X32.5038 Y21.0369
N3390 G1 X32.3484 Y21.1083
N3395 G1 X32.3460 Y21.1092
N3400 G1 X32.1870 Y21.1839
N3405 G1 X32.1843 Y21.1851
N3410 G1 X32.0217 Y21.2634
N3415 G1 X32.0193 Y21.2646
N3420 G1 X31.8525 Y21.3471
N3425 G1 X31.8492 Y21.3486
N3430 G1 X31.6788 Y21.4353
N3435 G1 X31.6758 Y21.4368
N3440 G1 X31.5009 Y21.5280
N3445 G1 X31.4976 Y21.5298
N3450 G1 X31.3191 Y21.6261
N3455 G1 X31.3152 Y21.6279
N3460 G1 X31.1331 Y21.7296
N3465 G1 X31.1295 Y21.7317
N3470 G1 X30.9435 Y21.8385
N3475 G1 X30.9393 Y21.8412
N3480 G1 X30.7506 Y21.9540
N3485 G1 X30.7464 Y21.9567
N3490 G1 X30.5550 Y22.0755
N3495 G1 X30.5502 Y22.0785
N3500 G1 X30.3570 Y22.2033
N3505 G1 X30.3525 Y22.2063
N3510 G1 X30.1575 Y22.3377
N3515 G1 X30.1524 Y22.3410
N3520 G1 X29.9565 Y22.4787
N3525 G1 X29.9514 Y22.4826
N3530 G1 X29.7555 Y22.6266
N3535 G1 X29.7501 Y22.6305
N3540 G1 X29.5545 Y22.7811
N3545 G1 X29.5491 Y22.7853
N3550 G1 X29.3547 Y22.9419
N3555 G1 X29.3493 Y22.9464
N3560 G1 X29.1567 Y23.1093
N3565 G1 X29.1513 Y23.1141
N3570 G1 X28.9611 Y23.2830
N3575 G1 X28.9557 Y23.2881
N3580 G1 X28.7688 Y23.4624
N3585 G1 X28.7634 Y23.4678
N3590 G1 X28.5798 Y23.6475
N3595 G1 X28.5747 Y23.6529
N3600 G1 X28.3956 Y23.8377
N3605 G1 X28.3905 Y23.8431
N3610 G1 X28.2159 Y24.0324
N3615 G1 X28.2111 Y24.0378
N3620 G1 X28.0419 Y24.2307
N3625 G1 X28.0371 Y24.2364
N3630 G1 X27.8733 Y24.4326
N3635 G1 X27.8691 Y24.4380
N3640 G1 X27.7110 Y24.6363
N3645 G1 X27.7071 Y24.6414
N3650 G1 X27.5550 Y24.8415
N3655 G1 X27.5514 Y24.8463
N3660 G1 X27.4050 Y25.0467
N3665 G1 X27.4017 Y25.0512
N3670 G1 X27.2616 Y25.2513
N3675 G1 X27.2586 Y25.2555
N3680 G1 X27.1242 Y25.4544
N3685 G1 X27.1215 Y25.4586
N3690 G1 X26.9931 Y25.6554
N3695 G1 X26.9907 Y25.6596
N3700 G1 X26.8683 Y25.8543
N3705 G1 X26.8659 Y25.8582
N3710 G1 X26.7498 Y26.0499
N3715 G1 X26.7471 Y26.0541
N3720 G1 X26.6373 Y26.2419
N3725 G1 X26.6349 Y26.2464
N3730 G1 X26.5314 Y26.4309
N3735 G1 X26.5287 Y26.4354
N3740 G1 X26.4315 Y26.6157
N3745 G1 X26.4291 Y26.6205
N3750 G1 X26.3382 Y26.7966
N3755 G1 X26.3355 Y26.8020
N3760 G1 X26.2509 Y26.9739
N3765 G1 X26.2482 Y26.9793
N3770 G1 X26.1699 Y27.1470
N3775 G1 X26.1672 Y27.1527
N3780 G1 X26.0952 Y27.3162
N3785 G1 X26.0925 Y27.3225
N3790 G1 X26.0265 Y27.4818
N3795 G1 X26.0238 Y27.4881
N3800 G1 X25.9635 Y27.6435
N3805 G1 X25.9611 Y27.6501
N3810 G1 X25.9062 Y27.8016
N3815 G1 X25.9041 Y27.8082
N3820 G1 X25.8546 Y27.9561
N3825 G1 X25.8522 Y27.9630
N3830 G1 X25.8075 Y28.1076
N3835 G1 X25.8057 Y28.1139
N3840 G1 X25.7652 Y28.2555
N3845 G1 X25.7637 Y28.2615
N3850 G1 X25.7271 Y28.4007
N3855 G1 X25.7259 Y28.4055
N3860 G1 X25.6923 Y28.5426
N3865 G1 X25.6914 Y28.5465
N3870 G1 X25.6602 Y28.6815
N3875 G1 X25.6593 Y28.6854
N3880 G1 X25.6023 Y28.9500
N3885 G1 X25.6020 Y28.9515
N3890 G1 X25.5480 Y29.2077
N3895 G1 X25.4934 Y29.4531
N3900 G1 X25.4655 Y29.5689
N3905 G1 X25.4367 Y29.6802
N3910 G1 X25.4070 Y29.7855
N3915 G1 X25.3770 Y29.8833
N3920 G1 X25.3464 Y29.9724
N3925 G1 X25.3164 Y30.0513
N3930 G1 X25.2870 Y30.1185
N3935 G1 X25.2591 Y30.1734
N3940 G1 X25.2327 Y30.2169
N3945 G1 X25.2084 Y30.2508
N3950 G1 X25.1835 Y30.2790
N3955 G1 X25.1538 Y30.3072
N3960 G1 X25.1151 Y30.3396
N3965 G1 X25.0653 Y30.3777
N3970 G1 X25.0038 Y30.4230
N3975 G1 X24.9333 Y30.4743
N3980 G1 X24.9327 Y30.4749
N3985 G1 X24.8541 Y30.5325
N3990 G1 X24.8532 Y30.5331
N3995 G1 X24.7683 Y30.5958
N4000 G1 X24.6795 Y30.6609
N4005 G1 X24.5892 Y30.7248
N4010 G1 X24.5013 Y30.7830
N4015 G1 X24.4173 Y30.8322
N4020 G1 X24.3825 Y30.8502
N4025 G1 X24.3492 Y30.8655
N4030 G1 X24.3219 Y30.8760
N4035 G1 X24.3006 Y30.8823
N4040 G1 X24.2967 Y30.8832
N4045 G1 X24.2925 Y30.8763
N4050 G1 X24.2811 Y30.8544
N4055 G1 X24.2691 Y30.8256
N4060 G1 X24.2565 Y30.7908
N4065 G1 X24.2448 Y30.7524
N4070 G1 X24.2211 Y30.6555
N4075 G1 X24.2010 Y30.5496
N4080 G1 X24.1827 Y30.4368
N4085 G1 X24.1659 Y30.3213
N4090 G1 X24.1497 Y30.2082
N4095 G1 X24.1491 Y30.2052
N4100 G1 X24.1326 Y30.0972
N4105 G1 X24.1314 Y30.0915
N4110 G1 X24.1137 Y29.9895
N4115 G1 X24.1122 Y29.9820
N4120 G1 X24.0930 Y29.8848
N4125 G1 X24.0912 Y29.8767
N4130 G1 X24.0696 Y29.7831
N4135 G1 X24.0669 Y29.7720
N4140 G1 X24.0171 Y29.5881
N4145 G1 X24.0150 Y29.5806
N4150 G1 X23.9865 Y29.4858
N4155 G1 X23.9862 Y29.4840
N4160 G1 X23.9556 Y29.3838
N4165 G1 X23.9232 Y29.2776
N4170 G1 X23.8893 Y29.1639
N4175 G1 X23.8533 Y29.0409
N4180 G1 X23.8158 Y28.9080
N4185 G1 X23.7765 Y28.7649
N4190 G1 X23.7357 Y28.6116
N4195 G1 X23.6931 Y28.4484
N4200 G1 X23.6490 Y28.2765
N4205 G1 X23.6037 Y28.0968
N4210 G1 X23.5569 Y27.9108
N4215 G1 X23.5092 Y27.7197
N4220 G1 X23.4603 Y27.5250
N4225 G1 X23.4600 Y27.5244
N4230 G1 X23.3607 Y27.1311
N4235 G1 X23.3604 Y27.1296
N4240 G1 X23.2596 Y26.7402
N4245 G1 X23.2593 Y26.7387
N4250 G1 X23.2092 Y26.5485
N4255 G1 Y26.5476
N4260 G1 X23.1594 Y26.3616
N4265 G1 Y26.3607
N4270 G1 X23.1105 Y26.1795
N4275 G1 Y26.1792
N4280 G1 X23.0631 Y26.0034
N4285 G1 X23.0169 Y25.8336
N4290 G1 X22.9728 Y25.6704
N4295 G1 X22.9308 Y25.5144
N4300 G1 X22.8912 Y25.3653
N4305 G1 X22.8540 Y25.2234
N4310 G1 X22.8192 Y25.0884
N4315 G1 X22.7874 Y24.9600
N4320 G1 X22.7577 Y24.8382
N4325 G1 X22.7304 Y24.7221
N4330 G1 X22.7049 Y24.6111
N4335 G1 X22.6809 Y24.5049
N4340 G1 X22.6581 Y24.4026
N4345 G1 X22.6578 Y24.4020
N4350 G1 X22.6356 Y24.3039
N4355 G1 X22.6353 Y24.3021
N4360 G1 X22.6131 Y24.2079
N4365 G1 X22.6122 Y24.2040
N4370 G1 X22.5678 Y24.0243
N4375 G1 X22.5663 Y24.0189
N4380 G1 X22.4754 Y23.6787
N4385 G1 X22.4565 Y23.5998
N4390 G1 X22.4403 Y23.5215
N4395 G1 X22.4280 Y23.4438
N4400 G1 X22.4196 Y23.3655
N4405 G1 X22.4160 Y23.2860
N4410 G1 X22.4178 Y23.2047
N4415 G1 X22.4253 Y23.1213
N4420 G1 X22.4391 Y23.0364
N4425 G1 X22.4589 Y22.9518
N4430 G1 X22.4844 Y22.8687
N4435 G1 X22.5153 Y22.7901
N4440 G1 X22.5501 Y22.7178
N4445 G1 X22.5876 Y22.6548
N4450 G1 X22.6260 Y22.6023
N4455 G1 X22.6662 Y22.5579
N4460 G1 X22.6806 Y22.5447
N4465 G1 X22.6932 Y22.5342
N4470 G1 X22.7286 Y22.5111
N4475 G1 X22.7583 Y22.4976
N4480 G1 X22.7889 Y22.4883
N4485 G1 X22.8234 Y22.4826
N4490 G1 X22.8630 Y22.4805
N4495 G1 X22.9074 Y22.4829
N4500 G1 X22.9554 Y22.4892
N4505 G1 X23.0055 Y22.5000
N4510 G1 X23.0553 Y22.5150
N4515 G1 X23.1045 Y22.5336
N4520 G1 X23.1528 Y22.5567
N4525 G1 X23.2002 Y22.5846
N4530 G1 X23.2485 Y22.6185
N4535 G1 X23.2977 Y22.6596
N4540 G1 X23.3484 Y22.7088
N4545 G1 X23.4009 Y22.7664
N4550 G1 X23.4549 Y22.8321
N4555 G1 X23.5092 Y22.9035
N4560 G1 X23.6232 Y23.0631
N4565 G1 X23.6793 Y23.1420
N4570 G1 X23.6832 Y23.1471
N4575 G1 X23.7384 Y23.2215
N4580 G1 X23.7465 Y23.2317
N4585 G1 X23.8011 Y23.2989
N4590 G1 X23.8155 Y23.3154
N4595 G1 X23.8701 Y23.3733
N4600 G1 X23.8941 Y23.3961
N4605 G1 X23.9493 Y23.4432
N4610 G1 X23.9766 Y23.4636
N4615 G1 X24.0048 Y23.4825
N4620 G1 X24.0282 Y23.4966
N4625 G1 X24.0567 Y23.5122
N4630 G1 X24.0852 Y23.5260
N4635 G1 X24.1143 Y23.5380
N4640 G1 X24.1467 Y23.5494
N4645 G1 X24.1764 Y23.5578
N4650 G1 X24.2115 Y23.5656
N4655 G1 X24.2418 Y23.5704
N4660 G1 X24.2781 Y23.5740
N4665 G1 X24.3090 Y23.5752
N4670 G1 X24.3444 Y23.5743
N4675 G1 X24.3762 Y23.5716
N4680 G1 X24.4086 Y23.5671
N4685 G1 X24.4413 Y23.5608
N4690 G1 X24.4698 Y23.5539
N4695 G1 X24.5034 Y23.5440
N4700 G1 X24.5277 Y23.5356
N4705 G1 X24.5622 Y23.5221
N4710 G1 X24.5826 Y23.5131
N4715 G1 X24.6180 Y23.4960
N4720 G1 X24.6342 Y23.4876
N4725 G1 X24.6705 Y23.4672
N4730 G1 X24.6897 Y23.4555
N4735 G1 X24.7644 Y23.4057
N4740 G1 X24.7827 Y23.3928
N4745 G1 X24.8601 Y23.3325
N4750 G1 X24.8724 Y23.3223
N4755 G1 X24.9519 Y23.2536
N4760 G1 X24.9600 Y23.2464
N4765 G1 X25.0407 Y23.1711
N4770 G1 X25.0464 Y23.1657
N4775 G1 X25.1274 Y23.0862
N4780 G1 X25.1334 Y23.0802
N4785 G1 X25.2903 Y22.9170
N4790 G1 X25.2957 Y22.9113
N4795 G1 X25.3692 Y22.8306
N4800 G1 X25.3740 Y22.8252
N4805 G1 X25.4421 Y22.7466
N4810 G1 X25.4490 Y22.7385
N4815 G1 X25.5105 Y22.6623
N4820 G1 X25.5204 Y22.6497
N4825 G1 X25.5741 Y22.5756
N4830 G1 X25.5867 Y22.5567
N4835 G1 X25.6311 Y22.4841
N4840 G1 X25.6461 Y22.4568
N4845 G1 X25.6806 Y22.3848
N4850 G1 X25.6884 Y22.3668
N4855 G1 X25.6953 Y22.3485
N4860 G1 X25.7187 Y22.2762
N4865 G1 X25.7250 Y22.2546
N4870 G1 X25.7295 Y22.2327
N4875 G1 X25.7418 Y22.1595
N4880 G1 X25.7448 Y22.1361
N4885 G1 X25.7460 Y22.1130
N4890 G1 X25.7466 Y22.0380
N4895 G1 X25.7463 Y22.0164
N4900 G1 X25.7439 Y21.9948
N4905 G1 X25.7337 Y21.9177
N4910 G1 X25.7265 Y21.8811
N4915 G1 X25.7055 Y21.8019
N4920 G1 X25.6965 Y21.7734
N4925 G1 X25.6662 Y21.6921
N4930 G1 X25.6569 Y21.6699
N4935 G1 X25.6182 Y21.5871
N4940 G1 X25.6098 Y21.5706
N4945 G1 X25.5642 Y21.4869
N4950 G1 X25.5567 Y21.4740
N4955 G1 X25.5054 Y21.3903
N4960 G1 X25.4988 Y21.3798
N4965 G1 X25.4433 Y21.2967
N4970 G1 X25.4373 Y21.2880
N4975 G1 X25.3782 Y21.2061
N4980 G1 X25.3725 Y21.1983
N4985 G1 X25.3107 Y21.1182
N4990 G1 X25.3047 Y21.1107
N4995 G1 X25.2405 Y21.0327
N5000 G1 X25.2342 Y21.0252
N5005 G1 X25.1673 Y20.9493
N5010 G1 X25.1601 Y20.9415
N5015 G1 X25.0905 Y20.8677
N5020 G1 X25.0827 Y20.8599
N5025 G1 X25.0101 Y20.7882
N5030 G1 X25.0014 Y20.7801
N5035 G1 X24.9249 Y20.7108
N5040 G1 X24.9159 Y20.7030
N5045 G1 X24.8352 Y20.6355
N5050 G1 X24.8262 Y20.6280
N5055 G1 X24.7410 Y20.5623
N5060 G1 X24.7323 Y20.5557
N5065 G1 X24.6429 Y20.4918
N5070 G1 X24.6342 Y20.4858
N5075 G1 X24.5409 Y20.4237
N5080 G1 X24.5331 Y20.4186
N5085 G1 X24.4365 Y20.3589
N5090 G1 X24.4290 Y20.3544
N5095 G1 X24.3309 Y20.2974
N5100 G1 X24.3240 Y20.2935
N5105 G1 X24.2256 Y20.2398
N5110 G1 X24.2190 Y20.2362
N5115 G1 X24.1221 Y20.1864
N5120 G1 X24.1155 Y20.1831
N5125 G1 X24.0219 Y20.1378
N5130 G1 X24.0150 Y20.1348
N5135 G1 X23.9490 Y20.1048
N5140 G1 X24.0150 Y20.0748
N5145 G1 X24.0219 Y20.0715
N5150 G1 X24.1155 Y20.0265
N5155 G1 X24.1221 Y20.0232
N5160 G1 X24.2190 Y19.9734
N5165 G1 X24.2256 Y19.9698
N5170 G1 X24.3240 Y19.9161
N5175 G1 X24.3309 Y19.9122
N5180 G1 X24.4293 Y19.8549
N5185 G1 X24.4365 Y19.8507
N5190 G1 X24.5331 Y19.7907
N5195 G1 X24.5409 Y19.7856
N5200 G1 X24.6342 Y19.7238
N5205 G1 X24.6429 Y19.7178
N5210 G1 X24.7323 Y19.6539
N5215 G1 X24.7410 Y19.6473
N5220 G1 X24.8262 Y19.5813
N5225 G1 X24.8352 Y19.5741
N5230 G1 X24.9159 Y19.5066
N5235 G1 X24.9249 Y19.4988
N5240 G1 X25.0014 Y19.4292
N5245 G1 X25.0101 Y19.4211
N5250 G1 X25.0827 Y19.3497
N5255 G1 X25.0905 Y19.3416
N5260 G1 X25.1601 Y19.2681
N5265 G1 X25.1673 Y19.2603
N5270 G1 X25.2339 Y19.1844
N5275 G1 X25.2405 Y19.1769
N5280 G1 X25.3047 Y19.0989
N5285 G1 X25.3107 Y19.0914
N5290 G1 X25.3725 Y19.0113
N5295 G1 X25.3782 Y19.0035
N5300 G1 X25.4373 Y18.9213
N5305 G1 X25.4433 Y18.9129
N5310 G1 X25.4988 Y18.8298
N5315 G1 X25.5054 Y18.8193
N5320 G1 X25.5567 Y18.7356
N5325 G1 X25.5642 Y18.7227
N5330 G1 X25.6098 Y18.6390
N5335 G1 X25.6182 Y18.6222
N5340 G1 X25.6569 Y18.5394
N5345 G1 X25.6662 Y18.5175
N5350 G1 X25.6965 Y18.4362
N5355 G1 X25.7055 Y18.4077
N5360 G1 X25.7265 Y18.3282
N5365 G1 X25.7337 Y18.2919
N5370 G1 X25.7439 Y18.2148
N5375 G1 X25.7463 Y18.1932
N5380 G1 X25.7466 Y18.1716
N5385 G1 X25.7460 Y18.0966
N5390 G1 X25.7448 Y18.0732
N5395 G1 X25.7418 Y18.0501
N5400 G1 X25.7295 Y17.9769
N5405 G1 X25.7250 Y17.9550
N5410 G1 X25.7187 Y17.9331
N5415 G1 X25.6953 Y17.8611
N5420 G1 X25.6884 Y17.8428
N5425 G1 X25.6806 Y17.8248
N5430 G1 X25.6461 Y17.7528
N5435 G1 X25.6311 Y17.7255
N5440 G1 X25.5867 Y17.6529
N5445 G1 X25.5741 Y17.6340
N5450 G1 X25.5204 Y17.5599
N5455 G1 X25.5105 Y17.5470
N5460 G1 X25.4490 Y17.4708
N5465 G1 X25.4421 Y17.4627
N5470 G1 X25.3740 Y17.3844
N5475 G1 X25.3692 Y17.3790
N5480 G1 X25.2957 Y17.2983
N5485 G1 X25.2903 Y17.2926
N5490 G1 X25.1334 Y17.1294
N5495 G1 X25.1274 Y17.1234
N5500 G1 X25.0464 Y17.0439
N5505 G1 X25.0407 Y17.0385
N5510 G1 X24.9600 Y16.9632
N5515 G1 X24.9519 Y16.9560
N5520 G1 X24.8724 Y16.8870
N5525 G1 X24.8601 Y16.8771
N5530 G1 X24.7827 Y16.8168
N5535 G1 X24.7644 Y16.8039
N5540 G1 X24.6897 Y16.7541
N5545 G1 X24.6705 Y16.7424
N5550 G1 X24.6342 Y16.7220
N5555 G1 X24.6177 Y16.7133
N5560 G1 X24.5823 Y16.6965
N5565 G1 X24.5622 Y16.6875
N5570 G1 X24.5280 Y16.6740
N5575 G1 X24.5034 Y16.6656
N5580 G1 X24.4698 Y16.6557
N5585 G1 X24.4413 Y16.6485
N5590 G1 X24.4086 Y16.6422
N5595 G1 X24.3759 Y16.6377
N5600 G1 X24.3444 Y16.6353
N5605 G1 X24.3093 Y16.6344
N5610 G1 X24.2784 Y16.6356
N5615 G1 X24.2418 Y16.6392
N5620 G1 X24.2115 Y16.6440
N5625 G1 X24.1764 Y16.6518
N5630 G1 X24.1467 Y16.6602
N5635 G1 X24.1140 Y16.6716
N5640 G1 X24.0849 Y16.6839
N5645 G1 X24.0570 Y16.6971
N5650 G1 X24.0285 Y16.7127
N5655 G1 X24.0048 Y16.7271
N5660 G1 X23.9766 Y16.7457
N5665 G1 X23.9493 Y16.7664
N5670 G1 X23.8941 Y16.8135
N5675 G1 X23.8701 Y16.8363
N5680 G1 X23.8155 Y16.8942
N5685 G1 X23.8011 Y16.9107
N5690 G1 X23.7465 Y16.9779
N5695 G1 X23.7384 Y16.9881
N5700 G1 X23.6832 Y17.0625
N5705 G1 X23.6793 Y17.0676
N5710 G1 X23.6232 Y17.1465
N5715 G1 X23.5092 Y17.3058
N5720 G1 X23.4549 Y17.3775
N5725 G1 X23.4009 Y17.4432
N5730 G1 X23.3484 Y17.5008
N5735 G1 X23.2977 Y17.5500
N5740 G1 X23.2485 Y17.5911
N5745 G1 X23.2002 Y17.6250
N5750 G1 X23.1525 Y17.6529
N5755 G1 X23.1045 Y17.6760
N5760 G1 X23.0556 Y17.6946
N5765 G1 X23.0055 Y17.7093
N5770 G1 X22.9554 Y17.7201
N5775 G1 X22.9074 Y17.7267
N5780 G1 X22.8630 Y17.7291
N5785 G1 X22.8234 Y17.7270
N5790 G1 X22.7889 Y17.7213
N5795 G1 X22.7583 Y17.7120
N5800 G1 X22.7286 Y17.6982
N5805 G1 X22.6932 Y17.6751
N5810 G1 X22.6806 Y17.6649
N5815 G1 X22.6662 Y17.6517
N5820 G1 X22.6260 Y17.6073
N5825 G1 X22.5876 Y17.5548
N5830 G1 X22.5501 Y17.4915
N5835 G1 X22.5153 Y17.4195
N5840 G1 X22.4844 Y17.3406
N5845 G1 X22.4589 Y17.2578
N5850 G1 X22.4391 Y17.1729
N5855 G1 X22.4253 Y17.0883
N5860 G1 X22.4178 Y17.0049
N5865 G1 X22.4160 Y16.9236
N5870 G1 X22.4196 Y16.8441
N5875 G1 X22.4280 Y16.7658
N5880 G1 X22.4403 Y16.6881
N5885 G1 X22.4565 Y16.6098
N5890 G1 X22.4754 Y16.5309
N5895 G1 X22.5663 Y16.1904
N5900 G1 X22.5678 Y16.1853
N5905 G1 X22.6122 Y16.0056
N5910 G1 X22.6131 Y16.0014
N5915 G1 X22.6353 Y15.9072
N5920 G1 X22.6356 Y15.9054
N5925 G1 X22.6578 Y15.8076
N5930 G1 X22.6581 Y15.8070
N5935 G1 X22.6809 Y15.7047
N5940 G1 X22.7049 Y15.5982
N5945 G1 X22.7304 Y15.4875
N5950 G1 X22.7577 Y15.3714
N5955 G1 X22.7874 Y15.2493
N5960 G1 X22.8192 Y15.1212
N5965 G1 X22.8540 Y14.9862
N5970 G1 X22.8912 Y14.8443
N5975 G1 X22.9308 Y14.6952
N5980 G1 X22.9728 Y14.5389
N5985 G1 X23.0169 Y14.3760
N5990 G1 X23.0631 Y14.2065
N5995 G1 X23.1105 Y14.0304
N6000 G1 Y14.0298
N6005 G1 X23.1594 Y13.8486
N6010 G1 Y13.8480
N6015 G1 X23.2092 Y13.6620
N6020 G1 Y13.6611
N6025 G1 X23.2593 Y13.4706
N6030 G1 X23.2596 Y13.4694
N6035 G1 X23.3604 Y13.0800
N6040 G1 X23.3607 Y13.0785
N6045 G1 X23.4600 Y12.6852
N6050 G1 X23.4603 Y12.6846
N6055 G1 X23.5089 Y12.4899
N6060 G1 X23.5569 Y12.2988
N6065 G1 X23.6037 Y12.1125
N6070 G1 X23.6490 Y11.9331
N6075 G1 X23.6931 Y11.7612
N6080 G1 X23.7357 Y11.5980
N6085 G1 X23.7765 Y11.4447
N6090 G1 X23.8158 Y11.3013
N6095 G1 X23.8533 Y11.1687
N6100 G1 X23.8893 Y11.0457
N6105 G1 X23.9232 Y10.9320
N6110 G1 X23.9556 Y10.8255
N6115 G1 X23.9862 Y10.7256
N6120 G1 X23.9865 Y10.7238
N6125 G1 X24.0150 Y10.6287
N6130 G1 X24.0171 Y10.6215
N6135 G1 X24.0669 Y10.4376
N6140 G1 X24.0696 Y10.4265
N6145 G1 X24.0912 Y10.3329
N6150 G1 X24.0927 Y10.3248
N6155 G1 X24.1122 Y10.2276
N6160 G1 X24.1137 Y10.2201
N6165 G1 X24.1317 Y10.1178
N6170 G1 X24.1326 Y10.1124
N6175 G1 X24.1491 Y10.0044
N6180 G1 X24.1497 Y10.0014
N6185 G1 X24.1659 Y9.8880
N6190 G1 X24.1827 Y9.7728
N6195 G1 X24.2010 Y9.6597
N6200 G1 X24.2211 Y9.5541
N6205 G1 X24.2448 Y9.4569
N6210 G1 X24.2565 Y9.4188
N6215 G1 X24.2691 Y9.3837
N6220 G1 X24.2811 Y9.3552
N6225 G1 X24.2922 Y9.3336
N6230 G1 X24.2967 Y9.3264
N6235 G1 X24.3000 Y9.3270
N6240 G1 X24.3219 Y9.3336
N6245 G1 X24.3498 Y9.3444
N6250 G1 X24.3825 Y9.3591
N6255 G1 X24.4170 Y9.3771
N6260 G1 X24.5016 Y9.4269
N6265 G1 X24.5892 Y9.4848
N6270 G1 X24.6795 Y9.5487
N6275 G1 X24.7683 Y9.6138
N6280 G1 X24.8535 Y9.6765
N6285 G1 X24.8538 Y9.6768
N6290 G1 X24.9324 Y9.7347
N6295 G1 X24.9333 Y9.7353
N6300 G1 X25.0041 Y9.7869
N6305 G1 X25.0653 Y9.8319
N6310 G1 X25.1151 Y9.8700
N6315 G1 X25.1538 Y9.9021
N6320 G1 X25.1835 Y9.9303
N6325 G1 X25.2084 Y9.9591
N6330 G1 X25.2330 Y9.9927
N6335 G1 X25.2591 Y10.0362
N6340 G1 X25.2870 Y10.0911
N6345 G1 X25.3164 Y10.1583
N6350 G1 X25.3464 Y10.2372
N6355 G1 X25.3770 Y10.3263
N6360 G1 X25.4070 Y10.4241
N6365 G1 X25.4367 Y10.5294
N6370 G1 X25.4655 Y10.6407
N6375 G1 X25.4934 Y10.7562
N6380 G1 X25.5480 Y11.0019
N6385 G1 X25.6020 Y11.2581
N6390 G1 X25.6023 Y11.2596
N6395 G1 X25.6593 Y11.5239
N6400 G1 X25.6602 Y11.5281
N6405 G1 X25.6914 Y11.6628
N6410 G1 X25.6923 Y11.6670
N6415 G1 X25.7259 Y11.8038
N6420 G1 X25.7271 Y11.8089
N6425 G1 X25.7637 Y11.9481
N6430 G1 X25.7652 Y11.9538
N6435 G1 X25.8057 Y12.0957
N6440 G1 X25.8075 Y12.1020
N6445 G1 X25.8522 Y12.2466
N6450 G1 X25.8546 Y12.2532
N6455 G1 X25.9041 Y12.4014
N6460 G1 X25.9062 Y12.4080
N6465 G1 X25.9611 Y12.5595
N6470 G1 X25.9635 Y12.5661
N6475 G1 X26.0238 Y12.7215
N6480 G1 X26.0265 Y12.7278
N6485 G1 X26.0925 Y12.8871
N6490 G1 X26.0952 Y12.8934
N6495 G1 X26.1672 Y13.0566
N6500 G1 X26.1699 Y13.0626
N6505 G1 X26.2482 Y13.2303
N6510 G1 X26.2509 Y13.2357
N6515 G1 X26.3355 Y13.4076
N6520 G1 X26.3382 Y13.4127
N6525 G1 X26.4291 Y13.5891
N6530 G1 X26.4315 Y13.5939
N6535 G1 X26.5287 Y13.7742
N6540 G1 X26.5314 Y13.7787
N6545 G1 X26.5677 Y13.8438
N6550 G1 Z-2.3330 F1000
N6555 G1 X26.6349 Y13.9632 F2000
N6560 G1 X26.6373 Y13.9674
N6565 G1 X26.7471 Y14.1555
N6570 G1 X26.7498 Y14.1597
N6575 G1 X26.8659 Y14.3511
N6580 G1 X26.8683 Y14.3553
N6585 G1 X26.9907 Y14.5497
N6590 G1 X26.9931 Y14.5539
N6595 G1 X27.1215 Y14.7510
N6600 G1 X27.1242 Y14.7552
N6605 G1 X27.2586 Y14.9538
N6610 G1 X27.2616 Y14.9583
N6615 G1 X27.4017 Y15.1584
N6620 G1 X27.4050 Y15.1629
N6625 G1 X27.5514 Y15.3633
N6630 G1 X27.5550 Y15.3681
N6635 G1 X27.7071 Y15.5679
N6640 G1 X27.7110 Y15.5733
N6645 G1 X27.8691 Y15.7716
N6650 G1 X27.8733 Y15.7770
N6655 G1 X28.0371 Y15.9732
N6660 G1 X28.0419 Y15.9786
N6665 G1 X28.2111 Y16.1715
N6670 G1 X28.2159 Y16.1772
N6675 G1 X28.3902 Y16.3665
N6680 G1 X28.3956 Y16.3719
N6685 G1 X28.5180 Y16.4982
N6690 G1 Z-2.0000
N6695 G1 X28.5747 Y16.5567
N6700 G1 X28.5798 Y16.5621
N6705 G1 X28.7634 Y16.7418
N6710 G1 X28.7688 Y16.7469
N6715 G1 X28.9557 Y16.9215
N6720 G1 X28.9611 Y16.9266
N6725 G1 X29.1513 Y17.0955
N6730 G1 X29.1567 Y17.1000
N6735 G1 X29.3493 Y17.2632
N6740 G1 X29.3547 Y17.2677
N6745 G1 X29.4042 Y17.3073
N6750 G1 Z-2.3330 F1000
N6755 G1 X29.5494 Y17.4243 F2000
N6760 G1 X29.5545 Y17.4285
N6765 G1 X29.7501 Y17.5791
N6770 G1 X29.7555 Y17.5830
N6775 G1 X29.9514 Y17.7270
N6780 G1 X29.9565 Y17.7306
N6785 G1 X30.1524 Y17.8683
N6790 G1 X30.1575 Y17.8719
N6795 G1 X30.3525 Y18.0030
N6800 G1 X30.3570 Y18.0060
N6805 G1 X30.5502 Y18.1311
N6810 G1 X30.5550 Y18.1341
N6815 G1 X30.7464 Y18.2529
N6820 G1 X30.7506 Y18.2556
N6825 G1 X30.9393 Y18.3684
N6830 G1 X30.9435 Y18.3708
N6835 G1 X31.1295 Y18.4779
N6840 G1 X31.1331 Y18.4800
N6845 G1 X31.3152 Y18.5814
N6850 G1 X31.3188 Y18.5835
N6855 G1 X31.4973 Y18.6798
N6860 G1 X31.5012 Y18.6816
N6865 G1 X31.6761 Y18.7728
N6870 G1 X31.6788 Y18.7743
N6875 G1 X31.8492 Y18.8610
N6880 G1 X31.8525 Y18.8625
N6885 G1 X32.0193 Y18.9447
N6890 G1 X32.0217 Y18.9459
N6895 G1 X32.1843 Y19.0242
N6900 G1 X32.1870 Y19.0257
N6905 G1 X32.3460 Y19.1001
N6910 G1 X32.3484 Y19.1013
N6915 G1 X32.5038 Y19.1727
N6920 G1 X32.5062 Y19.1736
N6925 G1 X32.6586 Y19.2420
N6930 G1 X32.6607 Y19.2429
N6935 G1 X32.8104 Y19.3086
N6940 G1 X32.8125 Y19.3095
N6945 G1 X32.9598 Y19.3728
N6950 G1 X32.9634 Y19.3746
N6955 G1 X33.2541 Y19.4949
N6960 G1 X33.2595 Y19.4970
N6965 G1 X33.5487 Y19.6104
N6970 G1 X33.5553 Y19.6131
N6975 G1 X33.8493 Y19.7202
N6980 G1 X33.8559 Y19.7226
N6985 G1 X34.0071 Y19.7739
N6990 G1 X34.0119 Y19.7754
N6995 G1 X34.1667 Y19.8249
N7000 G1 X34.1724 Y19.8267
N7005 G1 X34.3320 Y19.8741
N7010 G1 X34.3380 Y19.8759
N7015 G1 X34.5030 Y19.9215
N7020 G1 X34.5096 Y19.9230
N7025 G1 X34.6806 Y19.9662
N7030 G1 X34.6872 Y19.9677
N7035 G1 X34.8648 Y20.0082
N7040 G1 X34.8717 Y20.0097
N7045 G1 X35.0559 Y20.0472
N7050 G1 X35.0631 Y20.0484
N7055 G1 X35.2539 Y20.0823
N7060 G1 X35.2608 Y20.0835
N7065 G1 X35.3988 Y20.1048
N7070 G1 X35.2608 Y20.1258
N7075 G1 X35.2539 Y20.1270
N7080 G1 X35.0631 Y20.1612
N7085 G1 X35.0559 Y20.1624
N7090 G1 X34.8717 Y20.1999
N7095 G1 X34.8648 Y20.2014
N7100 G1 X34.6872 Y20.2416
N7105 G1 X34.6806 Y20.2434
N7110 G1 X34.5096 Y20.2863
N7115 G1 X34.5030 Y20.2881
N7120 G1 X34.3380 Y20.3337
N7125 G1 X34.3320 Y20.3352
N7130 G1 X34.1724 Y20.3829
N7135 G1 X34.1667 Y20.3847
N7140 G1 X34.0119 Y20.4342
N7145 G1 X34.0071 Y20.4357
N7150 G1 X33.8559 Y20.4870
N7155 G1 X33.8493 Y20.4894
N7160 G1 X33.5553 Y20.5965
N7165 G1 X33.5487 Y20.5989
N7170 G1 X33.2595 Y20.7126
N7175 G1 X33.2541 Y20.7147
N7180 G1 X32.9634 Y20.8350
N7185 G1 X32.9598 Y20.8365
N7190 G1 X32.8125 Y20.8998
N7195 G1 X32.8104 Y20.9007
N7200 G1 X32.6607 Y20.9664
N7205 G1 X32.6586 Y20.9676
N7210 G1 X32.5062 Y21.0360
N7215 G1 X32.5038 Y21.0369
N7220 G1 X32.3484 Y21.1083
N7225 G1 X32.3460 Y21.1092
N7230 G1 X32.1870 Y21.1839
N7235 G1 X32.1843 Y21.1851
N7240 G1 X32.0217 Y21.2634
N7245 G1 X32.0193 Y21.2646
N7250 G1 X31.8525 Y21.3471
N7255 G1 X31.8492 Y21.3486
N7260 G1 X31.6788 Y21.4353
N7265 G1 X31.6758 Y21.4368
N7270 G1 X31.5009 Y21.5280
N7275 G1 X31.4976 Y21.5298
N7280 G1 X31.3191 Y21.6261
N7285 G1 X31.3152 Y21.6279
N7290 G1 X31.1331 Y21.7296
N7295 G1 X31.1295 Y21.7317
N7300 G1 X30.9435 Y21.8385
N7305 G1 X30.9393 Y21.8412
N7310 G1 X30.7506 Y21.9540
N7315 G1 X30.7464 Y21.9567
N7320 G1 X30.5550 Y22.0755
N7325 G1 X30.5502 Y22.0785
N7330 G1 X30.3570 Y22.2033
N7335 G1 X30.3525 Y22.2063
N7340 G1 X30.1575 Y22.3377
N7345 G1 X30.1524 Y22.3410
N7350 G1 X29.9565 Y22.4787
N7355 G1 X29.9514 Y22.4826
N7360 G1 X29.7555 Y22.6266
N7365 G1 X29.7501 Y22.6305
N7370 G1 X29.5545 Y22.7811
N7375 G1 X29.5491 Y22.7853
N7380 G1 X29.3547 Y22.9419
N7385 G1 X29.3493 Y22.9464
N7390 G1 X29.1567 Y23.1093
N7395 G1 X29.1513 Y23.1141
N7400 G1 X28.9611 Y23.2830
N7405 G1 X28.9557 Y23.2881
N7410 G1 X28.7688 Y23.4624
N7415 G1 X28.7634 Y23.4678
N7420 G1 X28.5798 Y23.6475
N7425 G1 X28.5747 Y23.6529
N7430 G1 X28.3956 Y23.8377
N7435 G1 X28.3905 Y23.8431
N7440 G1 X28.3842 Y23.8500
N7445 G1 Z-2.0000
N7450 G1 X28.2159 Y24.0324
N7455 G1 X28.2111 Y24.0378
N7460 G1 X28.0419 Y24.2307
N7465 G1 X28.0371 Y24.2364
N7470 G1 X27.8733 Y24.4326
N7475 G1 X27.8691 Y24.4380
N7480 G1 X27.7110 Y24.6363
N7485 G1 X27.7071 Y24.6414
N7490 G1 X27.6111 Y24.7677
N7495 G1 Z-2.3330 F1000
N7500 G1 X27.5550 Y24.8415 F2000
N7505 G1 X27.5514 Y24.8463
N7510 G1 X27.4050 Y25.0467
N7515 G1 X27.4017 Y25.0512
N7520 G1 X27.2616 Y25.2513
N7525 G1 X27.2586 Y25.2555
N7530 G1 X27.1242 Y25.4544
N7535 G1 X27.1215 Y25.4586
N7540 G1 X26.9931 Y25.6554
N7545 G1 X26.9907 Y25.6596
N7550 G1 X26.8683 Y25.8543
N7555 G1 X26.8659 Y25.8582
N7560 G1 X26.7498 Y26.0499
N7565 G1 X26.7471 Y26.0541
N7570 G1 X26.6373 Y26.2419
N7575 G1 X26.6349 Y26.2464
N7580 G1 X26.5314 Y26.4309
N7585 G1 X26.5287 Y26.4354
N7590 G1 X26.4315 Y26.6157
N7595 G1 X26.4291 Y26.6205
N7600 G1 X26.3382 Y26.7966
N7605 G1 X26.3355 Y26.8020
N7610 G1 X26.2509 Y26.9739
N7615 G1 X26.2482 Y26.9793
N7620 G1 X26.1699 Y27.1470
N7625 G1 X26.1672 Y27.1527
N7630 G1 X26.0952 Y27.3162
N7635 G1 X26.0925 Y27.3225
N7640 G1 X26.0265 Y27.4818
N7645 G1 X26.0238 Y27.4881
N7650 G1 X25.9635 Y27.6435
N7655 G1 X25.9611 Y27.6501
N7660 G1 X25.9062 Y27.8016
N7665 G1 X25.9041 Y27.8082
N7670 G1 X25.8546 Y27.9561
N7675 G1 X25.8522 Y27.9630
N7680 G1 X25.8075 Y28.1076
N7685 G1 X25.8057 Y28.1139
N7690 G1 X25.7652 Y28.2555
N7695 G1 X25.7637 Y28.2615
N7700 G1 X25.7271 Y28.4007
N7705 G1 X25.7259 Y28.4055
N7710 G1 X25.6923 Y28.5426
N7715 G1 X25.6914 Y28.5465
N7720 G1 X25.6602 Y28.6815
N7725 G1 X25.6593 Y28.6854
N7730 G1 X25.6023 Y28.9500
N7735 G1 X25.6020 Y28.9515
N7740 G1 X25.5480 Y29.2077
N7745 G1 X25.4934 Y29.4531
N7750 G1 X25.4655 Y29.5689
N7755 G1 X25.4367 Y29.6802
N7760 G1 X25.4070 Y29.7855
N7765 G1 X25.3770 Y29.8833
N7770 G1 X25.3464 Y29.9724
N7775 G1 X25.3164 Y30.0513
N7780 G1 X25.2870 Y30.1185
N7785 G1 X25.2591 Y30.1734
N7790 G1 X25.2327 Y30.2169
N7795 G1 X25.2084 Y30.2508
N7800 G1 X25.1835 Y30.2790
N7805 G1 X25.1538 Y30.3072
N7810 G1 X25.1151 Y30.3396
N7815 G1 X25.0653 Y30.3777
N7820 G1 X25.0038 Y30.4230
N7825 G1 X24.9333 Y30.4743
N7830 G1 X24.9327 Y30.4749
N7835 G1 X24.8541 Y30.5325
N7840 G1 X24.8532 Y30.5331
N7845 G1 X24.7683 Y30.5958
N7850 G1 X24.6795 Y30.6609
N7855 G1 X24.5892 Y30.7248
N7860 G1 X24.5013 Y30.7830
N7865 G1 X24.4173 Y30.8322
N7870 G1 X24.3825 Y30.8502
N7875 G1 X24.3492 Y30.8655
N7880 G1 X24.3219 Y30.8760
N7885 G1 X24.3006 Y30.8823
N7890 G1 X24.2967 Y30.8832
N7895 G1 X24.2925 Y30.8763
N7900 G1 X24.2811 Y30.8544
N7905 G1 X24.2691 Y30.8256
N7910 G1 X24.2565 Y30.7908
N7915 G1 X24.2448 Y30.7524
N7920 G1 X24.2211 Y30.6555
N7925 G1 X24.2010 Y30.5496
N7930 G1 X24.1827 Y30.4368
N7935 G1 X24.1659 Y30.3213
N7940 G1 X24.1497 Y30.2082
N7945 G1 X24.1491 Y30.2052
N7950 G1 X24.1326 Y30.0972
N7955 G1 X24.1314 Y30.0915
N7960 G1 X24.1137 Y29.9895
N7965 G1 X24.1122 Y29.9820
N7970 G1 X24.0930 Y29.8848
N7975 G1 X24.0912 Y29.8767
N7980 G1 X24.0696 Y29.7831
N7985 G1 X24.0669 Y29.7720
N7990 G1 X24.0171 Y29.5881
N7995 G1 X24.0150 Y29.5806
N8000 G1 X23.9865 Y29.4858
N8005 G1 X23.9862 Y29.4840
N8010 G1 X23.9556 Y29.3838
N8015 G1 X23.9232 Y29.2776
N8020 G1 X23.8893 Y29.1639
N8025 G1 X23.8533 Y29.0409
N8030 G1 X23.8158 Y28.9080
N8035 G1 X23.7765 Y28.7649
N8040 G1 X23.7357 Y28.6116
N8045 G1 X23.6931 Y28.4484
N8050 G1 X23.6490 Y28.2765
N8055 G1 X23.6037 Y28.0968
N8060 G1 X23.5569 Y27.9108
N8065 G1 X23.5092 Y27.7197
N8070 G1 X23.4603 Y27.5250
N8075 G1 X23.4600 Y27.5244
N8080 G1 X23.4198 Y27.3654
N8085 G1 Z-2.0000
N8090 G1 X23.3607 Y27.1311
N8095 G1 X23.3604 Y27.1296
N8100 G1 X23.2596 Y26.7402
N8105 G1 X23.2593 Y26.7387
N8110 G1 X23.2092 Y26.5485
N8115 G1 Y26.5476
N8120 G1 X23.1594 Y26.3616
N8125 G1 Y26.3607
N8130 G1 X23.1171 Y26.2041
N8135 G1 Z-2.3330 F1000
N8140 G1 X23.1105 Y26.1795 F2000
N8145 G1 Y26.1792
N8150 G1 X23.0631 Y26.0034
N8155 G1 X23.0169 Y25.8336
N8160 G1 X22.9728 Y25.6704
N8165 G1 X22.9308 Y25.5144
N8170 G1 X22.8912 Y25.3653
N8175 G1 X22.8540 Y25.2234
N8180 G1 X22.8192 Y25.0884
N8185 G1 X22.7874 Y24.9600
N8190 G1 X22.7577 Y24.8382
N8195 G1 X22.7304 Y24.7221
N8200 G1 X22.7049 Y24.6111
N8205 G1 X22.6809 Y24.5049
N8210 G1 X22.6581 Y24.4026
N8215 G1 X22.6578 Y24.4020
N8220 G1 X22.6356 Y24.3039
N8225 G1 X22.6353 Y24.3021
N8230 G1 X22.6131 Y24.2079
N8235 G1 X22.6122 Y24.2040
N8240 G1 X22.5678 Y24.0243
N8245 G1 X22.5663 Y24.0189
N8250 G1 X22.4754 Y23.6787
N8255 G1 X22.4565 Y23.5998
N8260 G1 X22.4403 Y23.5215
N8265 G1 X22.4280 Y23.4438
N8270 G1 X22.4196 Y23.3655
N8275 G1 X22.4160 Y23.2860
N8280 G1 X22.4178 Y23.2047
N8285 G1 X22.4253 Y23.1213
N8290 G1 X22.4391 Y23.0364
N8295 G1 X22.4589 Y22.9518
N8300 G1 X22.4844 Y22.8687
N8305 G1 X22.5153 Y22.7901
N8310 G1 X22.5501 Y22.7178
N8315 G1 X22.5876 Y22.6548
N8320 G1 X22.6260 Y22.6023
N8325 G1 X22.6662 Y22.5579
N8330 G1 X22.6806 Y22.5447
N8335 G1 X22.6932 Y22.5342
N8340 G1 X22.7286 Y22.5111
N8345 G1 X22.7583 Y22.4976
N8350 G1 X22.7889 Y22.4883
N8355 G1 X22.8234 Y22.4826
N8360 G1 X22.8630 Y22.4805
N8365 G1 X22.9074 Y22.4829
N8370 G1 X22.9554 Y22.4892
N8375 G1 X23.0055 Y22.5000
N8380 G1 X23.0553 Y22.5150
N8385 G1 X23.1045 Y22.5336
N8390 G1 X23.1528 Y22.5567
N8395 G1 X23.2002 Y22.5846
N8400 G1 X23.2485 Y22.6185
N8405 G1 X23.2977 Y22.6596
N8410 G1 X23.3484 Y22.7088
N8415 G1 X23.4009 Y22.7664
N8420 G1 X23.4549 Y22.8321
N8425 G1 X23.5092 Y22.9035
N8430 G1 X23.6232 Y23.0631
N8435 G1 X23.6793 Y23.1420
N8440 G1 X23.6832 Y23.1471
N8445 G1 X23.7384 Y23.2215
N8450 G1 X23.7465 Y23.2317
N8455 G1 X23.8011 Y23.2989
N8460 G1 X23.8155 Y23.3154
N8465 G1 X23.8701 Y23.3733
N8470 G1 X23.8941 Y23.3961
N8475 G1 X23.9349 Y23.4309
N8480 G1 Z-2.0000
N8485 G1 X23.9493 Y23.4432
N8490 G1 X23.9766 Y23.4636
N8495 G1 X24.0048 Y23.4825
N8500 G1 X24.0282 Y23.4966
N8505 G1 X24.0567 Y23.5122
N8510 G1 X24.0852 Y23.5260
N8515 G1 X24.1143 Y23.5380
N8520 G1 X24.1467 Y23.5494
N8525 G1 X24.1764 Y23.5578
N8530 G1 X24.2115 Y23.5656
N8535 G1 X24.2418 Y23.5704
N8540 G1 X24.2781 Y23.5740
N8545 G1 X24.3090 Y23.5752
N8550 G1 X24.3444 Y23.5743
N8555 G1 X24.3762 Y23.5716
N8560 G1 X24.4086 Y23.5671
N8565 G1 X24.4413 Y23.5608
N8570 G1 X24.4698 Y23.5539
N8575 G1 X24.5034 Y23.5440
N8580 G1 X24.5277 Y23.5356
N8585 G1 X24.5622 Y23.5221
N8590 G1 X24.5826 Y23.5131
N8595 G1 X24.6180 Y23.4960
N8600 G1 X24.6342 Y23.4876
N8605 G1 X24.6705 Y23.4672
N8610 G1 X24.6897 Y23.4555
N8615 G1 X24.7644 Y23.4057
N8620 G1 X24.7827 Y23.3928
N8625 G1 X24.8601 Y23.3325
N8630 G1 X24.8724 Y23.3223
N8635 G1 X24.9519 Y23.2536
N8640 G1 X24.9600 Y23.2464
N8645 G1 X25.0407 Y23.1711
N8650 G1 X25.0464 Y23.1657
N8655 G1 X25.1202 Y23.0931
N8660 G1 Z-2.3330 F1000
N8665 G1 X25.1274 Y23.0862 F2000
N8670 G1 X25.1334 Y23.0802
N8675 G1 X25.2903 Y22.9170
N8680 G1 X25.2957 Y22.9113
N8685 G1 X25.3692 Y22.8306
N8690 G1 X25.3740 Y22.8252
N8695 G1 X25.4421 Y22.7466
N8700 G1 X25.4490 Y22.7385
N8705 G1 X25.5105 Y22.6623
N8710 G1 X25.5204 Y22.6497
N8715 G1 X25.5741 Y22.5756
N8720 G1 X25.5867 Y22.5567
N8725 G1 X25.6311 Y22.4841
N8730 G1 X25.6461 Y22.4568
N8735 G1 X25.6806 Y22.3848
N8740 G1 X25.6884 Y22.3668
N8745 G1 X25.6953 Y22.3485
N8750 G1 X25.7187 Y22.2762
N8755 G1 X25.7250 Y22.2546
N8760 G1 X25.7295 Y22.2327
N8765 G1 X25.7418 Y22.1595
N8770 G1 X25.7448 Y22.1361
N8775 G1 X25.7460 Y22.1130
N8780 G1 X25.7466 Y22.0380
N8785 G1 X25.7463 Y22.0164
N8790 G1 X25.7439 Y21.9948
N8795 G1 X25.7337 Y21.9177
N8800 G1 X25.7265 Y21.8811
N8805 G1 X25.7055 Y21.8019
N8810 G1 X25.6965 Y21.7734
N8815 G1 X25.6662 Y21.6921
N8820 G1 X25.6569 Y21.6699
N8825 G1 X25.6182 Y21.5871
N8830 G1 X25.6098 Y21.5706
N8835 G1 X25.5642 Y21.4869
N8840 G1 X25.5567 Y21.4740
N8845 G1 X25.5054 Y21.3903
N8850 G1 X25.4988 Y21.3798
N8855 G1 X25.4433 Y21.2967
N8860 G1 X25.4373 Y21.2880
N8865 G1 X25.3782 Y21.2061
N8870 G1 X25.3725 Y21.1983
N8875 G1 X25.3107 Y21.1182
N8880 G1 X25.3047 Y21.1107
N8885 G1 X25.2405 Y21.0327
N8890 G1 X25.2342 Y21.0252
N8895 G1 X25.1673 Y20.9493
N8900 G1 X25.1601 Y20.9415
N8905 G1 X25.0905 Y20.8677
N8910 G1 X25.0827 Y20.8599
N8915 G1 X25.0101 Y20.7882
N8920 G1 X25.0014 Y20.7801
N8925 G1 X24.9249 Y20.7108
N8930 G1 X24.9159 Y20.7030
N8935 G1 X24.8352 Y20.6355
N8940 G1 X24.8262 Y20.6280
N8945 G1 X24.7410 Y20.5623
N8950 G1 X24.7323 Y20.5557
N8955 G1 X24.6429 Y20.4918
N8960 G1 X24.6342 Y20.4858
N8965 G1 X24.5409 Y20.4237
N8970 G1 X24.5331 Y20.4186
N8975 G1 X24.4365 Y20.3589
N8980 G1 X24.4290 Y20.3544
N8985 G1 X24.3309 Y20.2974
N8990 G1 X24.3240 Y20.2935
N8995 G1 X24.2256 Y20.2398
N9000 G1 X24.2190 Y20.2362
N9005 G1 X24.1221 Y20.1864
N9010 G1 X24.1155 Y20.1831
N9015 G1 X24.0219 Y20.1378
N9020 G1 X24.0150 Y20.1348
N9025 G1 X23.9490 Y20.1048
N9030 G1 X24.0150 Y20.0748
N9035 G1 X24.0219 Y20.0715
N9040 G1 X24.1155 Y20.0265
N9045 G1 X24.1221 Y20.0232
N9050 G1 X24.2190 Y19.9734
N9055 G1 X24.2256 Y19.9698
N9060 G1 X24.3240 Y19.9161
N9065 G1 X24.3309 Y19.9122
N9070 G1 X24.4293 Y19.8549
N9075 G1 X24.4365 Y19.8507
N9080 G1 X24.5331 Y19.7907
N9085 G1 X24.5409 Y19.7856
N9090 G1 X24.6342 Y19.7238
N9095 G1 X24.6429 Y19.7178
N9100 G1 X24.7323 Y19.6539
N9105 G1 X24.7410 Y19.6473
N9110 G1 X24.8262 Y19.5813
N9115 G1 X24.8352 Y19.5741
N9120 G1 X24.9159 Y19.5066
N9125 G1 X24.9249 Y19.4988
N9130 G1 X25.0014 Y19.4292
N9135 G1 X25.0101 Y19.4211
N9140 G1 X25.0827 Y19.3497
N9145 G1 X25.0905 Y19.3416
N9150 G1 X25.1601 Y19.2681
N9155 G1 X25.1673 Y19.2603
N9160 G1 X25.2339 Y19.1844
N9165 G1 X25.2405 Y19.1769
N9170 G1 X25.3047 Y19.0989
N9175 G1 X25.3107 Y19.0914
N9180 G1 X25.3725 Y19.0113
N9185 G1 X25.3782 Y19.0035
N9190 G1 X25.4373 Y18.9213
N9195 G1 X25.4433 Y18.9129
N9200 G1 X25.4988 Y18.8298
N9205 G1 X25.5054 Y18.8193
N9210 G1 X25.5567 Y18.7356
N9215 G1 X25.5642 Y18.7227
N9220 G1 X25.6098 Y18.6390
N9225 G1 X25.6182 Y18.6222
N9230 G1 X25.6569 Y18.5394
N9235 G1 X25.6662 Y18.5175
N9240 G1 X25.6965 Y18.4362
N9245 G1 X25.7055 Y18.4077
N9250 G1 X25.7265 Y18.3282
N9255 G1 X25.7337 Y18.2919
N9260 G1 X25.7439 Y18.2148
N9265 G1 X25.7463 Y18.1932
N9270 G1 X25.7466 Y18.1716
N9275 G1 X25.7460 Y18.0966
N9280 G1 X25.7448 Y18.0732
N9285 G1 X25.7418 Y18.0501
N9290 G1 X25.7295 Y17.9769
N9295 G1 X25.7250 Y17.9550
N9300 G1 X25.7187 Y17.9331
N9305 G1 X25.6953 Y17.8611
N9310 G1 X25.6884 Y17.8428
N9315 G1 X25.6806 Y17.8248
N9320 G1 X25.6461 Y17.7528
N9325 G1 X25.6311 Y17.7255
N9330 G1 X25.5867 Y17.6529
N9335 G1 X25.5741 Y17.6340
N9340 G1 X25.5204 Y17.5599
N9345 G1 X25.5105 Y17.5470
N9350 G1 X25.4490 Y17.4708
N9355 G1 X25.4421 Y17.4627
N9360 G1 X25.3740 Y17.3844
N9365 G1 X25.3692 Y17.3790
N9370 G1 X25.2957 Y17.2983
N9375 G1 X25.2903 Y17.2926
N9380 G1 X25.1334 Y17.1294
N9385 G1 X25.1274 Y17.1234
N9390 G1 X25.0464 Y17.0439
N9395 G1 X25.0413 Y17.0388
N9400 G1 Z-2.0000
N9405 G1 X25.0407 Y17.0385
N9410 G1 X24.9600 Y16.9632
N9415 G1 X24.9519 Y16.9560
N9420 G1 X24.8724 Y16.8870
N9425 G1 X24.8601 Y16.8771
N9430 G1 X24.7827 Y16.8168
N9435 G1 X24.7644 Y16.8039
N9440 G1 X24.6897 Y16.7541
N9445 G1 X24.6705 Y16.7424
N9450 G1 X24.6342 Y16.7220
N9455 G1 X24.6177 Y16.7133
N9460 G1 X24.5823 Y16.6965
N9465 G1 X24.5622 Y16.6875
N9470 G1 X24.5280 Y16.6740
N9475 G1 X24.5034 Y16.6656
N9480 G1 X24.4698 Y16.6557
N9485 G1 X24.4413 Y16.6485
N9490 G1 X24.4086 Y16.6422
N9495 G1 X24.3759 Y16.6377
N9500 G1 X24.3444 Y16.6353
N9505 G1 X24.3093 Y16.6344
N9510 G1 X24.2784 Y16.6356
N9515 G1 X24.2418 Y16.6392
N9520 G1 X24.2115 Y16.6440
N9525 G1 X24.1764 Y16.6518
N9530 G1 X24.1467 Y16.6602
N9535 G1 X24.1140 Y16.6716
N9540 G1 X24.0849 Y16.6839
N9545 G1 X24.0570 Y16.6971
N9550 G1 X24.0285 Y16.7127
N9555 G1 X24.0048 Y16.7271
N9560 G1 X23.9766 Y16.7457
N9565 G1 X23.9493 Y16.7664
N9570 G1 X23.8941 Y16.8135
N9575 G1 X23.8701 Y16.8363
N9580 G1 X23.8155 Y16.8942
N9585 G1 X23.8101 Y16.9002
N9590 G1 Z-2.3330 F1000
N9595 G1 X23.8011 Y16.9107 F2000
N9600 G1 X23.7465 Y16.9779
N9605 G1 X23.7384 Y16.9881
N9610 G1 X23.6832 Y17.0625
N9615 G1 X23.6793 Y17.0676
N9620 G1 X23.6232 Y17.1465
N9625 G1 X23.5092 Y17.3058
N9630 G1 X23.4549 Y17.3775
N9635 G1 X23.4009 Y17.4432
N9640 G1 X23.3484 Y17.5008
N9645 G1 X23.2977 Y17.5500
N9650 G1 X23.2485 Y17.5911
N9655 G1 X23.2002 Y17.6250
N9660 G1 X23.1525 Y17.6529
N9665 G1 X23.1045 Y17.6760
N9670 G1 X23.0556 Y17.6946
N9675 G1 X23.0055 Y17.7093
N9680 G1 X22.9554 Y17.7201
N9685 G1 X22.9074 Y17.7267
N9690 G1 X22.8630 Y17.7291
N9695 G1 X22.8234 Y17.7270
N9700 G1 X22.7889 Y17.7213
N9705 G1 X22.7583 Y17.7120
N9710 G1 X22.7286 Y17.6982
N9715 G1 X22.6932 Y17.6751
N9720 G1 X22.6806 Y17.6649
N9725 G1 X22.6662 Y17.6517
N9730 G1 X22.6260 Y17.6073
N9735 G1 X22.5876 Y17.5548
N9740 G1 X22.5501 Y17.4915
N9745 G1 X22.5153 Y17.4195
N9750 G1 X22.4844 Y17.3406
N9755 G1 X22.4589 Y17.2578
N9760 G1 X22.4391 Y17.1729
N9765 G1 X22.4253 Y17.0883
N9770 G1 X22.4178 Y17.0049
N9775 G1 X22.4160 Y16.9236
N9780 G1 X22.4196 Y16.8441
N9785 G1 X22.4280 Y16.7658
N9790 G1 X22.4403 Y16.6881
N9795 G1 X22.4565 Y16.6098
N9800 G1 X22.4754 Y16.5309
N9805 G1 X22.5663 Y16.1904
N9810 G1 X22.5678 Y16.1853
N9815 G1 X22.6122 Y16.0056
N9820 G1 X22.6131 Y16.0014
N9825 G1 X22.6353 Y15.9072
N9830 G1 X22.6356 Y15.9054
N9835 G1 X22.6578 Y15.8076
N9840 G1 X22.6581 Y15.8070
N9845 G1 X22.6809 Y15.7047
N9850 G1 X22.7049 Y15.5982
N9855 G1 X22.7304 Y15.4875
N9860 G1 X22.7577 Y15.3714
N9865 G1 X22.7874 Y15.2493
N9870 G1 X22.8192 Y15.1212
N9875 G1 X22.8540 Y14.9862
N9880 G1 X22.8912 Y14.8443
N9885 G1 X22.9308 Y14.6952
N9890 G1 X22.9728 Y14.5389
N9895 G1 X23.0169 Y14.3760
N9900 G1 X23.0631 Y14.2065
N9905 G1 X23.1015 Y14.0637
N9910 G1 Z-2.0000
N9915 G1 X23.1105 Y14.0304
N9920 G1 Y14.0298
N9925 G1 X23.1594 Y13.8486
N9930 G1 Y13.8480
N9935 G1 X23.2092 Y13.6620
N9940 G1 Y13.6611
N9945 G1 X23.2593 Y13.4706
N9950 G1 X23.2596 Y13.4694
N9955 G1 X23.3604 Y13.0800
N9960 G1 X23.3607 Y13.0785
N9965 G1 X23.4051 Y12.9027
N9970 G1 Z-2.3330 F1000
N9975 G1 X23.4600 Y12.6852 F2000
N9980 G1 X23.4603 Y12.6846
N9985 G1 X23.5089 Y12.4899
N9990 G1 X23.5569 Y12.2988
N9995 G1 X23.6037 Y12.1125
N10000 G1 X23.6490 Y11.9331
N10005 G1 X23.6931 Y11.7612
N10010 G1 X23.7357 Y11.5980
N10015 G1 X23.7765 Y11.4447
N10020 G1 X23.8158 Y11.3013
N10025 G1 X23.8533 Y11.1687
N10030 G1 X23.8893 Y11.0457
N10035 G1 X23.9232 Y10.9320
N10040 G1 X23.9556 Y10.8255
N10045 G1 X23.9862 Y10.7256
N10050 G1 X23.9865 Y10.7238
N10055 G1 X24.0150 Y10.6287
N10060 G1 X24.0171 Y10.6215
N10065 G1 X24.0669 Y10.4376
N10070 G1 X24.0696 Y10.4265
N10075 G1 X24.0912 Y10.3329
N10080 G1 X24.0927 Y10.3248
N10085 G1 X24.1122 Y10.2276
N10090 G1 X24.1137 Y10.2201
N10095 G1 X24.1317 Y10.1178
N10100 G1 X24.1326 Y10.1124
N10105 G1 X24.1491 Y10.0044
N10110 G1 X24.1497 Y10.0014
N10115 G1 X24.1659 Y9.8880
N10120 G1 X24.1827 Y9.7728
N10125 G1 X24.2010 Y9.6597
N10130 G1 X24.2211 Y9.5541
N10135 G1 X24.2448 Y9.4569
N10140 G1 X24.2565 Y9.4188
N10145 G1 X24.2691 Y9.3837
N10150 G1 X24.2811 Y9.3552
N10155 G1 X24.2922 Y9.3336
N10160 G1 X24.2967 Y9.3264
N10165 G1 X24.3000 Y9.3270
N10170 G1 X24.3219 Y9.3336
N10175 G1 X24.3498 Y9.3444
N10180 G1 X24.3825 Y9.3591
N10185 G1 X24.4170 Y9.3771
N10190 G1 X24.5016 Y9.4269
N10195 G1 X24.5892 Y9.4848
N10200 G1 X24.6795 Y9.5487
N10205 G1 X24.7683 Y9.6138
N10210 G1 X24.8535 Y9.6765
N10215 G1 X24.8538 Y9.6768
N10220 G1 X24.9324 Y9.7347
N10225 G1 X24.9333 Y9.7353
N10230 G1 X25.0041 Y9.7869
N10235 G1 X25.0653 Y9.8319
N10240 G1 X25.1151 Y9.8700
N10245 G1 X25.1538 Y9.9021
N10250 G1 X25.1835 Y9.9303
N10255 G1 X25.2084 Y9.9591
N10260 G1 X25.2330 Y9.9927
N10265 G1 X25.2591 Y10.0362
N10270 G1 X25.2870 Y10.0911
N10275 G1 X25.3164 Y10.1583
N10280 G1 X25.3464 Y10.2372
N10285 G1 X25.3770 Y10.3263
N10290 G1 X25.4070 Y10.4241
N10295 G1 X25.4367 Y10.5294
N10300 G1 X25.4655 Y10.6407
N10305 G1 X25.4934 Y10.7562
N10310 G1 X25.5480 Y11.0019
N10315 G1 X25.6020 Y11.2581
N10320 G1 X25.6023 Y11.2596
N10325 G1 X25.6593 Y11.5239
N10330 G1 X25.6602 Y11.5281
N10335 G1 X25.6914 Y11.6628
N10340 G1 X25.6923 Y11.6670
N10345 G1 X25.7259 Y11.8038
N10350 G1 X25.7271 Y11.8089
N10355 G1 X25.7637 Y11.9481
N10360 G1 X25.7652 Y11.9538
N10365 G1 X25.8057 Y12.0957
N10370 G1 X25.8075 Y12.1020
N10375 G1 X25.8522 Y12.2466
N10380 G1 X25.8546 Y12.2532
N10385 G1 X25.9041 Y12.4014
N10390 G1 X25.9062 Y12.4080
N10395 G1 X25.9611 Y12.5595
N10400 G1 X25.9635 Y12.5661
N10405 G1 X26.0238 Y12.7215
N10410 G1 X26.0265 Y12.7278
N10415 G1 X26.0925 Y12.8871
N10420 G1 X26.0952 Y12.8934
N10425 G1 X26.1672 Y13.0566
N10430 G1 X26.1699 Y13.0626
N10435 G1 X26.2482 Y13.2303
N10440 G1 X26.2509 Y13.2357
N10445 G1 X26.3355 Y13.4076
N10450 G1 X26.3382 Y13.4127
N10455 G1 X26.4291 Y13.5891
N10460 G1 X26.4315 Y13.5939
N10465 G1 X26.5287 Y13.7742
N10470 G1 X26.5314 Y13.7787
N10475 G1 X26.5677 Y13.8438
N10480 G1 Z-3.5000 F1000
N10485 G1 X26.6349 Y13.9632 F2000
N10490 G1 X26.6373 Y13.9674
N10495 G1 X26.7471 Y14.1555
N10500 G1 X26.7498 Y14.1597
N10505 G1 X26.8659 Y14.3511
N10510 G1 X26.8683 Y14.3553
N10515 G1 X26.9907 Y14.5497
N10520 G1 X26.9931 Y14.5539
N10525 G1 X27.1215 Y14.7510
N10530 G1 X27.1242 Y14.7552
N10535 G1 X27.2586 Y14.9538
N10540 G1 X27.2616 Y14.9583
N10545 G1 X27.4017 Y15.1584
N10550 G1 X27.4050 Y15.1629
N10555 G1 X27.5514 Y15.3633
N10560 G1 X27.5550 Y15.3681
N10565 G1 X27.7071 Y15.5679
N10570 G1 X27.7110 Y15.5733
N10575 G1 X27.8691 Y15.7716
N10580 G1 X27.8733 Y15.7770
N10585 G1 X28.0371 Y15.9732
N10590 G1 X28.0419 Y15.9786
N10595 G1 X28.2111 Y16.1715
N10600 G1 X28.2159 Y16.1772
N10605 G1 X28.3902 Y16.3665
N10610 G1 X28.3956 Y16.3719
N10615 G1 X28.5180 Y16.4982
N10620 G1 Z-2.0000
N10625 G1 X28.5747 Y16.5567
N10630 G1 X28.5798 Y16.5621
N10635 G1 X28.7634 Y16.7418
N10640 G1 X28.7688 Y16.7469
N10645 G1 X28.9557 Y16.9215
N10650 G1 X28.9611 Y16.9266
N10655 G1 X29.1513 Y17.0955
N10660 G1 X29.1567 Y17.1000
N10665 G1 X29.3493 Y17.2632
N10670 G1 X29.3547 Y17.2677
N10675 G1 X29.4042 Y17.3073
N10680 G1 Z-3.5000 F1000
N10685 G1 X29.5494 Y17.4243 F2000
N10690 G1 X29.5545 Y17.4285
N10695 G1 X29.7501 Y17.5791
N10700 G1 X29.7555 Y17.5830
N10705 G1 X29.9514 Y17.7270
N10710 G1 X29.9565 Y17.7306
N10715 G1 X30.1524 Y17.8683
N10720 G1 X30.1575 Y17.8719
N10725 G1 X30.3525 Y18.0030
N10730 G1 X30.3570 Y18.0060
N10735 G1 X30.5502 Y18.1311
N10740 G1 X30.5550 Y18.1341
N10745 G1 X30.7464 Y18.2529
N10750 G1 X30.7506 Y18.2556
N10755 G1 X30.9393 Y18.3684
N10760 G1 X30.9435 Y18.3708
N10765 G1 X31.1295 Y18.4779
N10770 G1 X31.1331 Y18.4800
N10775 G1 X31.3152 Y18.5814
N10780 G1 X31.3188 Y18.5835
N10785 G1 X31.4973 Y18.6798
N10790 G1 X31.5012 Y18.6816
N10795 G1 X31.6761 Y18.7728
N10800 G1 X31.6788 Y18.7743
N10805 G1 X31.8492 Y18.8610
N10810 G1 X31.8525 Y18.8625
N10815 G1 X32.0193 Y18.9447
N10820 G1 X32.0217 Y18.9459
N10825 G1 X32.1843 Y19.0242
N10830 G1 X32.1870 Y19.0257
N10835 G1 X32.3460 Y19.1001
N10840 G1 X32.3484 Y19.1013
N10845 G1 X32.5038 Y19.1727
N10850 G1 X32.5062 Y19.1736
N10855 G1 X32.6586 Y19.2420
N10860 G1 X32.6607 Y19.2429
N10865 G1 X32.8104 Y19.3086
N10870 G1 X32.8125 Y19.3095
N10875 G1 X32.9598 Y19.3728
N10880 G1 X32.9634 Y19.3746
N10885 G1 X33.2541 Y19.4949
N10890 G1 X33.2595 Y19.4970
N10895 G1 X33.5487 Y19.6104
N10900 G1 X33.5553 Y19.6131
N10905 G1 X33.8493 Y19.7202
N10910 G1 X33.8559 Y19.7226
N10915 G1 X34.0071 Y19.7739
N10920 G1 X34.0119 Y19.7754
N10925 G1 X34.1667 Y19.8249
N10930 G1 X34.1724 Y19.8267
N10935 G1 X34.3320 Y19.8741
N10940 G1 X34.3380 Y19.8759
N10945 G1 X34.5030 Y19.9215
N10950 G1 X34.5096 Y19.9230
N10955 G1 X34.6806 Y19.9662
N10960 G1 X34.6872 Y19.9677
N10965 G1 X34.8648 Y20.0082
N10970 G1 X34.8717 Y20.0097
N10975 G1 X35.0559 Y20.0472
N10980 G1 X35.0631 Y20.0484
N10985 G1 X35.2539 Y20.0823
N10990 G1 X35.2608 Y20.0835
N10995 G1 X35.3988 Y20.1048
N11000 G1 X35.2608 Y20.1258
N11005 G1 X35.2539 Y20.1270
N11010 G1 X35.0631 Y20.1612
N11015 G1 X35.0559 Y20.1624
N11020 G1 X34.8717 Y20.1999
N11025 G1 X34.8648 Y20.2014
N11030 G1 X34.6872 Y20.2416
N11035 G1 X34.6806 Y20.2434
N11040 G1 X34.5096 Y20.2863
N11045 G1 X34.5030 Y20.2881
N11050 G1 X34.3380 Y20.3337
N11055 G1 X34.3320 Y20.3352
N11060 G1 X34.1724 Y20.3829
N11065 G1 X34.1667 Y20.3847
N11070 G1 X34.0119 Y20.4342
N11075 G1 X34.0071 Y20.4357
N11080 G1 X33.8559 Y20.4870
N11085 G1 X33.8493 Y20.4894
N11090 G1 X33.5553 Y20.5965
N11095 G1 X33.5487 Y20.5989
N11100 G1 X33.2595 Y20.7126
N11105 G1 X33.2541 Y20.7147
N11110 G1 X32.9634 Y20.8350
N11115 G1 X32.9598 Y20.8365
N11120 G1 X32.8125 Y20.8998
N11125 G1 X32.8104 Y20.9007
N11130 G1 X32.6607 Y20.9664
N11135 G1 X32.6586 Y20.9676
N11140 G1 X32.5062 Y21.0360
N11145 G1 X32.5038 Y21.0369
N11150 G1 X32.3484 Y21.1083
N11155 G1 X32.3460 Y21.1092
N11160 G1 X32.1870 Y21.1839
N11165 G1 X32.1843 Y21.1851
N11170 G1 X32.0217 Y21.2634
N11175 G1 X32.0193 Y21.2646
N11180 G1 X31.8525 Y21.3471
N11185 G1 X31.8492 Y21.3486
N11190 G1 X31.6788 Y21.4353
N11195 G1 X31.6758 Y21.4368
N11200 G1 X31.5009 Y21.5280
N11205 G1 X31.4976 Y21.5298
N11210 G1 X31.3191 Y21.6261
N11215 G1 X31.3152 Y21.6279
N11220 G1 X31.1331 Y21.7296
N11225 G1 X31.1295 Y21.7317
N11230 G1 X30.9435 Y21.8385
N11235 G1 X30.9393 Y21.8412
N11240 G1 X30.7506 Y21.9540
N11245 G1 X30.7464 Y21.9567
N11250 G1 X30.5550 Y22.0755
N11255 G1 X30.5502 Y22.0785
N11260 G1 X30.3570 Y22.2033
N11265 G1 X30.3525 Y22.2063
N11270 G1 X30.1575 Y22.3377
N11275 G1 X30.1524 Y22.3410
N11280 G1 X29.9565 Y22.4787
N11285 G1 X29.9514 Y22.4826
N11290 G1 X29.7555 Y22.6266
N11295 G1 X29.7501 Y22.6305
N11300 G1 X29.5545 Y22.7811
N11305 G1 X29.5491 Y22.7853
N11310 G1 X29.3547 Y22.9419
N11315 G1 X29.3493 Y22.9464
N11320 G1 X29.1567 Y23.1093
N11325 G1 X29.1513 Y23.1141
N11330 G1 X28.9611 Y23.2830
N11335 G1 X28.9557 Y23.2881
N11340 G1 X28.7688 Y23.4624
N11345 G1 X28.7634 Y23.4678
N11350 G1 X28.5798 Y23.6475
N11355 G1 X28.5747 Y23.6529
N11360 G1 X28.3956 Y23.8377
N11365 G1 X28.3905 Y23.8431
N11370 G1 X28.3842 Y23.8500
N11375 G1 Z-2.0000
N11380 G1 X28.2159 Y24.0324
N11385 G1 X28.2111 Y24.0378
N11390 G1 X28.0419 Y24.2307
N11395 G1 X28.0371 Y24.2364
N11400 G1 X27.8733 Y24.4326
N11405 G1 X27.8691 Y24.4380
N11410 G1 X27.7110 Y24.6363
N11415 G1 X27.7071 Y24.6414
N11420 G1 X27.6111 Y24.7677
N11425 G1 Z-3.5000 F1000
N11430 G1 X27.5550 Y24.8415 F2000
N11435 G1 X27.5514 Y24.8463
N11440 G1 X27.4050 Y25.0467
N11445 G1 X27.4017 Y25.0512
N11450 G1 X27.2616 Y25.2513
N11455 G1 X27.2586 Y25.2555
N11460 G1 X27.1242 Y25.4544
N11465 G1 X27.1215 Y25.4586
N11470 G1 X26.9931 Y25.6554
N11475 G1 X26.9907 Y25.6596
N11480 G1 X26.8683 Y25.8543
N11485 G1 X26.8659 Y25.8582
N11490 G1 X26.7498 Y26.0499
N11495 G1 X26.7471 Y26.0541
N11500 G1 X26.6373 Y26.2419
N11505 G1 X26.6349 Y26.2464
N11510 G1 X26.5314 Y26.4309
N11515 G1 X26.5287 Y26.4354
N11520 G1 X26.4315 Y26.6157
N11525 G1 X26.4291 Y26.6205
N11530 G1 X26.3382 Y26.7966
N11535 G1 X26.3355 Y26.8020
N11540 G1 X26.2509 Y26.9739
N11545 G1 X26.2482 Y26.9793
N11550 G1 X26.1699 Y27.1470
N11555 G1 X26.1672 Y27.1527
N11560 G1 X26.0952 Y27.3162
N11565 G1 X26.0925 Y27.3225
N11570 G1 X26.0265 Y27.4818
N11575 G1 X26.0238 Y27.4881
N11580 G1 X25.9635 Y27.6435
N11585 G1 X25.9611 Y27.6501
N11590 G1 X25.9062 Y27.8016
N11595 G1 X25.9041 Y27.8082
N11600 G1 X25.8546 Y27.9561
N11605 G1 X25.8522 Y27.9630
N11610 G1 X25.8075 Y28.1076
N11615 G1 X25.8057 Y28.1139
N11620 G1 X25.7652 Y28.2555
N11625 G1 X25.7637 Y28.2615
N11630 G1 X25.7271 Y28.4007
N11635 G1 X25.7259 Y28.4055
N11640 G1 X25.6923 Y28.5426
N11645 G1 X25.6914 Y28.5465
N11650 G1 X25.6602 Y28.6815
N11655 G1 X25.6593 Y28.6854
N11660 G1 X25.6023 Y28.9500
N11665 G1 X25.6020 Y28.9515
N11670 G1 X25.5480 Y29.2077
N11675 G1 X25.4934 Y29.4531
N11680 G1 X25.4655 Y29.5689
N11685 G1 X25.4367 Y29.6802
N11690 G1 X25.4070 Y29.7855
N11695 G1 X25.3770 Y29.8833
N11700 G1 X25.3464 Y29.9724
N11705 G1 X25.3164 Y30.0513
N11710 G1 X25.2870 Y30.1185
N11715 G1 X25.2591 Y30.1734
N11720 G1 X25.2327 Y30.2169
N11725 G1 X25.2084 Y30.2508
N11730 G1 X25.1835 Y30.2790
N11735 G1 X25.1538 Y30.3072
N11740 G1 X25.1151 Y30.3396
N11745 G1 X25.0653 Y30.3777
N11750 G1 X25.0038 Y30.4230
N11755 G1 X24.9333 Y30.4743
N11760 G1 X24.9327 Y30.4749
N11765 G1 X24.8541 Y30.5325
N11770 G1 X24.8532 Y30.5331
N11775 G1 X24.7683 Y30.5958
N11780 G1 X24.6795 Y30.6609
N11785 G1 X24.5892 Y30.7248
N11790 G1 X24.5013 Y30.7830
N11795 G1 X24.4173 Y30.8322
N11800 G1 X24.3825 Y30.8502
N11805 G1 X24.3492 Y30.8655
N11810 G1 X24.3219 Y30.8760
N11815 G1 X24.3006 Y30.8823
N11820 G1 X24.2967 Y30.8832
N11825 G1 X24.2925 Y30.8763
N11830 G1 X24.2811 Y30.8544
N11835 G1 X24.2691 Y30.8256
N11840 G1 X24.2565 Y30.7908
N11845 G1 X24.2448 Y30.7524
N11850 G1 X24.2211 Y30.6555
N11855 G1 X24.2010 Y30.5496
N11860 G1 X24.1827 Y30.4368
N11865 G1 X24.1659 Y30.3213
N11870 G1 X24.1497 Y30.2082
N11875 G1 X24.1491 Y30.2052
N11880 G1 X24.1326 Y30.0972
N11885 G1 X24.1314 Y30.0915
N11890 G1 X24.1137 Y29.9895
N11895 G1 X24.1122 Y29.9820
N11900 G1 X24.0930 Y29.8848
N11905 G1 X24.0912 Y29.8767
N11910 G1 X24.0696 Y29.7831
N11915 G1 X24.0669 Y29.7720
N11920 G1 X24.0171 Y29.5881
N11925 G1 X24.0150 Y29.5806
N11930 G1 X23.9865 Y29.4858
N11935 G1 X23.9862 Y29.4840
N11940 G1 X23.9556 Y29.3838
N11945 G1 X23.9232 Y29.2776
N11950 G1 X23.8893 Y29.1639
N11955 G1 X23.8533 Y29.0409
N11960 G1 X23.8158 Y28.9080
N11965 G1 X23.7765 Y28.7649
N11970 G1 X23.7357 Y28.6116
N11975 G1 X23.6931 Y28.4484
N11980 G1 X23.6490 Y28.2765
N11985 G1 X23.6037 Y28.0968
N11990 G1 X23.5569 Y27.9108
N11995 G1 X23.5092 Y27.7197
N12000 G1 X23.4603 Y27.5250
N12005 G1 X23.4600 Y27.5244
N12010 G1 X23.4198 Y27.3654
N12015 G1 Z-2.0000
N12020 G1 X23.3607 Y27.1311
N12025 G1 X23.3604 Y27.1296
N12030 G1 X23.2596 Y26.7402
N12035 G1 X23.2593 Y26.7387
N12040 G1 X23.2092 Y26.5485
N12045 G1 Y26.5476
N12050 G1 X23.1594 Y26.3616
N12055 G1 Y26.3607
N12060 G1 X23.1171 Y26.2041
N12065 G1 Z-3.5000 F1000
N12070 G1 X23.1105 Y26.1795 F2000
N12075 G1 Y26.1792
N12080 G1 X23.0631 Y26.0034
N12085 G1 X23.0169 Y25.8336
N12090 G1 X22.9728 Y25.6704
N12095 G1 X22.9308 Y25.5144
N12100 G1 X22.8912 Y25.3653
N12105 G1 X22.8540 Y25.2234
N12110 G1 X22.8192 Y25.0884
N12115 G1 X22.7874 Y24.9600
N12120 G1 X22.7577 Y24.8382
N12125 G1 X22.7304 Y24.7221
N12130 G1 X22.7049 Y24.6111
N12135 G1 X22.6809 Y24.5049
N12140 G1 X22.6581 Y24.4026
N12145 G1 X22.6578 Y24.4020
N12150 G1 X22.6356 Y24.3039
N12155 G1 X22.6353 Y24.3021
N12160 G1 X22.6131 Y24.2079
N12165 G1 X22.6122 Y24.2040
N12170 G1 X22.5678 Y24.0243
N12175 G1 X22.5663 Y24.0189
N12180 G1 X22.4754 Y23.6787
N12185 G1 X22.4565 Y23.5998
N12190 G1 X22.4403 Y23.5215
N12195 G1 X22.4280 Y23.4438
N12200 G1 X22.4196 Y23.3655
N12205 G1 X22.4160 Y23.2860
N12210 G1 X22.4178 Y23.2047
N12215 G1 X22.4253 Y23.1213
N12220 G1 X22.4391 Y23.0364
N12225 G1 X22.4589 Y22.9518
N12230 G1 X22.4844 Y22.8687
N12235 G1 X22.5153 Y22.7901
N12240 G1 X22.5501 Y22.7178
N12245 G1 X22.5876 Y22.6548
N12250 G1 X22.6260 Y22.6023
N12255 G1 X22.6662 Y22.5579
N12260 G1 X22.6806 Y22.5447
N12265 G1 X22.6932 Y22.5342
N12270 G1 X22.7286 Y22.5111
N12275 G1 X22.7583 Y22.4976
N12280 G1 X22.7889 Y22.4883
N12285 G1 X22.8234 Y22.4826
N12290 G1 X22.8630 Y22.4805
N12295 G1 X22.9074 Y22.4829
N12300 G1 X22.9554 Y22.4892
N12305 G1 X23.0055 Y22.5000
N12310 G1 X23.0553 Y22.5150
N12315 G1 X23.1045 Y22.5336
N12320 G1 X23.1528 Y22.5567
N12325 G1 X23.2002 Y22.5846
N12330 G1 X23.2485 Y22.6185
N12335 G1 X23.2977 Y22.6596
N12340 G1 X23.3484 Y22.7088
N12345 G1 X23.4009 Y22.7664
N12350 G1 X23.4549 Y22.8321
N12355 G1 X23.5092 Y22.9035
N12360 G1 X23.6232 Y23.0631
N12365 G1 X23.6793 Y23.1420
N12370 G1 X23.6832 Y23.1471
N12375 G1 X23.7384 Y23.2215
N12380 G1 X23.7465 Y23.2317
N12385 G1 X23.8011 Y23.2989
N12390 G1 X23.8155 Y23.3154
N12395 G1 X23.8701 Y23.3733
N12400 G1 X23.8941 Y23.3961
N12405 G1 X23.9349 Y23.4309
N12410 G1 Z-2.0000
N12415 G1 X23.9493 Y23.4432
N12420 G1 X23.9766 Y23.4636
N12425 G1 X24.0048 Y23.4825
N12430 G1 X24.0282 Y23.4966
N12435 G1 X24.0567 Y23.5122
N12440 G1 X24.0852 Y23.5260
N12445 G1 X24.1143 Y23.5380
N12450 G1 X24.1467 Y23.5494
N12455 G1 X24.1764 Y23.5578
N12460 G1 X24.2115 Y23.5656
N12465 G1 X24.2418 Y23.5704
N12470 G1 X24.2781 Y23.5740
N12475 G1 X24.3090 Y23.5752
N12480 G1 X24.3444 Y23.5743
N12485 G1 X24.3762 Y23.5716
N12490 G1 X24.4086 Y23.5671
N12495 G1 X24.4413 Y23.5608
N12500 G1 X24.4698 Y23.5539
N12505 G1 X24.5034 Y23.5440
N12510 G1 X24.5277 Y23.5356
N12515 G1 X24.5622 Y23.5221
N12520 G1 X24.5826 Y23.5131
N12525 G1 X24.6180 Y23.4960
N12530 G1 X24.6342 Y23.4876
N12535 G1 X24.6705 Y23.4672
N12540 G1 X24.6897 Y23.4555
N12545 G1 X24.7644 Y23.4057
N12550 G1 X24.7827 Y23.3928
N12555 G1 X24.8601 Y23.3325
N12560 G1 X24.8724 Y23.3223
N12565 G1 X24.9519 Y23.2536
N12570 G1 X24.9600 Y23.2464
N12575 G1 X25.0407 Y23.1711
N12580 G1 X25.0464 Y23.1657
N12585 G1 X25.1202 Y23.0931
N12590 G1 Z-3.5000 F1000
N12595 G1 X25.1274 Y23.0862 F2000
N12600 G1 X25.1334 Y23.0802
N12605 G1 X25.2903 Y22.9170
N12610 G1 X25.2957 Y22.9113
N12615 G1 X25.3692 Y22.8306
N12620 G1 X25.3740 Y22.8252
N12625 G1 X25.4421 Y22.7466
N12630 G1 X25.4490 Y22.7385
N12635 G1 X25.5105 Y22.6623
N12640 G1 X25.5204 Y22.6497
N12645 G1 X25.5741 Y22.5756
N12650 G1 X25.5867 Y22.5567
N12655 G1 X25.6311 Y22.4841
N12660 G1 X25.6461 Y22.4568
N12665 G1 X25.6806 Y22.3848
N12670 G1 X25.6884 Y22.3668
N12675 G1 X25.6953 Y22.3485
N12680 G1 X25.7187 Y22.2762
N12685 G1 X25.7250 Y22.2546
N12690 G1 X25.7295 Y22.2327
N12695 G1 X25.7418 Y22.1595
N12700 G1 X25.7448 Y22.1361
N12705 G1 X25.7460 Y22.1130
N12710 G1 X25.7466 Y22.0380
N12715 G1 X25.7463 Y22.0164
N12720 G1 X25.7439 Y21.9948
N12725 G1 X25.7337 Y21.9177
N12730 G1 X25.7265 Y21.8811
N12735 G1 X25.7055 Y21.8019
N12740 G1 X25.6965 Y21.7734
N12745 G1 X25.6662 Y21.6921
N12750 G1 X25.6569 Y21.6699
N12755 G1 X25.6182 Y21.5871
N12760 G1 X25.6098 Y21.5706
N12765 G1 X25.5642 Y21.4869
N12770 G1 X25.5567 Y21.4740
N12775 G1 X25.5054 Y21.3903
N12780 G1 X25.4988 Y21.3798
N12785 G1 X25.4433 Y21.2967
N12790 G1 X25.4373 Y21.2880
N12795 G1 X25.3782 Y21.2061
N12800 G1 X25.3725 Y21.1983
N12805 G1 X25.3107 Y21.1182
N12810 G1 X25.3047 Y21.1107
N12815 G1 X25.2405 Y21.0327
N12820 G1 X25.2342 Y21.0252
N12825 G1 X25.1673 Y20.9493
N12830 G1 X25.1601 Y20.9415
N12835 G1 X25.0905 Y20.8677
N12840 G1 X25.0827 Y20.8599
N12845 G1 X25.0101 Y20.7882
N12850 G1 X25.0014 Y20.7801
N12855 G1 X24.9249 Y20.7108
N12860 G1 X24.9159 Y20.7030
N12865 G1 X24.8352 Y20.6355
N12870 G1 X24.8262 Y20.6280
N12875 G1 X24.7410 Y20.5623
N12880 G1 X24.7323 Y20.5557
N12885 G1 X24.6429 Y20.4918
N12890 G1 X24.6342 Y20.4858
N12895 G1 X24.5409 Y20.4237
N12900 G1 X24.5331 Y20.4186
N12905 G1 X24.4365 Y20.3589
N12910 G1 X24.4290 Y20.3544
N12915 G1 X24.3309 Y20.2974
N12920 G1 X24.3240 Y20.2935
N12925 G1 X24.2256 Y20.2398
N12930 G1 X24.2190 Y20.2362
N12935 G1 X24.1221 Y20.1864
N12940 G1 X24.1155 Y20.1831
N12945 G1 X24.0219 Y20.1378
N12950 G1 X24.0150 Y20.1348
N12955 G1 X23.9490 Y20.1048
N12960 G1 X24.0150 Y20.0748
N12965 G1 X24.0219 Y20.0715
N12970 G1 X24.1155 Y20.0265
N12975 G1 X24.1221 Y20.0232
N12980 G1 X24.2190 Y19.9734
N12985 G1 X24.2256 Y19.9698
N12990 G1 X24.3240 Y19.9161
N12995 G1 X24.3309 Y19.9122
N13000 G1 X24.4293 Y19.8549
N13005 G1 X24.4365 Y19.8507
N13010 G1 X24.5331 Y19.7907
N13015 G1 X24.5409 Y19.7856
N13020 G1 X24.6342 Y19.7238
N13025 G1 X24.6429 Y19.7178
N13030 G1 X24.7323 Y19.6539
N13035 G1 X24.7410 Y19.6473
N13040 G1 X24.8262 Y19.5813
N13045 G1 X24.8352 Y19.5741
N13050 G1 X24.9159 Y19.5066
N13055 G1 X24.9249 Y19.4988
N13060 G1 X25.0014 Y19.4292
N13065 G1 X25.0101 Y19.4211
N13070 G1 X25.0827 Y19.3497
N13075 G1 X25.0905 Y19.3416
N13080 G1 X25.1601 Y19.2681
N13085 G1 X25.1673 Y19.2603
N13090 G1 X25.2339 Y19.1844
N13095 G1 X25.2405 Y19.1769
N13100 G1 X25.3047 Y19.0989
N13105 G1 X25.3107 Y19.0914
N13110 G1 X25.3725 Y19.0113
N13115 G1 X25.3782 Y19.0035
N13120 G1 X25.4373 Y18.9213
N13125 G1 X25.4433 Y18.9129
N13130 G1 X25.4988 Y18.8298
N13135 G1 X25.5054 Y18.8193
N13140 G1 X25.5567 Y18.7356
N13145 G1 X25.5642 Y18.7227
N13150 G1 X25.6098 Y18.6390
N13155 G1 X25.6182 Y18.6222
N13160 G1 X25.6569 Y18.5394
N13165 G1 X25.6662 Y18.5175
N13170 G1 X25.6965 Y18.4362
N13175 G1 X25.7055 Y18.4077
N13180 G1 X25.7265 Y18.3282
N13185 G1 X25.7337 Y18.2919
N13190 G1 X25.7439 Y18.2148
N13195 G1 X25.7463 Y18.1932
N13200 G1 X25.7466 Y18.1716
N13205 G1 X25.7460 Y18.0966
N13210 G1 X25.7448 Y18.0732
N13215 G1 X25.7418 Y18.0501
N13220 G1 X25.7295 Y17.9769
N13225 G1 X25.7250 Y17.9550
N13230 G1 X25.7187 Y17.9331
N13235 G1 X25.6953 Y17.8611
N13240 G1 X25.6884 Y17.8428
N13245 G1 X25.6806 Y17.8248
N13250 G1 X25.6461 Y17.7528
N13255 G1 X25.6311 Y17.7255
N13260 G1 X25.5867 Y17.6529
N13265 G1 X25.5741 Y17.6340
N13270 G1 X25.5204 Y17.5599
N13275 G1 X25.5105 Y17.5470
N13280 G1 X25.4490 Y17.4708
N13285 G1 X25.4421 Y17.4627
N13290 G1 X25.3740 Y17.3844
N13295 G1 X25.3692 Y17.3790
N13300 G1 X25.2957 Y17.2983
N13305 G1 X25.2903 Y17.2926
N13310 G1 X25.1334 Y17.1294
N13315 G1 X25.1274 Y17.1234
N13320 G1 X25.0464 Y17.0439
N13325 G1 X25.0413 Y17.0388
N13330 G1 Z-2.0000
N13335 G1 X25.0407 Y17.0385
N13340 G1 X24.9600 Y16.9632
N13345 G1 X24.9519 Y16.9560
N13350 G1 X24.8724 Y16.8870
N13355 G1 X24.8601 Y16.8771
N13360 G1 X24.7827 Y16.8168
N13365 G1 X24.7644 Y16.8039
N13370 G1 X24.6897 Y16.7541
N13375 G1 X24.6705 Y16.7424
N13380 G1 X24.6342 Y16.7220
N13385 G1 X24.6177 Y16.7133
N13390 G1 X24.5823 Y16.6965
N13395 G1 X24.5622 Y16.6875
N13400 G1 X24.5280 Y16.6740
N13405 G1 X24.5034 Y16.6656
N13410 G1 X24.4698 Y16.6557
N13415 G1 X24.4413 Y16.6485
N13420 G1 X24.4086 Y16.6422
N13425 G1 X24.3759 Y16.6377
N13430 G1 X24.3444 Y16.6353
N13435 G1 X24.3093 Y16.6344
N13440 G1 X24.2784 Y16.6356
N13445 G1 X24.2418 Y16.6392
N13450 G1 X24.2115 Y16.6440
N13455 G1 X24.1764 Y16.6518
N13460 G1 X24.1467 Y16.6602
N13465 G1 X24.1140 Y16.6716
N13470 G1 X24.0849 Y16.6839
N13475 G1 X24.0570 Y16.6971
N13480 G1 X24.0285 Y16.7127
N13485 G1 X24.0048 Y16.7271
N13490 G1 X23.9766 Y16.7457
N13495 G1 X23.9493 Y16.7664
N13500 G1 X23.8941 Y16.8135
N13505 G1 X23.8701 Y16.8363
N13510 G1 X23.8155 Y16.8942
N13515 G1 X23.8101 Y16.9002
N13520 G1 Z-3.5000 F1000
N13525 G1 X23.8011 Y16.9107 F2000
N13530 G1 X23.7465 Y16.9779
N13535 G1 X23.7384 Y16.9881
N13540 G1 X23.6832 Y17.0625
N13545 G1 X23.6793 Y17.0676
N13550 G1 X23.6232 Y17.1465
N13555 G1 X23.5092 Y17.3058
N13560 G1 X23.4549 Y17.3775
N13565 G1 X23.4009 Y17.4432
N13570 G1 X23.3484 Y17.5008
N13575 G1 X23.2977 Y17.5500
N13580 G1 X23.2485 Y17.5911
N13585 G1 X23.2002 Y17.6250
N13590 G1 X23.1525 Y17.6529
N13595 G1 X23.1045 Y17.6760
N13600 G1 X23.0556 Y17.6946
N13605 G1 X23.0055 Y17.7093
N13610 G1 X22.9554 Y17.7201
N13615 G1 X22.9074 Y17.7267
N13620 G1 X22.8630 Y17.7291
N13625 G1 X22.8234 Y17.7270
N13630 G1 X22.7889 Y17.7213
N13635 G1 X22.7583 Y17.7120
N13640 G1 X22.7286 Y17.6982
N13645 G1 X22.6932 Y17.6751
N13650 G1 X22.6806 Y17.6649
N13655 G1 X22.6662 Y17.6517
N13660 G1 X22.6260 Y17.6073
N13665 G1 X22.5876 Y17.5548
N13670 G1 X22.5501 Y17.4915
N13675 G1 X22.5153 Y17.4195
N13680 G1 X22.4844 Y17.3406
N13685 G1 X22.4589 Y17.2578
N13690 G1 X22.4391 Y17.1729
N13695 G1 X22.4253 Y17.0883
N13700 G1 X22.4178 Y17.0049
N13705 G1 X22.4160 Y16.9236
N13710 G1 X22.4196 Y16.8441
N13715 G1 X22.4280 Y16.7658
N13720 G1 X22.4403 Y16.6881
N13725 G1 X22.4565 Y16.6098
N13730 G1 X22.4754 Y16.5309
N13735 G1 X22.5663 Y16.1904
N13740 G1 X22.5678 Y16.1853
N13745 G1 X22.6122 Y16.0056
N13750 G1 X22.6131 Y16.0014
N13755 G1 X22.6353 Y15.9072
N13760 G1 X22.6356 Y15.9054
N13765 G1 X22.6578 Y15.8076
N13770 G1 X22.6581 Y15.8070
N13775 G1 X22.6809 Y15.7047
N13780 G1 X22.7049 Y15.5982
N13785 G1 X22.7304 Y15.4875
N13790 G1 X22.7577 Y15.3714
N13795 G1 X22.7874 Y15.2493
N13800 G1 X22.8192 Y15.1212
N13805 G1 X22.8540 Y14.9862
N13810 G1 X22.8912 Y14.8443
N13815 G1 X22.9308 Y14.6952
N13820 G1 X22.9728 Y14.5389
N13825 G1 X23.0169 Y14.3760
N13830 G1 X23.0631 Y14.2065
N13835 G1 X23.1015 Y14.0637
N13840 G1 Z-2.0000
N13845 G1 X23.1105 Y14.0304
N13850 G1 Y14.0298
N13855 G1 X23.1594 Y13.8486
N13860 G1 Y13.8480
N13865 G1 X23.2092 Y13.6620
N13870 G1 Y13.6611
N13875 G1 X23.2593 Y13.4706
N13880 G1 X23.2596 Y13.4694
N13885 G1 X23.3604 Y13.0800
N13890 G1 X23.3607 Y13.0785
N13895 G1 X23.4051 Y12.9027
N13900 G1 Z-3.5000 F1000
N13905 G1 X23.4600 Y12.6852 F2000
N13910 G1 X23.4603 Y12.6846
N13915 G1 X23.5089 Y12.4899
N13920 G1 X23.5569 Y12.2988
N13925 G1 X23.6037 Y12.1125
N13930 G1 X23.6490 Y11.9331
N13935 G1 X23.6931 Y11.7612
N13940 G1 X23.7357 Y11.5980
N13945 G1 X23.7765 Y11.4447
N13950 G1 X23.8158 Y11.3013
N13955 G1 X23.8533 Y11.1687
N13960 G1 X23.8893 Y11.0457
N13965 G1 X23.9232 Y10.9320
N13970 G1 X23.9556 Y10.8255
N13975 G1 X23.9862 Y10.7256
N13980 G1 X23.9865 Y10.7238
N13985 G1 X24.0150 Y10.6287
N13990 G1 X24.0171 Y10.6215
N13995 G1 X24.0669 Y10.4376
N14000 G1 X24.0696 Y10.4265
N14005 G1 X24.0912 Y10.3329
N14010 G1 X24.0927 Y10.3248
N14015 G1 X24.1122 Y10.2276
N14020 G1 X24.1137 Y10.2201
N14025 G1 X24.1317 Y10.1178
N14030 G1 X24.1326 Y10.1124
N14035 G1 X24.1491 Y10.0044
N14040 G1 X24.1497 Y10.0014
N14045 G1 X24.1659 Y9.8880
N14050 G1 X24.1827 Y9.7728
N14055 G1 X24.2010 Y9.6597
N14060 G1 X24.2211 Y9.5541
N14065 G1 X24.2448 Y9.4569
N14070 G1 X24.2565 Y9.4188
N14075 G1 X24.2691 Y9.3837
N14080 G1 X24.2811 Y9.3552
N14085 G1 X24.2922 Y9.3336
N14090 G1 X24.2967 Y9.3264
N14095 G1 X24.3000 Y9.3270
N14100 G1 X24.3219 Y9.3336
N14105 G1 X24.3498 Y9.3444
N14110 G1 X24.3825 Y9.3591
N14115 G1 X24.4170 Y9.3771
N14120 G1 X24.5016 Y9.4269
N14125 G1 X24.5892 Y9.4848
N14130 G1 X24.6795 Y9.5487
N14135 G1 X24.7683 Y9.6138
N14140 G1 X24.8535 Y9.6765
N14145 G1 X24.8538 Y9.6768
N14150 G1 X24.9324 Y9.7347
N14155 G1 X24.9333 Y9.7353
N14160 G1 X25.0041 Y9.7869
N14165 G1 X25.0653 Y9.8319
N14170 G1 X25.1151 Y9.8700
N14175 G1 X25.1538 Y9.9021
N14180 G1 X25.1835 Y9.9303
N14185 G1 X25.2084 Y9.9591
N14190 G1 X25.2330 Y9.9927
N14195 G1 X25.2591 Y10.0362
N14200 G1 X25.2870 Y10.0911
N14205 G1 X25.3164 Y10.1583
N14210 G1 X25.3464 Y10.2372
N14215 G1 X25.3770 Y10.3263
N14220 G1 X25.4070 Y10.4241
N14225 G1 X25.4367 Y10.5294
N14230 G1 X25.4655 Y10.6407
N14235 G1 X25.4934 Y10.7562
N14240 G1 X25.5480 Y11.0019
N14245 G1 X25.6020 Y11.2581
N14250 G1 X25.6023 Y11.2596
N14255 G1 X25.6593 Y11.5239
N14260 G1 X25.6602 Y11.5281
N14265 G1 X25.6914 Y11.6628
N14270 G1 X25.6923 Y11.6670
N14275 G1 X25.7259 Y11.8038
N14280 G1 X25.7271 Y11.8089
N14285 G1 X25.7637 Y11.9481
N14290 G1 X25.7652 Y11.9538
N14295 G1 X25.8057 Y12.0957
N14300 G1 X25.8075 Y12.1020
N14305 G1 X25.8522 Y12.2466
N14310 G1 X25.8546 Y12.2532
N14315 G1 X25.9041 Y12.4014
N14320 G1 X25.9062 Y12.4080
N14325 G1 X25.9611 Y12.5595
N14330 G1 X25.9635 Y12.5661
N14335 G1 X26.0238 Y12.7215
N14340 G1 X26.0265 Y12.7278
N14345 G1 X26.0925 Y12.8871
N14350 G1 X26.0952 Y12.8934
N14355 G1 X26.1672 Y13.0566
N14360 G1 X26.1699 Y13.0626
N14365 G1 X26.2482 Y13.2303
N14370 G1 X26.2509 Y13.2357
N14375 G1 X26.3355 Y13.4076
N14380 G1 X26.3382 Y13.4127
N14385 G1 X26.4291 Y13.5891
N14390 G1 X26.4315 Y13.5939
N14395 G1 X26.5287 Y13.7742
N14400 G1 X26.5314 Y13.7787
N14405 G1 X26.5677 Y13.8438
N14410 G0 Z10.0000
N14415 G0 X34.4736 Y13.3680
N14420 G0 Z5.0000
N14425 G1 Z0.4000 F1000
N14430 G1 Z-1.1670
N14435 G1 X34.5081 Y13.3866 F2000
N14440 G1 X34.6050 Y13.4391
N14445 G1 X34.6989 Y13.4898
N14450 G1 X34.6995 Y13.4901
N14455 G1 X34.8789 Y13.5864
N14460 G1 X34.8801 Y13.5873
N14465 G1 X35.2287 Y13.7724
N14470 G1 X35.4006 Y13.8660
N14475 G1 X35.5701 Y13.9644
N14480 G1 X35.7369 Y14.0697
N14485 G1 X35.9001 Y14.1831
N14490 G1 X36.0582 Y14.3052
N14495 G1 X36.2112 Y14.4345
N14500 G1 X36.3585 Y14.5683
N14505 G1 X36.4989 Y14.7036
N14510 G1 X36.6312 Y14.8368
N14515 G1 X36.7539 Y14.9658
N14520 G1 X36.8652 Y15.0906
N14525 G1 X36.9675 Y15.2157
N14530 G1 X37.0125 Y15.2763
N14535 G1 X37.0566 Y15.3399
N14540 G1 X37.0983 Y15.4056
N14545 G1 X37.1385 Y15.4743
N14550 G1 X37.1772 Y15.5469
N14555 G1 X37.2147 Y15.6234
N14560 G1 X37.2510 Y15.7038
N14565 G1 X37.2852 Y15.7857
N14570 G1 X37.3515 Y15.9648
N14575 G1 X37.4109 Y16.1481
N14580 G1 X37.4634 Y16.3314
N14585 G1 X37.4859 Y16.4193
N14590 G1 X37.5069 Y16.5057
N14595 G1 X37.5249 Y16.5879
N14600 G1 X37.5405 Y16.6671
N14605 G1 X37.5534 Y16.7415
N14610 G1 X37.5633 Y16.8114
N14615 G1 X37.5705 Y16.8765
N14620 G1 X37.5744 Y16.9368
N14625 G1 X37.5756 Y16.9938
N14630 G1 X37.5741 Y17.0463
N14635 G1 X37.5699 Y17.0958
N14640 G1 X37.5633 Y17.1426
N14645 G1 X37.5540 Y17.1873
N14650 G1 X37.5423 Y17.2314
N14655 G1 X37.5285 Y17.2740
N14660 G1 X37.5120 Y17.3148
N14665 G1 X37.4931 Y17.3556
N14670 G1 X37.4724 Y17.3946
N14675 G1 X37.4496 Y17.4315
N14680 G1 X37.4250 Y17.4666
N14685 G1 X37.3983 Y17.5002
N14690 G1 X37.3701 Y17.5314
N14695 G1 X37.3401 Y17.5605
N14700 G1 X37.3074 Y17.5878
N14705 G1 X37.2717 Y17.6133
N14710 G1 X37.2327 Y17.6376
N14715 G1 X37.1889 Y17.6604
N14720 G1 X37.1406 Y17.6820
N14725 G1 X37.0872 Y17.7015
N14730 G1 X37.0281 Y17.7195
N14735 G1 X36.9639 Y17.7354
N14740 G1 X36.8949 Y17.7489
N14745 G1 X36.8220 Y17.7603
N14750 G1 X36.7446 Y17.7687
N14755 G1 X36.6642 Y17.7747
N14760 G1 X36.5811 Y17.7780
N14765 G1 X36.4956 Y17.7786
N14770 G1 X36.4095 Y17.7768
N14775 G1 X36.2271 Y17.7654
N14780 G1 X36.0402 Y17.7453
N14785 G1 X35.8464 Y17.7168
N14790 G1 X35.6448 Y17.6808
N14795 G1 X35.4345 Y17.6379
N14800 G1 X35.2149 Y17.5887
N14805 G1 X34.9863 Y17.5335
N14810 G1 X34.7493 Y17.4717
N14815 G1 X34.5042 Y17.4027
N14820 G1 X34.2531 Y17.3259
N14825 G1 X33.9969 Y17.2407
N14830 G1 X33.7374 Y17.1468
N14835 G1 X33.4770 Y17.0436
N14840 G1 X33.2175 Y16.9317
N14845 G1 X32.9610 Y16.8117
N14850 G1 X32.7099 Y16.6848
N14855 G1 X32.4660 Y16.5519
N14860 G1 X32.2308 Y16.4145
N14865 G1 X32.0055 Y16.2732
N14870 G1 X31.7895 Y16.1286
N14875 G1 X31.5831 Y15.9816
N14880 G1 X31.3845 Y15.8316
N14885 G1 X31.1922 Y15.6786
N14890 G1 X31.0044 Y15.5220
N14895 G1 X30.8202 Y15.3612
N14900 G1 X30.6375 Y15.1953
N14905 G1 X30.4566 Y15.0237
N14910 G1 X30.2766 Y14.8458
N14915 G1 X30.0987 Y14.6604
N14920 G1 X29.9229 Y14.4672
N14925 G1 X29.7501 Y14.2656
N14930 G1 X29.5818 Y14.0559
N14935 G1 X29.4189 Y13.8396
N14940 G1 X29.2629 Y13.6176
N14945 G1 X29.1153 Y13.3932
N14950 G1 X28.9770 Y13.1679
N14955 G1 X28.9125 Y13.0581
N14960 G1 X28.8504 Y12.9486
N14965 G1 X28.7913 Y12.8409
N14970 G1 X28.7352 Y12.7353
N14975 G1 X28.6821 Y12.6324
N14980 G1 X28.6317 Y12.5325
N14985 G1 X28.5843 Y12.4353
N14990 G1 X28.5393 Y12.3417
N14995 G1 X28.4970 Y12.2517
N15000 G1 X28.4571 Y12.1653
N15005 G1 X28.4190 Y12.0828
N15010 G1 X28.3830 Y12.0042
N15015 G1 X28.3488 Y11.9295
N15020 G1 X28.3485 Y11.9286
N15025 G1 X28.3161 Y11.8584
N15030 G1 X28.3155 Y11.8572
N15035 G1 X28.2846 Y11.7909
N15040 G1 X28.2837 Y11.7894
N15045 G1 X28.2543 Y11.7270
N15050 G1 X28.2534 Y11.7255
N15055 G1 X28.2252 Y11.6661
N15060 G1 X28.2246 Y11.6652
N15065 G1 X28.1973 Y11.6088
N15070 G1 X28.1463 Y11.5041
N15075 G1 X28.1007 Y11.4075
N15080 G1 X28.0599 Y11.3145
N15085 G1 X28.0221 Y11.2194
N15090 G1 X27.9864 Y11.1204
N15095 G1 X27.9165 Y10.9074
N15100 G1 X27.8844 Y10.8051
N15105 G1 X27.8718 Y10.7649
N15110 G1 X27.8826 Y10.7697
N15115 G1 X27.9996 Y10.8246
N15120 G1 X28.0026 Y10.8258
N15125 G1 X28.1313 Y10.8843
N15130 G1 X28.1379 Y10.8873
N15135 G1 X28.2072 Y10.9167
N15140 G1 X28.2129 Y10.9191
N15145 G1 X28.2873 Y10.9488
N15150 G1 X28.2924 Y10.9509
N15155 G1 X28.3728 Y10.9815
N15160 G1 X28.3776 Y10.9833
N15165 G1 X28.4655 Y11.0148
N15170 G1 X28.4694 Y11.0163
N15175 G1 X28.5660 Y11.0496
N15180 G1 X28.5690 Y11.0505
N15185 G1 X28.6758 Y11.0862
N15190 G1 X28.6770 Y11.0865
N15195 G1 X28.7346 Y11.1054
N15200 G1 X28.7355 Y11.1057
N15205 G1 X28.7961 Y11.1255
N15210 G1 X28.7964
N15215 G1 X28.8600 Y11.1462
N15220 G1 X28.8603
N15225 G1 X28.9269 Y11.1678
N15230 G1 X28.9968 Y11.1903
N15235 G1 X29.0700 Y11.2140
N15240 G1 X29.1462 Y11.2386
N15245 G1 X29.2257 Y11.2644
N15250 G1 X29.3085 Y11.2911
N15255 G1 X29.3943 Y11.3193
N15260 G1 X29.4831 Y11.3484
N15265 G1 X29.5752 Y11.3787
N15270 G1 X29.6700 Y11.4102
N15275 G1 X29.7678 Y11.4429
N15280 G1 X29.9715 Y11.5113
N15285 G1 X30.1848 Y11.5842
N15290 G1 X30.4068 Y11.6610
N15295 G1 X30.6354 Y11.7414
N15300 G1 X30.8694 Y11.8248
N15305 G1 X31.3467 Y11.9991
N15310 G1 X31.8243 Y12.1797
N15315 G1 X32.0583 Y12.2703
N15320 G1 X32.2878 Y12.3612
N15325 G1 X32.5101 Y12.4509
N15330 G1 X32.7249 Y12.5394
N15335 G1 X32.9301 Y12.6261
N15340 G1 X33.1254 Y12.7104
N15345 G1 X33.3093 Y12.7920
N15350 G1 X33.4824 Y12.8709
N15355 G1 X33.6441 Y12.9465
N15360 G1 X33.7953 Y13.0188
N15365 G1 X33.9351 Y13.0875
N15370 G1 X34.0653 Y13.1532
N15375 G1 X34.1865 Y13.2156
N15380 G1 X34.2999 Y13.2753
N15385 G1 X34.4070 Y13.3323
N15390 G1 X34.4736 Y13.3680
N15395 G1 Z-2.3330 F1000
N15400 G1 X34.5081 Y13.3866 F2000
N15405 G1 X34.6050 Y13.4391
N15410 G1 X34.6989 Y13.4898
N15415 G1 X34.6995 Y13.4901
N15420 G1 X34.8789 Y13.5864
N15425 G1 X34.8801 Y13.5873
N15430 G1 X35.2287 Y13.7724
N15435 G1 X35.4006 Y13.8660
N15440 G1 X35.5701 Y13.9644
N15445 G1 X35.7339 Y14.0676
N15450 G1 Z-2.0000
N15455 G1 X35.7369 Y14.0697
N15460 G1 X35.9001 Y14.1831
N15465 G1 X36.0582 Y14.3052
N15470 G1 X36.2112 Y14.4345
N15475 G1 X36.3585 Y14.5683
N15480 G1 X36.4989 Y14.7036
N15485 G1 X36.6312 Y14.8368
N15490 G1 X36.6438 Y14.8503
N15495 G1 Z-2.3330 F1000
N15500 G1 X36.7539 Y14.9658 F2000
N15505 G1 X36.8652 Y15.0906
N15510 G1 X36.9675 Y15.2157
N15515 G1 X37.0125 Y15.2763
N15520 G1 X37.0566 Y15.3399
N15525 G1 X37.0983 Y15.4056
N15530 G1 X37.1385 Y15.4743
N15535 G1 X37.1772 Y15.5469
N15540 G1 X37.2147 Y15.6234
N15545 G1 X37.2510 Y15.7038
N15550 G1 X37.2852 Y15.7857
N15555 G1 X37.3515 Y15.9648
N15560 G1 X37.4109 Y16.1481
N15565 G1 X37.4634 Y16.3314
N15570 G1 X37.4859 Y16.4193
N15575 G1 X37.5069 Y16.5057
N15580 G1 X37.5249 Y16.5879
N15585 G1 X37.5405 Y16.6671
N15590 G1 X37.5534 Y16.7415
N15595 G1 X37.5633 Y16.8114
N15600 G1 X37.5705 Y16.8765
N15605 G1 X37.5744 Y16.9368
N15610 G1 X37.5756 Y16.9938
N15615 G1 X37.5741 Y17.0463
N15620 G1 X37.5699 Y17.0958
N15625 G1 X37.5633 Y17.1426
N15630 G1 X37.5540 Y17.1873
N15635 G1 X37.5423 Y17.2314
N15640 G1 X37.5285 Y17.2740
N15645 G1 X37.5120 Y17.3148
N15650 G1 X37.4931 Y17.3556
N15655 G1 X37.4724 Y17.3946
N15660 G1 X37.4496 Y17.4315
N15665 G1 X37.4250 Y17.4666
N15670 G1 X37.3983 Y17.5002
N15675 G1 X37.3701 Y17.5314
N15680 G1 X37.3401 Y17.5605
N15685 G1 X37.3074 Y17.5878
N15690 G1 X37.2717 Y17.6133
N15695 G1 X37.2327 Y17.6376
N15700 G1 X37.1889 Y17.6604
N15705 G1 X37.1406 Y17.6820
N15710 G1 X37.0872 Y17.7015
N15715 G1 X37.0281 Y17.7195
N15720 G1 X36.9639 Y17.7354
N15725 G1 X36.8949 Y17.7489
N15730 G1 X36.8220 Y17.7603
N15735 G1 X36.7446 Y17.7687
N15740 G1 X36.6642 Y17.7747
N15745 G1 X36.5811 Y17.7780
N15750 G1 X36.4956 Y17.7786
N15755 G1 X36.4095 Y17.7768
N15760 G1 X36.2271 Y17.7654
N15765 G1 X36.0402 Y17.7453
N15770 G1 X35.8464 Y17.7168
N15775 G1 X35.6448 Y17.6808
N15780 G1 X35.4345 Y17.6379
N15785 G1 X35.2149 Y17.5887
N15790 G1 X34.9863 Y17.5335
N15795 G1 X34.7493 Y17.4717
N15800 G1 X34.5042 Y17.4027
N15805 G1 X34.2531 Y17.3259
N15810 G1 X33.9969 Y17.2407
N15815 G1 X33.7374 Y17.1468
N15820 G1 X33.4770 Y17.0436
N15825 G1 X33.2175 Y16.9317
N15830 G1 X32.9610 Y16.8117
N15835 G1 X32.7099 Y16.6848
N15840 G1 X32.6514 Y16.6530
N15845 G1 Z-2.0000
N15850 G1 X32.4660 Y16.5519
N15855 G1 X32.2308 Y16.4145
N15860 G1 X32.0055 Y16.2732
N15865 G1 X31.7895 Y16.1286
N15870 G1 X31.6338 Y16.0176
N15875 G1 Z-2.3330 F1000
N15880 G1 X31.5831 Y15.9816 F2000
N15885 G1 X31.3845 Y15.8316
N15890 G1 X31.1922 Y15.6786
N15895 G1 X31.0044 Y15.5220
N15900 G1 X30.8202 Y15.3612
N15905 G1 X30.6375 Y15.1953
N15910 G1 X30.4566 Y15.0237
N15915 G1 X30.2766 Y14.8458
N15920 G1 X30.0987 Y14.6604
N15925 G1 X29.9229 Y14.4672
N15930 G1 X29.7501 Y14.2656
N15935 G1 X29.5818 Y14.0559
N15940 G1 X29.4189 Y13.8396
N15945 G1 X29.2629 Y13.6176
N15950 G1 X29.1153 Y13.3932
N15955 G1 X28.9770 Y13.1679
N15960 G1 X28.9125 Y13.0581
N15965 G1 X28.8504 Y12.9486
N15970 G1 X28.7913 Y12.8409
N15975 G1 X28.7352 Y12.7353
N15980 G1 X28.6821 Y12.6324
N15985 G1 X28.6317 Y12.5325
N15990 G1 X28.5843 Y12.4353
N15995 G1 X28.5393 Y12.3417
N16000 G1 X28.4970 Y12.2517
N16005 G1 X28.4571 Y12.1653
N16010 G1 X28.4190 Y12.0828
N16015 G1 X28.3830 Y12.0042
N16020 G1 X28.3488 Y11.9295
N16025 G1 X28.3485 Y11.9286
N16030 G1 X28.3161 Y11.8584
N16035 G1 X28.3155 Y11.8572
N16040 G1 X28.2846 Y11.7909
N16045 G1 X28.2837 Y11.7894
N16050 G1 X28.2543 Y11.7270
N16055 G1 X28.2534 Y11.7255
N16060 G1 X28.2252 Y11.6661
N16065 G1 X28.2246 Y11.6652
N16070 G1 X28.1973 Y11.6088
N16075 G1 X28.1463 Y11.5041
N16080 G1 X28.1007 Y11.4075
N16085 G1 X28.0599 Y11.3145
N16090 G1 X28.0221 Y11.2194
N16095 G1 X27.9864 Y11.1204
N16100 G1 X27.9165 Y10.9074
N16105 G1 X27.8844 Y10.8051
N16110 G1 X27.8718 Y10.7649
N16115 G1 X27.8826 Y10.7697
N16120 G1 X27.9996 Y10.8246
N16125 G1 X28.0026 Y10.8258
N16130 G1 X28.1313 Y10.8843
N16135 G1 X28.1379 Y10.8873
N16140 G1 X28.2072 Y10.9167
N16145 G1 X28.2129 Y10.9191
N16150 G1 X28.2873 Y10.9488
N16155 G1 X28.2924 Y10.9509
N16160 G1 X28.3728 Y10.9815
N16165 G1 X28.3776 Y10.9833
N16170 G1 X28.4655 Y11.0148
N16175 G1 X28.4694 Y11.0163
N16180 G1 X28.5660 Y11.0496
N16185 G1 X28.5690 Y11.0505
N16190 G1 X28.6758 Y11.0862
N16195 G1 X28.6770 Y11.0865
N16200 G1 X28.7346 Y11.1054
N16205 G1 X28.7355 Y11.1057
N16210 G1 X28.7961 Y11.1255
N16215 G1 X28.7964
N16220 G1 X28.8600 Y11.1462
N16225 G1 X28.8603
N16230 G1 X28.9041 Y11.1606
N16235 G1 Z-2.0000
N16240 G1 X28.9269 Y11.1678
N16245 G1 X28.9968 Y11.1903
N16250 G1 X29.0700 Y11.2140
N16255 G1 X29.1462 Y11.2386
N16260 G1 X29.2257 Y11.2644
N16265 G1 X29.3085 Y11.2911
N16270 G1 X29.3943 Y11.3193
N16275 G1 X29.4831 Y11.3484
N16280 G1 X29.5752 Y11.3787
N16285 G1 X29.6700 Y11.4102
N16290 G1 X29.7678 Y11.4429
N16295 G1 X29.9715 Y11.5113
N16300 G1 X30.0438 Y11.5362
N16305 G1 Z-2.3330 F1000
N16310 G1 X30.1848 Y11.5842 F2000
N16315 G1 X30.4068 Y11.6610
N16320 G1 X30.6354 Y11.7414
N16325 G1 X30.8694 Y11.8248
N16330 G1 X31.3467 Y11.9991
N16335 G1 X31.8243 Y12.1797
N16340 G1 X32.0583 Y12.2703
N16345 G1 X32.2878 Y12.3612
N16350 G1 X32.5101 Y12.4509
N16355 G1 X32.7249 Y12.5394
N16360 G1 X32.9301 Y12.6261
N16365 G1 X33.1254 Y12.7104
N16370 G1 X33.3093 Y12.7920
N16375 G1 X33.4824 Y12.8709
N16380 G1 X33.6441 Y12.9465
N16385 G1 X33.7953 Y13.0188
N16390 G1 X33.9351 Y13.0875
N16395 G1 X34.0653 Y13.1532
N16400 G1 X34.1865 Y13.2156
N16405 G1 X34.2999 Y13.2753
N16410 G1 X34.4070 Y13.3323
N16415 G1 X34.4736 Y13.3680
N16420 G1 Z-3.5000 F1000
N16425 G1 X34.5081 Y13.3866 F2000
N16430 G1 X34.6050 Y13.4391
N16435 G1 X34.6989 Y13.4898
N16440 G1 X34.6995 Y13.4901
N16445 G1 X34.8789 Y13.5864
N16450 G1 X34.8801 Y13.5873
N16455 G1 X35.2287 Y13.7724
N16460 G1 X35.4006 Y13.8660
N16465 G1 X35.5701 Y13.9644
N16470 G1 X35.7339 Y14.0676
N16475 G1 Z-2.0000
N16480 G1 X35.7369 Y14.0697
N16485 G1 X35.9001 Y14.1831
N16490 G1 X36.0582 Y14.3052
N16495 G1 X36.2112 Y14.4345
N16500 G1 X36.3585 Y14.5683
N16505 G1 X36.4989 Y14.7036
N16510 G1 X36.6312 Y14.8368
N16515 G1 X36.6438 Y14.8503
N16520 G1 Z-3.5000 F1000
N16525 G1 X36.7539 Y14.9658 F2000
N16530 G1 X36.8652 Y15.0906
N16535 G1 X36.9675 Y15.2157
N16540 G1 X37.0125 Y15.2763
N16545 G1 X37.0566 Y15.3399
N16550 G1 X37.0983 Y15.4056
N16555 G1 X37.1385 Y15.4743
N16560 G1 X37.1772 Y15.5469
N16565 G1 X37.2147 Y15.6234
N16570 G1 X37.2510 Y15.7038
N16575 G1 X37.2852 Y15.7857
N16580 G1 X37.3515 Y15.9648
N16585 G1 X37.4109 Y16.1481
N16590 G1 X37.4634 Y16.3314
N16595 G1 X37.4859 Y16.4193
N16600 G1 X37.5069 Y16.5057
N16605 G1 X37.5249 Y16.5879
N16610 G1 X37.5405 Y16.6671
N16615 G1 X37.5534 Y16.7415
N16620 G1 X37.5633 Y16.8114
N16625 G1 X37.5705 Y16.8765
N16630 G1 X37.5744 Y16.9368
N16635 G1 X37.5756 Y16.9938
N16640 G1 X37.5741 Y17.0463
N16645 G1 X37.5699 Y17.0958
N16650 G1 X37.5633 Y17.1426
N16655 G1 X37.5540 Y17.1873
N16660 G1 X37.5423 Y17.2314
N16665 G1 X37.5285 Y17.2740
N16670 G1 X37.5120 Y17.3148
N16675 G1 X37.4931 Y17.3556
N16680 G1 X37.4724 Y17.3946
N16685 G1 X37.4496 Y17.4315
N16690 G1 X37.4250 Y17.4666
N16695 G1 X37.3983 Y17.5002
N16700 G1 X37.3701 Y17.5314
N16705 G1 X37.3401 Y17.5605
N16710 G1 X37.3074 Y17.5878
N16715 G1 X37.2717 Y17.6133
N16720 G1 X37.2327 Y17.6376
N16725 G1 X37.1889 Y17.6604
N16730 G1 X37.1406 Y17.6820
N16735 G1 X37.0872 Y17.7015
N16740 G1 X37.0281 Y17.7195
N16745 G1 X36.9639 Y17.7354
N16750 G1 X36.8949 Y17.7489
N16755 G1 X36.8220 Y17.7603
N16760 G1 X36.7446 Y17.7687
N16765 G1 X36.6642 Y17.7747
N16770 G1 X36.5811 Y17.7780
N16775 G1 X36.4956 Y17.7786
N16780 G1 X36.4095 Y17.7768
N16785 G1 X36.2271 Y17.7654
N16790 G1 X36.0402 Y17.7453
N16795 G1 X35.8464 Y17.7168
N16800 G1 X35.6448 Y17.6808
N16805 G1 X35.4345 Y17.6379
N16810 G1 X35.2149 Y17.5887
N16815 G1 X34.9863 Y17.5335
N16820 G1 X34.7493 Y17.4717
N16825 G1 X34.5042 Y17.4027
N16830 G1 X34.2531 Y17.3259
N16835 G1 X33.9969 Y17.2407
N16840 G1 X33.7374 Y17.1468
N16845 G1 X33.4770 Y17.0436
N16850 G1 X33.2175 Y16.9317
N16855 G1 X32.9610 Y16.8117
N16860 G1 X32.7099 Y16.6848
N16865 G1 X32.6514 Y16.6530
N16870 G1 Z-2.0000
N16875 G1 X32.4660 Y16.5519
N16880 G1 X32.2308 Y16.4145
N16885 G1 X32.0055 Y16.2732
N16890 G1 X31.7895 Y16.1286
N16895 G1 X31.6338 Y16.0176
N16900 G1 Z-3.5000 F1000
N16905 G1 X31.5831 Y15.9816 F2000
N16910 G1 X31.3845 Y15.8316
N16915 G1 X31.1922 Y15.6786
N16920 G1 X31.0044 Y15.5220
N16925 G1 X30.8202 Y15.3612
N16930 G1 X30.6375 Y15.1953
N16935 G1 X30.4566 Y15.0237
N16940 G1 X30.2766 Y14.8458
N16945 G1 X30.0987 Y14.6604
N16950 G1 X29.9229 Y14.4672
N16955 G1 X29.7501 Y14.2656
N16960 G1 X29.5818 Y14.0559
N16965 G1 X29.4189 Y13.8396
N16970 G1 X29.2629 Y13.6176
N16975 G1 X29.1153 Y13.3932
N16980 G1 X28.9770 Y13.1679
N16985 G1 X28.9125 Y13.0581
N16990 G1 X28.8504 Y12.9486
N16995 G1 X28.7913 Y12.8409
N17000 G1 X28.7352 Y12.7353
N17005 G1 X28.6821 Y12.6324
N17010 G1 X28.6317 Y12.5325
N17015 G1 X28.5843 Y12.4353
N17020 G1 X28.5393 Y12.3417
N17025 G1 X28.4970 Y12.2517
N17030 G1 X28.4571 Y12.1653
N17035 G1 X28.4190 Y12.0828
N17040 G1 X28.3830 Y12.0042
N17045 G1 X28.3488 Y11.9295
N17050 G1 X28.3485 Y11.9286
N17055 G1 X28.3161 Y11.8584
N17060 G1 X28.3155 Y11.8572
N17065 G1 X28.2846 Y11.7909
N17070 G1 X28.2837 Y11.7894
N17075 G1 X28.2543 Y11.7270
N17080 G1 X28.2534 Y11.7255
N17085 G1 X28.2252 Y11.6661
N17090 G1 X28.2246 Y11.6652
N17095 G1 X28.1973 Y11.6088
N17100 G1 X28.1463 Y11.5041
N17105 G1 X28.1007 Y11.4075
N17110 G1 X28.0599 Y11.3145
N17115 G1 X28.0221 Y11.2194
N17120 G1 X27.9864 Y11.1204
N17125 G1 X27.9165 Y10.9074
N17130 G1 X27.8844 Y10.8051
N17135 G1 X27.8718 Y10.7649
N17140 G1 X27.8826 Y10.7697
N17145 G1 X27.9996 Y10.8246
N17150 G1 X28.0026 Y10.8258
N17155 G1 X28.1313 Y10.8843
N17160 G1 X28.1379 Y10.8873
N17165 G1 X28.2072 Y10.9167
N17170 G1 X28.2129 Y10.9191
N17175 G1 X28.2873 Y10.9488
N17180 G1 X28.2924 Y10.9509
N17185 G1 X28.3728 Y10.9815
N17190 G1 X28.3776 Y10.9833
N17195 G1 X28.4655 Y11.0148
N17200 G1 X28.4694 Y11.0163
N17205 G1 X28.5660 Y11.0496
N17210 G1 X28.5690 Y11.0505
N17215 G1 X28.6758 Y11.0862
N17220 G1 X28.6770 Y11.0865
N17225 G1 X28.7346 Y11.1054
N17230 G1 X28.7355 Y11.1057
N17235 G1 X28.7961 Y11.1255
N17240 G1 X28.7964
N17245 G1 X28.8600 Y11.1462
N17250 G1 X28.8603
N17255 G1 X28.9041 Y11.1606
N17260 G1 Z-2.0000
N17265 G1 X28.9269 Y11.1678
N17270 G1 X28.9968 Y11.1903
N17275 G1 X29.0700 Y11.2140
N17280 G1 X29.1462 Y11.2386
N17285 G1 X29.2257 Y11.2644
N17290 G1 X29.3085 Y11.2911
N17295 G1 X29.3943 Y11.3193
N17300 G1 X29.4831 Y11.3484
N17305 G1 X29.5752 Y11.3787
N17310 G1 X29.6700 Y11.4102
N17315 G1 X29.7678 Y11.4429
N17320 G1 X29.9715 Y11.5113
N17325 G1 X30.0438 Y11.5362
N17330 G1 Z-3.5000 F1000
N17335 G1 X30.1848 Y11.5842 F2000
N17340 G1 X30.4068 Y11.6610
N17345 G1 X30.6354 Y11.7414
N17350 G1 X30.8694 Y11.8248
N17355 G1 X31.3467 Y11.9991
N17360 G1 X31.8243 Y12.1797
N17365 G1 X32.0583 Y12.2703
N17370 G1 X32.2878 Y12.3612
N17375 G1 X32.5101 Y12.4509
N17380 G1 X32.7249 Y12.5394
N17385 G1 X32.9301 Y12.6261
N17390 G1 X33.1254 Y12.7104
N17395 G1 X33.3093 Y12.7920
N17400 G1 X33.4824 Y12.8709
N17405 G1 X33.6441 Y12.9465
N17410 G1 X33.7953 Y13.0188
N17415 G1 X33.9351 Y13.0875
N17420 G1 X34.0653 Y13.1532
N17425 G1 X34.1865 Y13.2156
N17430 G1 X34.2999 Y13.2753
N17435 G1 X34.4070 Y13.3323
N17440 G1 X34.4736 Y13.3680
N17445 G0 Z10.0000
N17450 G0 X34.4514 Y2.7135
N17455 G0 Z5.0000
N17460 G1 Z0.4000 F1000
N17465 G1 Z-1.1670
N17470 G1 X34.5963 Y2.7741 F2000
N17475 G1 X34.8018 Y2.8710
N17480 G1 X35.0058 Y2.9784
N17485 G1 X35.2086 Y3.0954
N17490 G1 X35.4087 Y3.2208
N17495 G1 X35.6055 Y3.3534
N17500 G1 X35.7969 Y3.4917
N17505 G1 X35.9826 Y3.6348
N17510 G1 X36.1602 Y3.7812
N17515 G1 X36.3288 Y3.9312
N17520 G1 X36.4878 Y4.0854
N17525 G1 X36.5616 Y4.1622
N17530 G1 X36.6333 Y4.2405
N17535 G1 X36.7014 Y4.3194
N17540 G1 X36.7668 Y4.3992
N17545 G1 X36.8283 Y4.4796
N17550 G1 X36.8862 Y4.5609
N17555 G1 X36.9408 Y4.6431
N17560 G1 X36.9918 Y4.7265
N17565 G1 X37.0395 Y4.8108
N17570 G1 X37.0830 Y4.8957
N17575 G1 X37.1229 Y4.9818
N17580 G1 X37.1592 Y5.0694
N17585 G1 X37.1919 Y5.1585
N17590 G1 X37.2213 Y5.2491
N17595 G1 X37.2468 Y5.3412
N17600 G1 X37.2684 Y5.4345
N17605 G1 X37.2867 Y5.5299
N17610 G1 X37.3011 Y5.6268
N17615 G1 X37.3122 Y5.7255
N17620 G1 X37.3194 Y5.8257
N17625 G1 X37.3233 Y5.9274
N17630 G1 X37.3236 Y6.0312
N17635 G1 X37.3209 Y6.1356
N17640 G1 X37.3146 Y6.2409
N17645 G1 X37.3050 Y6.3474
N17650 G1 X37.2927 Y6.4527
N17655 G1 X37.2594 Y6.6696
N17660 G1 X37.2174 Y6.8820
N17665 G1 X37.1682 Y7.0893
N17670 G1 X37.1427 Y7.1877
N17675 G1 X37.1160 Y7.2846
N17680 G1 X37.0893 Y7.3773
N17685 G1 X37.0626 Y7.4661
N17690 G1 X37.0365 Y7.5510
N17695 G1 X37.0110 Y7.6302
N17700 G1 X36.9864 Y7.7049
N17705 G1 X36.9624 Y7.7745
N17710 G1 X36.9393 Y7.8393
N17715 G1 X36.9174 Y7.8993
N17720 G1 X36.8967 Y7.9542
N17725 G1 X36.8772 Y8.0037
N17730 G1 X36.8580 Y8.0505
N17735 G1 X36.8400 Y8.0928
N17740 G1 X36.8238 Y8.1300
N17745 G1 X36.8076 Y8.1645
N17750 G1 X36.7764 Y8.2296
N17755 G1 X36.7470 Y8.2884
N17760 G1 X36.7185 Y8.3448
N17765 G1 X36.7137 Y8.3550
N17770 G1 X36.6885 Y8.4102
N17775 G1 X36.6798 Y8.4312
N17780 G1 X36.6588 Y8.4882
N17785 G1 X36.6495 Y8.5182
N17790 G1 X36.6339 Y8.5797
N17795 G1 X36.6270 Y8.6154
N17800 G1 X36.6183 Y8.6835
N17805 G1 X36.6159 Y8.7192
N17810 G1 X36.6153 Y8.7951
N17815 G1 X36.6165 Y8.8233
N17820 G1 X36.6237 Y8.9070
N17825 G1 X36.6264 Y8.9292
N17830 G1 X36.6411 Y9.0204
N17835 G1 X36.6441 Y9.0360
N17840 G1 X36.6651 Y9.1329
N17845 G1 X36.6678 Y9.1452
N17850 G1 X36.6942 Y9.2466
N17855 G1 X36.6963 Y9.2544
N17860 G1 X36.7263 Y9.3582
N17865 G1 X36.7284 Y9.3648
N17870 G1 X36.7935 Y9.5718
N17875 G1 X36.7947 Y9.5751
N17880 G1 X36.8274 Y9.6750
N17885 G1 Y9.6756
N17890 G1 X36.8589 Y9.7713
N17895 G1 X36.8886 Y9.8619
N17900 G1 X36.9165 Y9.9474
N17905 G1 X36.9168 Y9.9486
N17910 G1 X36.9435 Y10.0302
N17915 G1 X36.9441 Y10.0320
N17920 G1 X36.9699 Y10.1091
N17925 G1 X36.9708 Y10.1115
N17930 G1 X36.9960 Y10.1847
N17935 G1 X36.9978 Y10.1898
N17940 G1 X37.0233 Y10.2597
N17945 G1 X37.0263 Y10.2681
N17950 G1 X37.0530 Y10.3347
N17955 G1 X37.0575 Y10.3452
N17960 G1 X37.0860 Y10.4094
N17965 G1 X37.0926 Y10.4235
N17970 G1 X37.1238 Y10.4850
N17975 G1 X37.1316 Y10.4994
N17980 G1 X37.1655 Y10.5582
N17985 G1 X37.1766 Y10.5759
N17990 G1 X37.2138 Y10.6308
N17995 G1 X37.2288 Y10.6512
N18000 G1 X37.2696 Y10.7019
N18005 G1 X37.2885 Y10.7232
N18010 G1 X37.3326 Y10.7685
N18015 G1 X37.3578 Y10.7916
N18020 G1 X37.4052 Y10.8303
N18025 G1 X37.4214 Y10.8423
N18030 G1 X37.4382 Y10.8537
N18035 G1 X37.4889 Y10.8846
N18040 G1 X37.5084 Y10.8957
N18045 G1 X37.5288 Y10.9050
N18050 G1 X37.5825 Y10.9278
N18055 G1 X37.6050 Y10.9362
N18060 G1 X37.6278 Y10.9428
N18065 G1 X37.6839 Y10.9563
N18070 G1 X37.7076 Y10.9614
N18075 G1 X37.7316 Y10.9641
