%
(Header)
(Generated by gcodetools from Inkscape.)
(Using default header. To add your own header create file "header" in the output dir.)
M3
(Header end.)
G21 (All units in mm)
T1 M06

(Starting Inner Cutout Pass)
(Start Pass 1)
(Start cutting path id: path6812)
(Change tool to Default tool)

G00 Z5.000000
G00 X116.000019 Y13.000000

G01 Z-6.7000 F100.0(Penetrate)
G03 X131.940539 Y24.753019 Z-6.7000 I-165.717757 J241.448099 F400.000000
G03 X142.154418 Y33.276960 Z-6.7000 I-156.872786 J198.355439
G03 X154.748142 Y45.165428 Z-6.7000 I-164.221698 J186.578409
G03 X166.674210 Y57.730060 Z-6.7000 I-307.779975 J304.080182
G02 X185.039944 Y77.692438 Z-6.7000 I2250.223730 J-2051.815325
G03 X201.001860 Y99.165495 Z-6.7000 I-90.138234 J83.673058
G03 X213.579125 Y125.845964 Z-6.7000 I-141.977012 J83.233173
G03 X218.983070 Y154.547197 Z-6.7000 I-83.655408 J30.610214
G03 X216.421082 Y176.050688 Z-6.7000 I-77.566013 J1.662926
G03 X207.540500 Y195.717555 Z-6.7000 I-63.299183 J-16.744322
G03 X195.505868 Y209.123627 Z-6.7000 I-52.950342 J-35.428743
G03 X179.751410 Y217.407486 Z-6.7000 I-26.999306 J-32.224936
G03 X160.027624 Y218.077299 Z-6.7000 I-11.249517 J-40.526037
G03 X140.519767 Y212.636498 Z-6.7000 I29.544236 J-143.622996
G03 X129.883354 Y207.699021 Z-6.7000 I21.011721 J-59.189196
G02 X116.000019 Y199.606450 Z-6.7000 I-11817.965077 J20258.538240
G03 X101.945842 Y207.358609 Z-6.7000 I-308.180670 J-542.096445
G03 X91.480221 Y212.636498 Z-6.7000 I-114.682391 J-214.390590
G03 X72.172445 Y218.574977 Z-6.7000 I-30.045923 J-63.331378
G03 X52.248565 Y217.408343 Z-6.7000 I-7.255509 J-46.803984
G03 X36.494068 Y209.124156 Z-6.7000 I11.243981 J-40.505991
G03 X24.459496 Y195.717555 Z-6.7000 I40.921169 J-48.838084
G03 X15.578965 Y176.050649 Z-6.7000 I54.420371 J-36.411793
G03 X13.016915 Y154.547197 Z-6.7000 I75.004627 J-19.840855
G03 X18.761751 Y126.031934 Z-6.7000 I82.410428 J1.766518
G03 X30.998098 Y99.166382 Z-6.7000 I268.174516 J105.924989
G03 X45.104718 Y77.453798 Z-6.7000 I117.980864 J61.213106
G03 X62.056488 Y57.730060 Z-6.7000 I280.481533 J223.916187
G03 X75.523246 Y45.053481 Z-6.7000 I97.899088 J90.510121
G02 X89.845574 Y33.276960 Z-6.7000 I-2454.766233 J-3000.026514
G03 X100.103415 Y24.966165 Z-6.7000 I436.397118 J528.149930
G03 X116.000019 Y13.000000 Z-6.7000 I237.753025 J299.303929
G01 X116.000019 Y13.000000 Z-6.7000
G00 Z5.000000

(End cutting path id: path6812)
(End Pass 1)

(Start Pass 2)
(Start cutting path id: path6812)
(Change tool to Default tool)

G00 Z5.000000
G00 X116.000019 Y13.000000

G01 Z-13.4000 F100.0(Penetrate)
G03 X131.940539 Y24.753019 Z-13.4000 I-165.717757 J241.448099 F400.000000
G03 X142.154418 Y33.276960 Z-13.4000 I-156.872786 J198.355439
G03 X154.748142 Y45.165428 Z-13.4000 I-164.221698 J186.578409
G03 X166.674210 Y57.730060 Z-13.4000 I-307.779975 J304.080182
G02 X185.039944 Y77.692438 Z-13.4000 I2250.223730 J-2051.815325
G03 X201.001860 Y99.165495 Z-13.4000 I-90.138234 J83.673058
G03 X213.579125 Y125.845964 Z-13.4000 I-141.977012 J83.233173
G03 X218.983070 Y154.547197 Z-13.4000 I-83.655408 J30.610214
G03 X216.421082 Y176.050688 Z-13.4000 I-77.566013 J1.662926
G03 X207.540500 Y195.717555 Z-13.4000 I-63.299183 J-16.744322
G03 X195.505868 Y209.123627 Z-13.4000 I-52.950342 J-35.428743
G03 X179.751410 Y217.407486 Z-13.4000 I-26.999306 J-32.224936
G03 X160.027624 Y218.077299 Z-13.4000 I-11.249517 J-40.526037
G03 X140.519767 Y212.636498 Z-13.4000 I29.544236 J-143.622996
G03 X129.883354 Y207.699021 Z-13.4000 I21.011721 J-59.189196
G02 X116.000019 Y199.606450 Z-13.4000 I-11817.965077 J20258.538240
G03 X101.945842 Y207.358609 Z-13.4000 I-308.180670 J-542.096445
G03 X91.480221 Y212.636498 Z-13.4000 I-114.682391 J-214.390590
G03 X72.172445 Y218.574977 Z-13.4000 I-30.045923 J-63.331378
G03 X52.248565 Y217.408343 Z-13.4000 I-7.255509 J-46.803984
G03 X36.494068 Y209.124156 Z-13.4000 I11.243981 J-40.505991
G03 X24.459496 Y195.717555 Z-13.4000 I40.921169 J-48.838084
G03 X15.578965 Y176.050649 Z-13.4000 I54.420371 J-36.411793
G03 X13.016915 Y154.547197 Z-13.4000 I75.004627 J-19.840855
G03 X18.761751 Y126.031934 Z-13.4000 I82.410428 J1.766518
G03 X30.998098 Y99.166382 Z-13.4000 I268.174516 J105.924989
G03 X45.104718 Y77.453798 Z-13.4000 I117.980864 J61.213106
G03 X62.056488 Y57.730060 Z-13.4000 I280.481533 J223.916187
G03 X75.523246 Y45.053481 Z-13.4000 I97.899088 J90.510121
G02 X89.845574 Y33.276960 Z-13.4000 I-2454.766233 J-3000.026514
G03 X100.103415 Y24.966165 Z-13.4000 I436.397118 J528.149930
G03 X116.000019 Y13.000000 Z-13.4000 I237.753025 J299.303929
G01 X116.000019 Y13.000000 Z-13.4000
G00 Z5.000000

(End cutting path id: path6812)
(End Pass 2)

(Start Pass 3)
(Start cutting path id: path6812)
(Change tool to Default tool)

G00 Z5.000000
G00 X116.000019 Y13.000000

G01 Z-20.2000 F100.0(Penetrate)
G03 X131.940539 Y24.753019 Z-20.2000 I-165.717757 J241.448099 F400.000000
G03 X142.154418 Y33.276960 Z-20.2000 I-156.872786 J198.355439
G03 X154.748142 Y45.165428 Z-20.2000 I-164.221698 J186.578409
G03 X166.674210 Y57.730060 Z-20.2000 I-307.779975 J304.080182
G02 X185.039944 Y77.692438 Z-20.2000 I2250.223730 J-2051.815325
G03 X201.001860 Y99.165495 Z-20.2000 I-90.138234 J83.673058
G03 X213.579125 Y125.845964 Z-20.2000 I-141.977012 J83.233173
G03 X218.983070 Y154.547197 Z-20.2000 I-83.655408 J30.610214
G03 X216.421082 Y176.050688 Z-20.2000 I-77.566013 J1.662926
G03 X207.540500 Y195.717555 Z-20.2000 I-63.299183 J-16.744322
G03 X195.505868 Y209.123627 Z-20.2000 I-52.950342 J-35.428743
G03 X179.751410 Y217.407486 Z-20.2000 I-26.999306 J-32.224936
G03 X160.027624 Y218.077299 Z-20.2000 I-11.249517 J-40.526037
G03 X140.519767 Y212.636498 Z-20.2000 I29.544236 J-143.622996
G03 X129.883354 Y207.699021 Z-20.2000 I21.011721 J-59.189196
G02 X116.000019 Y199.606450 Z-20.2000 I-11817.965077 J20258.538240
G03 X101.945842 Y207.358609 Z-20.2000 I-308.180670 J-542.096445
G03 X91.480221 Y212.636498 Z-20.2000 I-114.682391 J-214.390590
G03 X72.172445 Y218.574977 Z-20.2000 I-30.045923 J-63.331378
G03 X52.248565 Y217.408343 Z-20.2000 I-7.255509 J-46.803984
G03 X36.494068 Y209.124156 Z-20.2000 I11.243981 J-40.505991
G03 X24.459496 Y195.717555 Z-20.2000 I40.921169 J-48.838084
G03 X15.578965 Y176.050649 Z-20.2000 I54.420371 J-36.411793
G03 X13.016915 Y154.547197 Z-20.2000 I75.004627 J-19.840855
G03 X18.761751 Y126.031934 Z-20.2000 I82.410428 J1.766518
G03 X30.998098 Y99.166382 Z-20.2000 I268.174516 J105.924989
G03 X45.104718 Y77.453798 Z-20.2000 I117.980864 J61.213106
G03 X62.056488 Y57.730060 Z-20.2000 I280.481533 J223.916187
G03 X75.523246 Y45.053481 Z-20.2000 I97.899088 J90.510121
G02 X89.845574 Y33.276960 Z-20.2000 I-2454.766233 J-3000.026514
G03 X100.103415 Y24.966165 Z-20.2000 I436.397118 J528.149930
G03 X116.000019 Y13.000000 Z-20.2000 I237.753025 J299.303929
G01 X116.000019 Y13.000000 Z-20.2000
G00 Z5.000000

(End cutting path id: path6812)
(End Pass 3)


(Starting Outer Cutout pass)
(Start Pass 1)
(Start cutting path id: path1596)
(Change tool to Default tool)

G00 Z5.000000
G00 X115.999997 Y0.000000

G01 Z-7.6000 F100.0(Penetrate)
G03 X133.952439 Y13.236425 Z-7.6000 I-186.641103 J271.932192 F400.000000
G03 X145.455450 Y22.836170 Z-7.6000 I-176.677195 J223.397285
G03 X159.638658 Y36.225153 Z-7.6000 I-184.953365 J210.131440
G03 X173.070000 Y50.375590 Z-7.6000 I-346.680459 J342.512500
G02 X193.753747 Y72.857540 Z-7.6000 I2534.489707 J-2311.014724
G03 X211.730230 Y97.040768 Z-7.6000 I-101.515422 J94.233964
G03 X225.894953 Y127.088666 Z-7.6000 I-159.896650 J93.738654
G03 X231.980930 Y159.412383 Z-7.6000 I-94.212789 J34.473379
G03 X229.095615 Y183.629901 Z-7.6000 I-87.353886 J1.873153
G03 X219.094160 Y205.778992 Z-7.6000 I-71.288830 J-18.857945
G03 X205.540579 Y220.877094 Z-7.6000 I-59.633314 J-39.900301
G03 X187.797680 Y230.206493 Z-7.6000 I-30.407068 J-36.292315
G03 X165.584446 Y230.960839 Z-7.6000 I-12.669369 J-45.641215
G03 X143.614435 Y224.833336 Z-7.6000 I33.272865 J-161.749261
G03 X131.635603 Y219.272690 Z-7.6000 I23.663814 J-66.659781
G02 X115.999997 Y210.158717 Z-7.6000 I-13311.679286 J22819.072007
G03 X100.171997 Y218.889301 Z-7.6000 I-347.083131 J-610.527051
G03 X88.385435 Y224.833336 Z-7.6000 I-129.151058 J-241.438612
G03 X66.640809 Y231.521332 Z-7.6000 I-33.838014 J-71.324194
G03 X44.202267 Y230.207448 Z-7.6000 I-8.171246 J-52.711184
G03 X26.459335 Y220.877687 Z-7.6000 I12.663076 J-45.618330
G03 X12.905826 Y205.778992 Z-7.6000 I46.086193 J-55.002353
G03 X2.904454 Y183.629859 Z-7.6000 I61.288849 J-41.007400
G03 X0.019051 Y159.412383 Z-7.6000 I84.471105 J-22.344981
G03 X6.488953 Y127.298121 Z-7.6000 I92.811588 J1.989432
G03 X20.269707 Y97.041742 Z-7.6000 I302.021766 J119.294146
G03 X36.156744 Y72.588768 Z-7.6000 I132.871650 J68.939011
G03 X55.248078 Y50.375590 Z-7.6000 I315.881444 J252.176711
G03 X70.414489 Y36.099088 Z-7.6000 I110.256192 J101.934736
G02 X86.544522 Y22.836170 Z-7.6000 I-2764.895720 J-3379.037698
G03 X98.097016 Y13.476495 Z-7.6000 I491.587320 J594.948830
G03 X115.999997 Y0.000000 Z-7.6000 I267.767646 J337.088597
G01 X115.999997 Y0.000000 Z-7.6000
G00 Z5.000000

(End cutting path id: path1596)
(End Pass 1)

(Start Pass 2)
(Start cutting path id: path1596)
(Change tool to Default tool)

G00 Z5.000000
G00 X115.999997 Y0.000000

G01 Z-15.2000 F100.0(Penetrate)
G03 X133.952439 Y13.236425 Z-15.2000 I-186.641103 J271.932192 F400.000000
G03 X145.455450 Y22.836170 Z-15.2000 I-176.677195 J223.397285
G03 X159.638658 Y36.225153 Z-15.2000 I-184.953365 J210.131440
G03 X173.070000 Y50.375590 Z-15.2000 I-346.680459 J342.512500
G02 X193.753747 Y72.857540 Z-15.2000 I2534.489707 J-2311.014724
G03 X211.730230 Y97.040768 Z-15.2000 I-101.515422 J94.233964
G03 X225.894953 Y127.088666 Z-15.2000 I-159.896650 J93.738654
G03 X231.980930 Y159.412383 Z-15.2000 I-94.212789 J34.473379
G03 X229.095615 Y183.629901 Z-15.2000 I-87.353886 J1.873153
G03 X219.094160 Y205.778992 Z-15.2000 I-71.288830 J-18.857945
G03 X205.540579 Y220.877094 Z-15.2000 I-59.633314 J-39.900301
G03 X187.797680 Y230.206493 Z-15.2000 I-30.407068 J-36.292315
G03 X165.584446 Y230.960839 Z-15.2000 I-12.669369 J-45.641215
G03 X143.614435 Y224.833336 Z-15.2000 I33.272865 J-161.749261
G03 X131.635603 Y219.272690 Z-15.2000 I23.663814 J-66.659781
G02 X115.999997 Y210.158717 Z-15.2000 I-13311.679286 J22819.072007
G03 X100.171997 Y218.889301 Z-15.2000 I-347.083131 J-610.527051
G03 X88.385435 Y224.833336 Z-15.2000 I-129.151058 J-241.438612
G03 X66.640809 Y231.521332 Z-15.2000 I-33.838014 J-71.324194
G03 X44.202267 Y230.207448 Z-15.2000 I-8.171246 J-52.711184
G03 X26.459335 Y220.877687 Z-15.2000 I12.663076 J-45.618330
G03 X12.905826 Y205.778992 Z-15.2000 I46.086193 J-55.002353
G03 X2.904454 Y183.629859 Z-15.2000 I61.288849 J-41.007400
G03 X0.019051 Y159.412383 Z-15.2000 I84.471105 J-22.344981
G03 X6.488953 Y127.298121 Z-15.2000 I92.811588 J1.989432
G03 X20.269707 Y97.041742 Z-15.2000 I302.021766 J119.294146
G03 X36.156744 Y72.588768 Z-15.2000 I132.871650 J68.939011
G03 X55.248078 Y50.375590 Z-15.2000 I315.881444 J252.176711
G03 X70.414489 Y36.099088 Z-15.2000 I110.256192 J101.934736
G02 X86.544522 Y22.836170 Z-15.2000 I-2764.895720 J-3379.037698
G03 X98.097016 Y13.476495 Z-15.2000 I491.587320 J594.948830
G03 X115.999997 Y0.000000 Z-15.2000 I267.767646 J337.088597
G01 X115.999997 Y0.000000 Z-15.2000
G00 Z5.000000

(End cutting path id: path1596)
(End Pass 2)

(Start Pass 3)
(Start cutting path id: path1596)
(Change tool to Default tool)

G00 Z5.000000
G00 X115.999997 Y0.000000

G01 Z-22.8000 F100.0(Penetrate)
G03 X133.952439 Y13.236425 Z-22.8000 I-186.641103 J271.932192 F400.000000
G03 X145.455450 Y22.836170 Z-22.8000 I-176.677195 J223.397285
G03 X159.638658 Y36.225153 Z-22.8000 I-184.953365 J210.131440
G03 X173.070000 Y50.375590 Z-22.8000 I-346.680459 J342.512500
G02 X193.753747 Y72.857540 Z-22.8000 I2534.489707 J-2311.014724
G03 X211.730230 Y97.040768 Z-22.8000 I-101.515422 J94.233964
G03 X225.894953 Y127.088666 Z-22.8000 I-159.896650 J93.738654
G03 X231.980930 Y159.412383 Z-22.8000 I-94.212789 J34.473379
G03 X229.095615 Y183.629901 Z-22.8000 I-87.353886 J1.873153
G03 X219.094160 Y205.778992 Z-22.8000 I-71.288830 J-18.857945
G03 X205.540579 Y220.877094 Z-22.8000 I-59.633314 J-39.900301
G03 X187.797680 Y230.206493 Z-22.8000 I-30.407068 J-36.292315
G03 X165.584446 Y230.960839 Z-22.8000 I-12.669369 J-45.641215
G03 X143.614435 Y224.833336 Z-22.8000 I33.272865 J-161.749261
G03 X131.635603 Y219.272690 Z-22.8000 I23.663814 J-66.659781
G02 X115.999997 Y210.158717 Z-22.8000 I-13311.679286 J22819.072007
G03 X100.171997 Y218.889301 Z-22.8000 I-347.083131 J-610.527051
G03 X88.385435 Y224.833336 Z-22.8000 I-129.151058 J-241.438612
G03 X66.640809 Y231.521332 Z-22.8000 I-33.838014 J-71.324194
G03 X44.202267 Y230.207448 Z-22.8000 I-8.171246 J-52.711184
G03 X26.459335 Y220.877687 Z-22.8000 I12.663076 J-45.618330
G03 X12.905826 Y205.778992 Z-22.8000 I46.086193 J-55.002353
G03 X2.904454 Y183.629859 Z-22.8000 I61.288849 J-41.007400
G03 X0.019051 Y159.412383 Z-22.8000 I84.471105 J-22.344981
G03 X6.488953 Y127.298121 Z-22.8000 I92.811588 J1.989432
G03 X20.269707 Y97.041742 Z-22.8000 I302.021766 J119.294146
G03 X36.156744 Y72.588768 Z-22.8000 I132.871650 J68.939011
G03 X55.248078 Y50.375590 Z-22.8000 I315.881444 J252.176711
G03 X70.414489 Y36.099088 Z-22.8000 I110.256192 J101.934736
G02 X86.544522 Y22.836170 Z-22.8000 I-2764.895720 J-3379.037698
G03 X98.097016 Y13.476495 Z-22.8000 I491.587320 J594.948830
G03 X115.999997 Y0.000000 Z-22.8000 I267.767646 J337.088597
G01 X115.999997 Y0.000000 Z-22.8000
G00 Z5.000000

(End cutting path id: path1596)
(End Pass 3)

(Start Pass 4)
(Start cutting path id: path1596)
(Change tool to Default tool)

G00 Z5.000000
G00 X115.999997 Y0.000000

G01 Z-30.5000 F100.0(Penetrate)
G03 X133.952439 Y13.236425 Z-30.5000 I-186.641103 J271.932192 F400.000000
G03 X145.455450 Y22.836170 Z-30.5000 I-176.677195 J223.397285
G03 X159.638658 Y36.225153 Z-30.5000 I-184.953365 J210.131440
G03 X173.070000 Y50.375590 Z-30.5000 I-346.680459 J342.512500
G02 X193.753747 Y72.857540 Z-30.5000 I2534.489707 J-2311.014724
G03 X211.730230 Y97.040768 Z-30.5000 I-101.515422 J94.233964
G03 X225.894953 Y127.088666 Z-30.5000 I-159.896650 J93.738654
G03 X231.980930 Y159.412383 Z-30.5000 I-94.212789 J34.473379
G03 X229.095615 Y183.629901 Z-30.5000 I-87.353886 J1.873153
G03 X219.094160 Y205.778992 Z-30.5000 I-71.288830 J-18.857945
G03 X205.540579 Y220.877094 Z-30.5000 I-59.633314 J-39.900301
G03 X187.797680 Y230.206493 Z-30.5000 I-30.407068 J-36.292315
G03 X165.584446 Y230.960839 Z-30.5000 I-12.669369 J-45.641215
G03 X143.614435 Y224.833336 Z-30.5000 I33.272865 J-161.749261
G03 X131.635603 Y219.272690 Z-30.5000 I23.663814 J-66.659781
G02 X115.999997 Y210.158717 Z-30.5000 I-13311.679286 J22819.072007
G03 X100.171997 Y218.889301 Z-30.5000 I-347.083131 J-610.527051
G03 X88.385435 Y224.833336 Z-30.5000 I-129.151058 J-241.438612
G03 X66.640809 Y231.521332 Z-30.5000 I-33.838014 J-71.324194
G03 X44.202267 Y230.207448 Z-30.5000 I-8.171246 J-52.711184
G03 X26.459335 Y220.877687 Z-30.5000 I12.663076 J-45.618330
G03 X12.905826 Y205.778992 Z-30.5000 I46.086193 J-55.002353
G03 X2.904454 Y183.629859 Z-30.5000 I61.288849 J-41.007400
G03 X0.019051 Y159.412383 Z-30.5000 I84.471105 J-22.344981
G03 X6.488953 Y127.298121 Z-30.5000 I92.811588 J1.989432
G03 X20.269707 Y97.041742 Z-30.5000 I302.021766 J119.294146
G03 X36.156744 Y72.588768 Z-30.5000 I132.871650 J68.939011
G03 X55.248078 Y50.375590 Z-30.5000 I315.881444 J252.176711
G03 X70.414489 Y36.099088 Z-30.5000 I110.256192 J101.934736
G02 X86.544522 Y22.836170 Z-30.5000 I-2764.895720 J-3379.037698
G03 X98.097016 Y13.476495 Z-30.5000 I491.587320 J594.948830
G03 X115.999997 Y0.000000 Z-30.5000 I267.767646 J337.088597
G01 X115.999997 Y0.000000 Z-30.5000
G00 Z5.000000

(End cutting path id: path1596)
(End Pass 4)

(Footer)
M5
G00 X0.0000 Y0.0000
M2
(Using default footer. To add your own footer create file "footer" in the output dir.)
(end)
%
