%
(Header)
(Generated by gcodetools from Inkscape.)
(Using default header. To add your own header create file "header" in the output dir.)
M3
(Header end.)
G21 (All units in mm)
T1 M06

(Starting Inner Cutout Pass)
(Start Pass 1)
(Start cutting path id: path6812)
(Change tool to Default tool)

G00 Z5.0000
G00 X104.4000 Y11.7000

G01 Z-6.7000 F100.0(Penetrate)
G03 X118.7465 Y22.2777 Z-6.7000 I-149.1460 J217.3033 F400.000000
G03 X127.9390 Y29.9493 Z-6.7000 I-141.1855 J178.5199
G03 X139.2733 Y40.6489 Z-6.7000 I-147.7995 J167.9206
G03 X150.0068 Y51.9571 Z-6.7000 I-277.0020 J273.6722
G02 X166.5359 Y69.9232 Z-6.7000 I2025.2014 J-1846.6338
G03 X180.9017 Y89.2489 Z-6.7000 I-81.1244 J75.3058
G03 X192.2212 Y113.2614 Z-6.7000 I-127.7793 J74.9099
G03 X197.0848 Y139.0925 Z-6.7000 I-75.2899 J27.5492
G03 X194.7790 Y158.4456 Z-6.7000 I-69.8094 J1.4966
G03 X186.7865 Y176.1458 Z-6.7000 I-56.9693 J-15.0699
G03 X175.9553 Y188.2113 Z-6.7000 I-47.6553 J-31.8859
G03 X161.7763 Y195.6667 Z-6.7000 I-24.2994 J-29.0024
G03 X144.0249 Y196.2696 Z-6.7000 I-10.1246 J-36.4734
G03 X126.4678 Y191.3728 Z-6.7000 I26.5898 J-129.2607
G03 X116.8950 Y186.9291 Z-6.7000 I18.9105 J-53.2703
G02 X104.4000 Y179.6458 Z-6.7000 I-10636.1686 J18232.6844
G03 X91.7513 Y186.6227 Z-6.7000 I-277.3626 J-487.8868
G03 X82.3322 Y191.3728 Z-6.7000 I-103.2142 J-192.9515
G03 X64.9552 Y196.7175 Z-6.7000 I-27.0413 J-56.9982
G03 X47.0237 Y195.6675 Z-6.7000 I-6.5300 J-42.1236
G03 X32.8447 Y188.2117 Z-6.7000 I10.1196 J-36.4554
G03 X22.0135 Y176.1458 Z-6.7000 I36.8291 J-43.9543
G03 X14.0211 Y158.4456 Z-6.7000 I48.9783 J-32.7706
G03 X11.7152 Y139.0925 Z-6.7000 I67.5042 J-17.8568
G03 X16.8856 Y113.4287 Z-6.7000 I74.1694 J1.5899
G03 X27.8983 Y89.2497 Z-6.7000 I241.3571 J95.3325
G03 X40.5942 Y69.7084 Z-6.7000 I106.1828 J55.0918
G03 X55.8508 Y51.9571 Z-6.7000 I252.4334 J201.5246
G03 X67.9709 Y40.5481 Z-6.7000 I88.1092 J81.4591
G02 X80.8610 Y29.9493 Z-6.7000 I-2209.2896 J-2700.0239
G03 X90.0931 Y22.4695 Z-6.7000 I392.7574 J475.3349
G03 X104.4000 Y11.7000 Z-6.7000 I213.9777 J269.3735
G01 X104.4000 Y11.7000 Z-6.7000
G00 Z5.0000

(End cutting path id: path6812)
(End Pass 1)

(Start Pass 2)
(Start cutting path id: path6812)
(Change tool to Default tool)

G00 Z5.0000
G00 X104.4000 Y11.7000

G01 Z-13.4000 F100.0(Penetrate)
G03 X118.7465 Y22.2777 Z-13.4000 I-149.1460 J217.3033 F400.000000
G03 X127.9390 Y29.9493 Z-13.4000 I-141.1855 J178.5199
G03 X139.2733 Y40.6489 Z-13.4000 I-147.7995 J167.9206
G03 X150.0068 Y51.9571 Z-13.4000 I-277.0020 J273.6722
G02 X166.5359 Y69.9232 Z-13.4000 I2025.2014 J-1846.6338
G03 X180.9017 Y89.2489 Z-13.4000 I-81.1244 J75.3058
G03 X192.2212 Y113.2614 Z-13.4000 I-127.7793 J74.9099
G03 X197.0848 Y139.0925 Z-13.4000 I-75.2899 J27.5492
G03 X194.7790 Y158.4456 Z-13.4000 I-69.8094 J1.4966
G03 X186.7865 Y176.1458 Z-13.4000 I-56.9693 J-15.0699
G03 X175.9553 Y188.2113 Z-13.4000 I-47.6553 J-31.8859
G03 X161.7763 Y195.6667 Z-13.4000 I-24.2994 J-29.0024
G03 X144.0249 Y196.2696 Z-13.4000 I-10.1246 J-36.4734
G03 X126.4678 Y191.3728 Z-13.4000 I26.5898 J-129.2607
G03 X116.8950 Y186.9291 Z-13.4000 I18.9105 J-53.2703
G02 X104.4000 Y179.6458 Z-13.4000 I-10636.1686 J18232.6844
G03 X91.7513 Y186.6227 Z-13.4000 I-277.3626 J-487.8868
G03 X82.3322 Y191.3728 Z-13.4000 I-103.2142 J-192.9515
G03 X64.9552 Y196.7175 Z-13.4000 I-27.0413 J-56.9982
G03 X47.0237 Y195.6675 Z-13.4000 I-6.5300 J-42.1236
G03 X32.8447 Y188.2117 Z-13.4000 I10.1196 J-36.4554
G03 X22.0135 Y176.1458 Z-13.4000 I36.8291 J-43.9543
G03 X14.0211 Y158.4456 Z-13.4000 I48.9783 J-32.7706
G03 X11.7152 Y139.0925 Z-13.4000 I67.5042 J-17.8568
G03 X16.8856 Y113.4287 Z-13.4000 I74.1694 J1.5899
G03 X27.8983 Y89.2497 Z-13.4000 I241.3571 J95.3325
G03 X40.5942 Y69.7084 Z-13.4000 I106.1828 J55.0918
G03 X55.8508 Y51.9571 Z-13.4000 I252.4334 J201.5246
G03 X67.9709 Y40.5481 Z-13.4000 I88.1092 J81.4591
G02 X80.8610 Y29.9493 Z-13.4000 I-2209.2896 J-2700.0239
G03 X90.0931 Y22.4695 Z-13.4000 I392.7574 J475.3349
G03 X104.4000 Y11.7000 Z-13.4000 I213.9777 J269.3735
G01 X104.4000 Y11.7000 Z-13.4000
G00 Z5.0000

(End cutting path id: path6812)
(End Pass 2)

(Start Pass 3)
(Start cutting path id: path6812)
(Change tool to Default tool)

G00 Z5.0000
G00 X104.4000 Y11.7000

G01 Z-20.2000 F100.0(Penetrate)
G03 X118.7465 Y22.2777 Z-20.2000 I-149.1460 J217.3033 F400.000000
G03 X127.9390 Y29.9493 Z-20.2000 I-141.1855 J178.5199
G03 X139.2733 Y40.6489 Z-20.2000 I-147.7995 J167.9206
G03 X150.0068 Y51.9571 Z-20.2000 I-277.0020 J273.6722
G02 X166.5359 Y69.9232 Z-20.2000 I2025.2014 J-1846.6338
G03 X180.9017 Y89.2489 Z-20.2000 I-81.1244 J75.3058
G03 X192.2212 Y113.2614 Z-20.2000 I-127.7793 J74.9099
G03 X197.0848 Y139.0925 Z-20.2000 I-75.2899 J27.5492
G03 X194.7790 Y158.4456 Z-20.2000 I-69.8094 J1.4966
G03 X186.7865 Y176.1458 Z-20.2000 I-56.9693 J-15.0699
G03 X175.9553 Y188.2113 Z-20.2000 I-47.6553 J-31.8859
G03 X161.7763 Y195.6667 Z-20.2000 I-24.2994 J-29.0024
G03 X144.0249 Y196.2696 Z-20.2000 I-10.1246 J-36.4734
G03 X126.4678 Y191.3728 Z-20.2000 I26.5898 J-129.2607
G03 X116.8950 Y186.9291 Z-20.2000 I18.9105 J-53.2703
G02 X104.4000 Y179.6458 Z-20.2000 I-10636.1686 J18232.6844
G03 X91.7513 Y186.6227 Z-20.2000 I-277.3626 J-487.8868
G03 X82.3322 Y191.3728 Z-20.2000 I-103.2142 J-192.9515
G03 X64.9552 Y196.7175 Z-20.2000 I-27.0413 J-56.9982
G03 X47.0237 Y195.6675 Z-20.2000 I-6.5300 J-42.1236
G03 X32.8447 Y188.2117 Z-20.2000 I10.1196 J-36.4554
G03 X22.0135 Y176.1458 Z-20.2000 I36.8291 J-43.9543
G03 X14.0211 Y158.4456 Z-20.2000 I48.9783 J-32.7706
G03 X11.7152 Y139.0925 Z-20.2000 I67.5042 J-17.8568
G03 X16.8856 Y113.4287 Z-20.2000 I74.1694 J1.5899
G03 X27.8983 Y89.2497 Z-20.2000 I241.3571 J95.3325
G03 X40.5942 Y69.7084 Z-20.2000 I106.1828 J55.0918
G03 X55.8508 Y51.9571 Z-20.2000 I252.4334 J201.5246
G03 X67.9709 Y40.5481 Z-20.2000 I88.1092 J81.4591
G02 X80.8610 Y29.9493 Z-20.2000 I-2209.2896 J-2700.0239
G03 X90.0931 Y22.4695 Z-20.2000 I392.7574 J475.3349
G03 X104.4000 Y11.7000 Z-20.2000 I213.9777 J269.3735
G01 X104.4000 Y11.7000 Z-20.2000
G00 Z5.0000

(End cutting path id: path6812)
(End Pass 3)


(Starting Outer Cutout pass)
(Start Pass 1)
(Start cutting path id: path1596)
(Change tool to Default tool)

G00 Z5.0000
G00 X104.4000 Y0.0000

G01 Z-7.6000 F100.0(Penetrate)
G03 X120.5572 Y11.9128 Z-7.6000 I-167.9770 J244.7390 F400.000000
G03 X130.9099 Y20.5526 Z-7.6000 I-159.0095 J201.0576
G03 X143.6748 Y32.6026 Z-7.6000 I-166.4580 J189.1183
G03 X155.7630 Y45.3380 Z-7.6000 I-312.0124 J308.2613
G02 X174.3784 Y65.5718 Z-7.6000 I2281.0407 J-2079.9133
G03 X190.5572 Y87.3367 Z-7.6000 I-91.3639 J84.8106
G03 X203.3055 Y114.3798 Z-7.6000 I-143.9070 J84.3648
G03 X208.7828 Y143.4711 Z-7.6000 I-84.7915 J31.0260
G03 X206.1861 Y165.2669 Z-7.6000 I-78.6185 J1.6858
G03 X197.1847 Y185.2011 Z-7.6000 I-64.1599 J-16.9722
G03 X184.9865 Y198.7894 Z-7.6000 I-53.6700 J-35.9103
G03 X169.0179 Y207.1858 Z-7.6000 I-27.3664 J-32.6631
G03 X149.0260 Y207.8648 Z-7.6000 I-11.4024 J-41.0771
G03 X129.2530 Y202.3500 Z-7.6000 I29.9456 J-145.5743
G03 X118.4720 Y197.3454 Z-7.6000 I21.2974 J-59.9938
G02 X104.4000 Y189.1428 Z-7.6000 I-11980.5114 J20537.1648
G03 X90.1548 Y197.0004 Z-7.6000 I-312.3748 J-549.4743
G03 X79.5469 Y202.3500 Z-7.6000 I-116.2360 J-217.2948
G03 X59.9767 Y208.3692 Z-7.6000 I-30.4542 J-64.1918
G03 X39.7820 Y207.1867 Z-7.6000 I-7.3541 J-47.4401
G03 X23.8134 Y198.7899 Z-7.6000 I11.3968 J-41.0565
G03 X11.6152 Y185.2011 Z-7.6000 I41.4776 J-49.5021
G03 X2.6140 Y165.2669 Z-7.6000 I55.1600 J-36.9067
G03 X0.0171 Y143.4711 Z-7.6000 I76.0240 J-20.1105
G03 X5.8401 Y114.5683 Z-7.6000 I83.5304 J1.7905
G03 X18.2427 Y87.3376 Z-7.6000 I271.8196 J107.3647
G03 X32.5411 Y65.3299 Z-7.6000 I119.5845 J62.0451
G03 X49.7233 Y45.3380 Z-7.6000 I284.2933 J226.9590
G03 X63.3730 Y32.4892 Z-7.6000 I99.2306 J91.7413
G02 X77.8901 Y20.5526 Z-7.6000 I-2488.4061 J-3041.1339
G03 X88.2873 Y12.1288 Z-7.6000 I442.4286 J535.4539
G03 X104.4000 Y0.0000 Z-7.6000 I240.9909 J303.3797
G01 X104.4000 Y0.0000 Z-7.6000
G00 Z5.0000

(End cutting path id: path1596)
(End Pass 1)

(Start Pass 2)
(Start cutting path id: path1596)
(Change tool to Default tool)

G00 Z5.0000
G00 X104.4000 Y0.0000

G01 Z-15.2000 F100.0(Penetrate)
G03 X120.5572 Y11.9128 Z-15.2000 I-167.9770 J244.7390 F400.000000
G03 X130.9099 Y20.5526 Z-15.2000 I-159.0095 J201.0576
G03 X143.6748 Y32.6026 Z-15.2000 I-166.4580 J189.1183
G03 X155.7630 Y45.3380 Z-15.2000 I-312.0124 J308.2613
G02 X174.3784 Y65.5718 Z-15.2000 I2281.0407 J-2079.9133
G03 X190.5572 Y87.3367 Z-15.2000 I-91.3639 J84.8106
G03 X203.3055 Y114.3798 Z-15.2000 I-143.9070 J84.3648
G03 X208.7828 Y143.4711 Z-15.2000 I-84.7915 J31.0260
G03 X206.1861 Y165.2669 Z-15.2000 I-78.6185 J1.6858
G03 X197.1847 Y185.2011 Z-15.2000 I-64.1599 J-16.9722
G03 X184.9865 Y198.7894 Z-15.2000 I-53.6700 J-35.9103
G03 X169.0179 Y207.1858 Z-15.2000 I-27.3664 J-32.6631
G03 X149.0260 Y207.8648 Z-15.2000 I-11.4024 J-41.0771
G03 X129.2530 Y202.3500 Z-15.2000 I29.9456 J-145.5743
G03 X118.4720 Y197.3454 Z-15.2000 I21.2974 J-59.9938
G02 X104.4000 Y189.1428 Z-15.2000 I-11980.5114 J20537.1648
G03 X90.1548 Y197.0004 Z-15.2000 I-312.3748 J-549.4743
G03 X79.5469 Y202.3500 Z-15.2000 I-116.2360 J-217.2948
G03 X59.9767 Y208.3692 Z-15.2000 I-30.4542 J-64.1918
G03 X39.7820 Y207.1867 Z-15.2000 I-7.3541 J-47.4401
G03 X23.8134 Y198.7899 Z-15.2000 I11.3968 J-41.0565
G03 X11.6152 Y185.2011 Z-15.2000 I41.4776 J-49.5021
G03 X2.6140 Y165.2669 Z-15.2000 I55.1600 J-36.9067
G03 X0.0171 Y143.4711 Z-15.2000 I76.0240 J-20.1105
G03 X5.8401 Y114.5683 Z-15.2000 I83.5304 J1.7905
G03 X18.2427 Y87.3376 Z-15.2000 I271.8196 J107.3647
G03 X32.5411 Y65.3299 Z-15.2000 I119.5845 J62.0451
G03 X49.7233 Y45.3380 Z-15.2000 I284.2933 J226.9590
G03 X63.3730 Y32.4892 Z-15.2000 I99.2306 J91.7413
G02 X77.8901 Y20.5526 Z-15.2000 I-2488.4061 J-3041.1339
G03 X88.2873 Y12.1288 Z-15.2000 I442.4286 J535.4539
G03 X104.4000 Y0.0000 Z-15.2000 I240.9909 J303.3797
G01 X104.4000 Y0.0000 Z-15.2000
G00 Z5.0000

(End cutting path id: path1596)
(End Pass 2)

(Start Pass 3)
(Start cutting path id: path1596)
(Change tool to Default tool)

G00 Z5.0000
G00 X104.4000 Y0.0000

G01 Z-22.8000 F100.0(Penetrate)
G03 X120.5572 Y11.9128 Z-22.8000 I-167.9770 J244.7390 F400.000000
G03 X130.9099 Y20.5526 Z-22.8000 I-159.0095 J201.0576
G03 X143.6748 Y32.6026 Z-22.8000 I-166.4580 J189.1183
G03 X155.7630 Y45.3380 Z-22.8000 I-312.0124 J308.2613
G02 X174.3784 Y65.5718 Z-22.8000 I2281.0407 J-2079.9133
G03 X190.5572 Y87.3367 Z-22.8000 I-91.3639 J84.8106
G03 X203.3055 Y114.3798 Z-22.8000 I-143.9070 J84.3648
G03 X208.7828 Y143.4711 Z-22.8000 I-84.7915 J31.0260
G03 X206.1861 Y165.2669 Z-22.8000 I-78.6185 J1.6858
G03 X197.1847 Y185.2011 Z-22.8000 I-64.1599 J-16.9722
G03 X184.9865 Y198.7894 Z-22.8000 I-53.6700 J-35.9103
G03 X169.0179 Y207.1858 Z-22.8000 I-27.3664 J-32.6631
G03 X149.0260 Y207.8648 Z-22.8000 I-11.4024 J-41.0771
G03 X129.2530 Y202.3500 Z-22.8000 I29.9456 J-145.5743
G03 X118.4720 Y197.3454 Z-22.8000 I21.2974 J-59.9938
G02 X104.4000 Y189.1428 Z-22.8000 I-11980.5114 J20537.1648
G03 X90.1548 Y197.0004 Z-22.8000 I-312.3748 J-549.4743
G03 X79.5469 Y202.3500 Z-22.8000 I-116.2360 J-217.2948
G03 X59.9767 Y208.3692 Z-22.8000 I-30.4542 J-64.1918
G03 X39.7820 Y207.1867 Z-22.8000 I-7.3541 J-47.4401
G03 X23.8134 Y198.7899 Z-22.8000 I11.3968 J-41.0565
G03 X11.6152 Y185.2011 Z-22.8000 I41.4776 J-49.5021
G03 X2.6140 Y165.2669 Z-22.8000 I55.1600 J-36.9067
G03 X0.0171 Y143.4711 Z-22.8000 I76.0240 J-20.1105
G03 X5.8401 Y114.5683 Z-22.8000 I83.5304 J1.7905
G03 X18.2427 Y87.3376 Z-22.8000 I271.8196 J107.3647
G03 X32.5411 Y65.3299 Z-22.8000 I119.5845 J62.0451
G03 X49.7233 Y45.3380 Z-22.8000 I284.2933 J226.9590
G03 X63.3730 Y32.4892 Z-22.8000 I99.2306 J91.7413
G02 X77.8901 Y20.5526 Z-22.8000 I-2488.4061 J-3041.1339
G03 X88.2873 Y12.1288 Z-22.8000 I442.4286 J535.4539
G03 X104.4000 Y0.0000 Z-22.8000 I240.9909 J303.3797
G01 X104.4000 Y0.0000 Z-22.8000
G00 Z5.0000

(End cutting path id: path1596)
(End Pass 3)

(Start Pass 4)
(Start cutting path id: path1596)
(Change tool to Default tool)

G00 Z5.0000
G00 X104.4000 Y0.0000

G01 Z-30.5000 F100.0(Penetrate)
G03 X120.5572 Y11.9128 Z-30.5000 I-167.9770 J244.7390 F400.000000
G03 X130.9099 Y20.5526 Z-30.5000 I-159.0095 J201.0576
G03 X143.6748 Y32.6026 Z-30.5000 I-166.4580 J189.1183
G03 X155.7630 Y45.3380 Z-30.5000 I-312.0124 J308.2613
G02 X174.3784 Y65.5718 Z-30.5000 I2281.0407 J-2079.9133
G03 X190.5572 Y87.3367 Z-30.5000 I-91.3639 J84.8106
G03 X203.3055 Y114.3798 Z-30.5000 I-143.9070 J84.3648
G03 X208.7828 Y143.4711 Z-30.5000 I-84.7915 J31.0260
G03 X206.1861 Y165.2669 Z-30.5000 I-78.6185 J1.6858
G03 X197.1847 Y185.2011 Z-30.5000 I-64.1599 J-16.9722
G03 X184.9865 Y198.7894 Z-30.5000 I-53.6700 J-35.9103
G03 X169.0179 Y207.1858 Z-30.5000 I-27.3664 J-32.6631
G03 X149.0260 Y207.8648 Z-30.5000 I-11.4024 J-41.0771
G03 X129.2530 Y202.3500 Z-30.5000 I29.9456 J-145.5743
G03 X118.4720 Y197.3454 Z-30.5000 I21.2974 J-59.9938
G02 X104.4000 Y189.1428 Z-30.5000 I-11980.5114 J20537.1648
G03 X90.1548 Y197.0004 Z-30.5000 I-312.3748 J-549.4743
G03 X79.5469 Y202.3500 Z-30.5000 I-116.2360 J-217.2948
G03 X59.9767 Y208.3692 Z-30.5000 I-30.4542 J-64.1918
G03 X39.7820 Y207.1867 Z-30.5000 I-7.3541 J-47.4401
G03 X23.8134 Y198.7899 Z-30.5000 I11.3968 J-41.0565
G03 X11.6152 Y185.2011 Z-30.5000 I41.4776 J-49.5021
G03 X2.6140 Y165.2669 Z-30.5000 I55.1600 J-36.9067
G03 X0.0171 Y143.4711 Z-30.5000 I76.0240 J-20.1105
G03 X5.8401 Y114.5683 Z-30.5000 I83.5304 J1.7905
G03 X18.2427 Y87.3376 Z-30.5000 I271.8196 J107.3647
G03 X32.5411 Y65.3299 Z-30.5000 I119.5845 J62.0451
G03 X49.7233 Y45.3380 Z-30.5000 I284.2933 J226.9590
G03 X63.3730 Y32.4892 Z-30.5000 I99.2306 J91.7413
G02 X77.8901 Y20.5526 Z-30.5000 I-2488.4061 J-3041.1339
G03 X88.2873 Y12.1288 Z-30.5000 I442.4286 J535.4539
G03 X104.4000 Y0.0000 Z-30.5000 I240.9909 J303.3797
G01 X104.4000 Y0.0000 Z-30.5000
G00 Z5.0000

(End cutting path id: path1596)
(End Pass 4)

(Footer)
M5
G00 X0.0000 Y0.0000
M2
(Using default footer. To add your own footer create file "footer" in the output dir.)
(end)
%
